(G-CODE GENERATED BY FLATCAM v8.994 - www.flatcam.org - Version Date: 2020/11/7)

(Name: Drill_PTH_Through.DRL_edit_mill_cnc)
(Type: G-code from Geometry)
(Units: MM)

(Created on Thursday, 12 May 2022 at 15:42)

(This preprocessor is the default preprocessor used by FlatCAM.)
(It is made to work with MACH3 compatible motion controllers.)

(TOOL DIAMETER: 0.5 mm)
(Feedrate_XY: 120.0 mm/min)
(Feedrate_Z: 60.0 mm/min)
(Feedrate rapids 1500.0 mm/min)

(Z_Cut: -1.0 mm)
(DepthPerCut: 0.5 mm <=>2 passes)
(Z_Move: 2.0 mm)
(Z Start: None mm)
(Z End: 15.0 mm)
(X,Y End: None mm)
(Steps per circle: 64)
(Preprocessor Geometry: default)

(X range:    3.7700 ...   14.2300  mm)
(Y range:    6.7500 ...   83.2500  mm)

(Spindle Speed: 0.0 RPM)
G21
G90
G94

G01 F120.00

M5
G00 Z15.0000
G00 X0.0000 Y0.0000
T1
M6    
(MSG, Change to Tool Dia = 0.5000)
M0
G00 Z15.0000

M03
G01 F120.00
G00 X4.0700 Y6.9000
G01 F60.00
G01 Z-0.5000
G01 F120.00
G01 X4.0693 Y6.8853
G01 X4.0671 Y6.8707
G01 X4.0635 Y6.8565
G01 X4.0586 Y6.8426
G01 X4.0523 Y6.8293
G01 X4.0447 Y6.8167
G01 X4.0360 Y6.8048
G01 X4.0261 Y6.7939
G01 X4.0152 Y6.7840
G01 X4.0033 Y6.7753
G01 X3.9907 Y6.7677
G01 X3.9774 Y6.7614
G01 X3.9635 Y6.7565
G01 X3.9493 Y6.7529
G01 X3.9347 Y6.7507
G01 X3.9200 Y6.7500
G01 X3.9053 Y6.7507
G01 X3.8907 Y6.7529
G01 X3.8765 Y6.7565
G01 X3.8626 Y6.7614
G01 X3.8493 Y6.7677
G01 X3.8367 Y6.7753
G01 X3.8248 Y6.7840
G01 X3.8139 Y6.7939
G01 X3.8040 Y6.8048
G01 X3.7953 Y6.8167
G01 X3.7877 Y6.8293
G01 X3.7814 Y6.8426
G01 X3.7765 Y6.8565
G01 X3.7729 Y6.8707
G01 X3.7707 Y6.8853
G01 X3.7700 Y6.9000
G01 X3.7707 Y6.9147
G01 X3.7729 Y6.9293
G01 X3.7765 Y6.9435
G01 X3.7814 Y6.9574
G01 X3.7877 Y6.9707
G01 X3.7953 Y6.9833
G01 X3.8040 Y6.9952
G01 X3.8139 Y7.0061
G01 X3.8248 Y7.0160
G01 X3.8367 Y7.0247
G01 X3.8493 Y7.0323
G01 X3.8626 Y7.0386
G01 X3.8765 Y7.0435
G01 X3.8907 Y7.0471
G01 X3.9053 Y7.0493
G01 X3.9200 Y7.0500
G01 X3.9347 Y7.0493
G01 X3.9493 Y7.0471
G01 X3.9635 Y7.0435
G01 X3.9774 Y7.0386
G01 X3.9907 Y7.0323
G01 X4.0033 Y7.0247
G01 X4.0152 Y7.0160
G01 X4.0261 Y7.0061
G01 X4.0360 Y6.9952
G01 X4.0447 Y6.9833
G01 X4.0523 Y6.9707
G01 X4.0586 Y6.9574
G01 X4.0635 Y6.9435
G01 X4.0671 Y6.9293
G01 X4.0693 Y6.9147
G01 X4.0700 Y6.9000
G00 X4.0700 Y6.9000
G01 F60.00
G01 Z-1.0000
G01 F120.00
G01 X4.0693 Y6.8853
G01 X4.0671 Y6.8707
G01 X4.0635 Y6.8565
G01 X4.0586 Y6.8426
G01 X4.0523 Y6.8293
G01 X4.0447 Y6.8167
G01 X4.0360 Y6.8048
G01 X4.0261 Y6.7939
G01 X4.0152 Y6.7840
G01 X4.0033 Y6.7753
G01 X3.9907 Y6.7677
G01 X3.9774 Y6.7614
G01 X3.9635 Y6.7565
G01 X3.9493 Y6.7529
G01 X3.9347 Y6.7507
G01 X3.9200 Y6.7500
G01 X3.9053 Y6.7507
G01 X3.8907 Y6.7529
G01 X3.8765 Y6.7565
G01 X3.8626 Y6.7614
G01 X3.8493 Y6.7677
G01 X3.8367 Y6.7753
G01 X3.8248 Y6.7840
G01 X3.8139 Y6.7939
G01 X3.8040 Y6.8048
G01 X3.7953 Y6.8167
G01 X3.7877 Y6.8293
G01 X3.7814 Y6.8426
G01 X3.7765 Y6.8565
G01 X3.7729 Y6.8707
G01 X3.7707 Y6.8853
G01 X3.7700 Y6.9000
G01 X3.7707 Y6.9147
G01 X3.7729 Y6.9293
G01 X3.7765 Y6.9435
G01 X3.7814 Y6.9574
G01 X3.7877 Y6.9707
G01 X3.7953 Y6.9833
G01 X3.8040 Y6.9952
G01 X3.8139 Y7.0061
G01 X3.8248 Y7.0160
G01 X3.8367 Y7.0247
G01 X3.8493 Y7.0323
G01 X3.8626 Y7.0386
G01 X3.8765 Y7.0435
G01 X3.8907 Y7.0471
G01 X3.9053 Y7.0493
G01 X3.9200 Y7.0500
G01 X3.9347 Y7.0493
G01 X3.9493 Y7.0471
G01 X3.9635 Y7.0435
G01 X3.9774 Y7.0386
G01 X3.9907 Y7.0323
G01 X4.0033 Y7.0247
G01 X4.0152 Y7.0160
G01 X4.0261 Y7.0061
G01 X4.0360 Y6.9952
G01 X4.0447 Y6.9833
G01 X4.0523 Y6.9707
G01 X4.0586 Y6.9574
G01 X4.0635 Y6.9435
G01 X4.0671 Y6.9293
G01 X4.0693 Y6.9147
G01 X4.0700 Y6.9000
G00 Z2.0000
G00 X9.1500 Y6.9000
G01 F60.00
G01 Z-0.5000
G01 F120.00
G01 X9.1493 Y6.8853
G01 X9.1471 Y6.8707
G01 X9.1435 Y6.8565
G01 X9.1386 Y6.8426
G01 X9.1323 Y6.8293
G01 X9.1247 Y6.8167
G01 X9.1160 Y6.8048
G01 X9.1061 Y6.7939
G01 X9.0952 Y6.7840
G01 X9.0833 Y6.7753
G01 X9.0707 Y6.7677
G01 X9.0574 Y6.7614
G01 X9.0435 Y6.7565
G01 X9.0293 Y6.7529
G01 X9.0147 Y6.7507
G01 X9.0000 Y6.7500
G01 X8.9853 Y6.7507
G01 X8.9707 Y6.7529
G01 X8.9565 Y6.7565
G01 X8.9426 Y6.7614
G01 X8.9293 Y6.7677
G01 X8.9167 Y6.7753
G01 X8.9048 Y6.7840
G01 X8.8939 Y6.7939
G01 X8.8840 Y6.8048
G01 X8.8753 Y6.8167
G01 X8.8677 Y6.8293
G01 X8.8614 Y6.8426
G01 X8.8565 Y6.8565
G01 X8.8529 Y6.8707
G01 X8.8507 Y6.8853
G01 X8.8500 Y6.9000
G01 X8.8507 Y6.9147
G01 X8.8529 Y6.9293
G01 X8.8565 Y6.9435
G01 X8.8614 Y6.9574
G01 X8.8677 Y6.9707
G01 X8.8753 Y6.9833
G01 X8.8840 Y6.9952
G01 X8.8939 Y7.0061
G01 X8.9048 Y7.0160
G01 X8.9167 Y7.0247
G01 X8.9293 Y7.0323
G01 X8.9426 Y7.0386
G01 X8.9565 Y7.0435
G01 X8.9707 Y7.0471
G01 X8.9853 Y7.0493
G01 X9.0000 Y7.0500
G01 X9.0147 Y7.0493
G01 X9.0293 Y7.0471
G01 X9.0435 Y7.0435
G01 X9.0574 Y7.0386
G01 X9.0707 Y7.0323
G01 X9.0833 Y7.0247
G01 X9.0952 Y7.0160
G01 X9.1061 Y7.0061
G01 X9.1160 Y6.9952
G01 X9.1247 Y6.9833
G01 X9.1323 Y6.9707
G01 X9.1386 Y6.9574
G01 X9.1435 Y6.9435
G01 X9.1471 Y6.9293
G01 X9.1493 Y6.9147
G01 X9.1500 Y6.9000
G00 X9.1500 Y6.9000
G01 F60.00
G01 Z-1.0000
G01 F120.00
G01 X9.1493 Y6.8853
G01 X9.1471 Y6.8707
G01 X9.1435 Y6.8565
G01 X9.1386 Y6.8426
G01 X9.1323 Y6.8293
G01 X9.1247 Y6.8167
G01 X9.1160 Y6.8048
G01 X9.1061 Y6.7939
G01 X9.0952 Y6.7840
G01 X9.0833 Y6.7753
G01 X9.0707 Y6.7677
G01 X9.0574 Y6.7614
G01 X9.0435 Y6.7565
G01 X9.0293 Y6.7529
G01 X9.0147 Y6.7507
G01 X9.0000 Y6.7500
G01 X8.9853 Y6.7507
G01 X8.9707 Y6.7529
G01 X8.9565 Y6.7565
G01 X8.9426 Y6.7614
G01 X8.9293 Y6.7677
G01 X8.9167 Y6.7753
G01 X8.9048 Y6.7840
G01 X8.8939 Y6.7939
G01 X8.8840 Y6.8048
G01 X8.8753 Y6.8167
G01 X8.8677 Y6.8293
G01 X8.8614 Y6.8426
G01 X8.8565 Y6.8565
G01 X8.8529 Y6.8707
G01 X8.8507 Y6.8853
G01 X8.8500 Y6.9000
G01 X8.8507 Y6.9147
G01 X8.8529 Y6.9293
G01 X8.8565 Y6.9435
G01 X8.8614 Y6.9574
G01 X8.8677 Y6.9707
G01 X8.8753 Y6.9833
G01 X8.8840 Y6.9952
G01 X8.8939 Y7.0061
G01 X8.9048 Y7.0160
G01 X8.9167 Y7.0247
G01 X8.9293 Y7.0323
G01 X8.9426 Y7.0386
G01 X8.9565 Y7.0435
G01 X8.9707 Y7.0471
G01 X8.9853 Y7.0493
G01 X9.0000 Y7.0500
G01 X9.0147 Y7.0493
G01 X9.0293 Y7.0471
G01 X9.0435 Y7.0435
G01 X9.0574 Y7.0386
G01 X9.0707 Y7.0323
G01 X9.0833 Y7.0247
G01 X9.0952 Y7.0160
G01 X9.1061 Y7.0061
G01 X9.1160 Y6.9952
G01 X9.1247 Y6.9833
G01 X9.1323 Y6.9707
G01 X9.1386 Y6.9574
G01 X9.1435 Y6.9435
G01 X9.1471 Y6.9293
G01 X9.1493 Y6.9147
G01 X9.1500 Y6.9000
G00 Z2.0000
G00 X10.4200 Y16.5520
G01 F60.00
G01 Z-0.5000
G01 F120.00
G01 X10.4193 Y16.5373
G01 X10.4171 Y16.5227
G01 X10.4135 Y16.5085
G01 X10.4086 Y16.4946
G01 X10.4023 Y16.4813
G01 X10.3947 Y16.4687
G01 X10.3860 Y16.4568
G01 X10.3761 Y16.4459
G01 X10.3652 Y16.4360
G01 X10.3533 Y16.4273
G01 X10.3407 Y16.4197
G01 X10.3274 Y16.4134
G01 X10.3135 Y16.4085
G01 X10.2993 Y16.4049
G01 X10.2847 Y16.4027
G01 X10.2700 Y16.4020
G01 X10.2553 Y16.4027
G01 X10.2407 Y16.4049
G01 X10.2265 Y16.4085
G01 X10.2126 Y16.4134
G01 X10.1993 Y16.4197
G01 X10.1867 Y16.4273
G01 X10.1748 Y16.4360
G01 X10.1639 Y16.4459
G01 X10.1540 Y16.4568
G01 X10.1453 Y16.4687
G01 X10.1377 Y16.4813
G01 X10.1314 Y16.4946
G01 X10.1265 Y16.5085
G01 X10.1229 Y16.5227
G01 X10.1207 Y16.5373
G01 X10.1200 Y16.5520
G01 X10.1207 Y16.5667
G01 X10.1229 Y16.5813
G01 X10.1265 Y16.5955
G01 X10.1314 Y16.6094
G01 X10.1377 Y16.6227
G01 X10.1453 Y16.6353
G01 X10.1540 Y16.6472
G01 X10.1639 Y16.6581
G01 X10.1748 Y16.6680
G01 X10.1867 Y16.6767
G01 X10.1993 Y16.6843
G01 X10.2126 Y16.6906
G01 X10.2265 Y16.6955
G01 X10.2407 Y16.6991
G01 X10.2553 Y16.7013
G01 X10.2700 Y16.7020
G01 X10.2847 Y16.7013
G01 X10.2993 Y16.6991
G01 X10.3135 Y16.6955
G01 X10.3274 Y16.6906
G01 X10.3407 Y16.6843
G01 X10.3533 Y16.6767
G01 X10.3652 Y16.6680
G01 X10.3761 Y16.6581
G01 X10.3860 Y16.6472
G01 X10.3947 Y16.6353
G01 X10.4023 Y16.6227
G01 X10.4086 Y16.6094
G01 X10.4135 Y16.5955
G01 X10.4171 Y16.5813
G01 X10.4193 Y16.5667
G01 X10.4200 Y16.5520
G00 X10.4200 Y16.5520
G01 F60.00
G01 Z-1.0000
G01 F120.00
G01 X10.4193 Y16.5373
G01 X10.4171 Y16.5227
G01 X10.4135 Y16.5085
G01 X10.4086 Y16.4946
G01 X10.4023 Y16.4813
G01 X10.3947 Y16.4687
G01 X10.3860 Y16.4568
G01 X10.3761 Y16.4459
G01 X10.3652 Y16.4360
G01 X10.3533 Y16.4273
G01 X10.3407 Y16.4197
G01 X10.3274 Y16.4134
G01 X10.3135 Y16.4085
G01 X10.2993 Y16.4049
G01 X10.2847 Y16.4027
G01 X10.2700 Y16.4020
G01 X10.2553 Y16.4027
G01 X10.2407 Y16.4049
G01 X10.2265 Y16.4085
G01 X10.2126 Y16.4134
G01 X10.1993 Y16.4197
G01 X10.1867 Y16.4273
G01 X10.1748 Y16.4360
G01 X10.1639 Y16.4459
G01 X10.1540 Y16.4568
G01 X10.1453 Y16.4687
G01 X10.1377 Y16.4813
G01 X10.1314 Y16.4946
G01 X10.1265 Y16.5085
G01 X10.1229 Y16.5227
G01 X10.1207 Y16.5373
G01 X10.1200 Y16.5520
G01 X10.1207 Y16.5667
G01 X10.1229 Y16.5813
G01 X10.1265 Y16.5955
G01 X10.1314 Y16.6094
G01 X10.1377 Y16.6227
G01 X10.1453 Y16.6353
G01 X10.1540 Y16.6472
G01 X10.1639 Y16.6581
G01 X10.1748 Y16.6680
G01 X10.1867 Y16.6767
G01 X10.1993 Y16.6843
G01 X10.2126 Y16.6906
G01 X10.2265 Y16.6955
G01 X10.2407 Y16.6991
G01 X10.2553 Y16.7013
G01 X10.2700 Y16.7020
G01 X10.2847 Y16.7013
G01 X10.2993 Y16.6991
G01 X10.3135 Y16.6955
G01 X10.3274 Y16.6906
G01 X10.3407 Y16.6843
G01 X10.3533 Y16.6767
G01 X10.3652 Y16.6680
G01 X10.3761 Y16.6581
G01 X10.3860 Y16.6472
G01 X10.3947 Y16.6353
G01 X10.4023 Y16.6227
G01 X10.4086 Y16.6094
G01 X10.4135 Y16.5955
G01 X10.4171 Y16.5813
G01 X10.4193 Y16.5667
G01 X10.4200 Y16.5520
G00 Z2.0000
G00 X7.8800 Y16.5520
G01 F60.00
G01 Z-0.5000
G01 F120.00
G01 X7.8793 Y16.5373
G01 X7.8771 Y16.5227
G01 X7.8735 Y16.5085
G01 X7.8686 Y16.4946
G01 X7.8623 Y16.4813
G01 X7.8547 Y16.4687
G01 X7.8460 Y16.4568
G01 X7.8361 Y16.4459
G01 X7.8252 Y16.4360
G01 X7.8133 Y16.4273
G01 X7.8007 Y16.4197
G01 X7.7874 Y16.4134
G01 X7.7735 Y16.4085
G01 X7.7593 Y16.4049
G01 X7.7447 Y16.4027
G01 X7.7300 Y16.4020
G01 X7.7153 Y16.4027
G01 X7.7007 Y16.4049
G01 X7.6865 Y16.4085
G01 X7.6726 Y16.4134
G01 X7.6593 Y16.4197
G01 X7.6467 Y16.4273
G01 X7.6348 Y16.4360
G01 X7.6239 Y16.4459
G01 X7.6140 Y16.4568
G01 X7.6053 Y16.4687
G01 X7.5977 Y16.4813
G01 X7.5914 Y16.4946
G01 X7.5865 Y16.5085
G01 X7.5829 Y16.5227
G01 X7.5807 Y16.5373
G01 X7.5800 Y16.5520
G01 X7.5807 Y16.5667
G01 X7.5829 Y16.5813
G01 X7.5865 Y16.5955
G01 X7.5914 Y16.6094
G01 X7.5977 Y16.6227
G01 X7.6053 Y16.6353
G01 X7.6140 Y16.6472
G01 X7.6239 Y16.6581
G01 X7.6348 Y16.6680
G01 X7.6467 Y16.6767
G01 X7.6593 Y16.6843
G01 X7.6726 Y16.6906
G01 X7.6865 Y16.6955
G01 X7.7007 Y16.6991
G01 X7.7153 Y16.7013
G01 X7.7300 Y16.7020
G01 X7.7447 Y16.7013
G01 X7.7593 Y16.6991
G01 X7.7735 Y16.6955
G01 X7.7874 Y16.6906
G01 X7.8007 Y16.6843
G01 X7.8133 Y16.6767
G01 X7.8252 Y16.6680
G01 X7.8361 Y16.6581
G01 X7.8460 Y16.6472
G01 X7.8547 Y16.6353
G01 X7.8623 Y16.6227
G01 X7.8686 Y16.6094
G01 X7.8735 Y16.5955
G01 X7.8771 Y16.5813
G01 X7.8793 Y16.5667
G01 X7.8800 Y16.5520
G00 X7.8800 Y16.5520
G01 F60.00
G01 Z-1.0000
G01 F120.00
G01 X7.8793 Y16.5373
G01 X7.8771 Y16.5227
G01 X7.8735 Y16.5085
G01 X7.8686 Y16.4946
G01 X7.8623 Y16.4813
G01 X7.8547 Y16.4687
G01 X7.8460 Y16.4568
G01 X7.8361 Y16.4459
G01 X7.8252 Y16.4360
G01 X7.8133 Y16.4273
G01 X7.8007 Y16.4197
G01 X7.7874 Y16.4134
G01 X7.7735 Y16.4085
G01 X7.7593 Y16.4049
G01 X7.7447 Y16.4027
G01 X7.7300 Y16.4020
G01 X7.7153 Y16.4027
G01 X7.7007 Y16.4049
G01 X7.6865 Y16.4085
G01 X7.6726 Y16.4134
G01 X7.6593 Y16.4197
G01 X7.6467 Y16.4273
G01 X7.6348 Y16.4360
G01 X7.6239 Y16.4459
G01 X7.6140 Y16.4568
G01 X7.6053 Y16.4687
G01 X7.5977 Y16.4813
G01 X7.5914 Y16.4946
G01 X7.5865 Y16.5085
G01 X7.5829 Y16.5227
G01 X7.5807 Y16.5373
G01 X7.5800 Y16.5520
G01 X7.5807 Y16.5667
G01 X7.5829 Y16.5813
G01 X7.5865 Y16.5955
G01 X7.5914 Y16.6094
G01 X7.5977 Y16.6227
G01 X7.6053 Y16.6353
G01 X7.6140 Y16.6472
G01 X7.6239 Y16.6581
G01 X7.6348 Y16.6680
G01 X7.6467 Y16.6767
G01 X7.6593 Y16.6843
G01 X7.6726 Y16.6906
G01 X7.6865 Y16.6955
G01 X7.7007 Y16.6991
G01 X7.7153 Y16.7013
G01 X7.7300 Y16.7020
G01 X7.7447 Y16.7013
G01 X7.7593 Y16.6991
G01 X7.7735 Y16.6955
G01 X7.7874 Y16.6906
G01 X7.8007 Y16.6843
G01 X7.8133 Y16.6767
G01 X7.8252 Y16.6680
G01 X7.8361 Y16.6581
G01 X7.8460 Y16.6472
G01 X7.8547 Y16.6353
G01 X7.8623 Y16.6227
G01 X7.8686 Y16.6094
G01 X7.8735 Y16.5955
G01 X7.8771 Y16.5813
G01 X7.8793 Y16.5667
G01 X7.8800 Y16.5520
G00 Z2.0000
G00 X5.3400 Y16.5520
G01 F60.00
G01 Z-0.5000
G01 F120.00
G01 X5.3393 Y16.5373
G01 X5.3371 Y16.5227
G01 X5.3335 Y16.5085
G01 X5.3286 Y16.4946
G01 X5.3223 Y16.4813
G01 X5.3147 Y16.4687
G01 X5.3060 Y16.4568
G01 X5.2961 Y16.4459
G01 X5.2852 Y16.4360
G01 X5.2733 Y16.4273
G01 X5.2607 Y16.4197
G01 X5.2474 Y16.4134
G01 X5.2335 Y16.4085
G01 X5.2193 Y16.4049
G01 X5.2047 Y16.4027
G01 X5.1900 Y16.4020
G01 X5.1753 Y16.4027
G01 X5.1607 Y16.4049
G01 X5.1465 Y16.4085
G01 X5.1326 Y16.4134
G01 X5.1193 Y16.4197
G01 X5.1067 Y16.4273
G01 X5.0948 Y16.4360
G01 X5.0839 Y16.4459
G01 X5.0740 Y16.4568
G01 X5.0653 Y16.4687
G01 X5.0577 Y16.4813
G01 X5.0514 Y16.4946
G01 X5.0465 Y16.5085
G01 X5.0429 Y16.5227
G01 X5.0407 Y16.5373
G01 X5.0400 Y16.5520
G01 X5.0407 Y16.5667
G01 X5.0429 Y16.5813
G01 X5.0465 Y16.5955
G01 X5.0514 Y16.6094
G01 X5.0577 Y16.6227
G01 X5.0653 Y16.6353
G01 X5.0740 Y16.6472
G01 X5.0839 Y16.6581
G01 X5.0948 Y16.6680
G01 X5.1067 Y16.6767
G01 X5.1193 Y16.6843
G01 X5.1326 Y16.6906
G01 X5.1465 Y16.6955
G01 X5.1607 Y16.6991
G01 X5.1753 Y16.7013
G01 X5.1900 Y16.7020
G01 X5.2047 Y16.7013
G01 X5.2193 Y16.6991
G01 X5.2335 Y16.6955
G01 X5.2474 Y16.6906
G01 X5.2607 Y16.6843
G01 X5.2733 Y16.6767
G01 X5.2852 Y16.6680
G01 X5.2961 Y16.6581
G01 X5.3060 Y16.6472
G01 X5.3147 Y16.6353
G01 X5.3223 Y16.6227
G01 X5.3286 Y16.6094
G01 X5.3335 Y16.5955
G01 X5.3371 Y16.5813
G01 X5.3393 Y16.5667
G01 X5.3400 Y16.5520
G00 X5.3400 Y16.5520
G01 F60.00
G01 Z-1.0000
G01 F120.00
G01 X5.3393 Y16.5373
G01 X5.3371 Y16.5227
G01 X5.3335 Y16.5085
G01 X5.3286 Y16.4946
G01 X5.3223 Y16.4813
G01 X5.3147 Y16.4687
G01 X5.3060 Y16.4568
G01 X5.2961 Y16.4459
G01 X5.2852 Y16.4360
G01 X5.2733 Y16.4273
G01 X5.2607 Y16.4197
G01 X5.2474 Y16.4134
G01 X5.2335 Y16.4085
G01 X5.2193 Y16.4049
G01 X5.2047 Y16.4027
G01 X5.1900 Y16.4020
G01 X5.1753 Y16.4027
G01 X5.1607 Y16.4049
G01 X5.1465 Y16.4085
G01 X5.1326 Y16.4134
G01 X5.1193 Y16.4197
G01 X5.1067 Y16.4273
G01 X5.0948 Y16.4360
G01 X5.0839 Y16.4459
G01 X5.0740 Y16.4568
G01 X5.0653 Y16.4687
G01 X5.0577 Y16.4813
G01 X5.0514 Y16.4946
G01 X5.0465 Y16.5085
G01 X5.0429 Y16.5227
G01 X5.0407 Y16.5373
G01 X5.0400 Y16.5520
G01 X5.0407 Y16.5667
G01 X5.0429 Y16.5813
G01 X5.0465 Y16.5955
G01 X5.0514 Y16.6094
G01 X5.0577 Y16.6227
G01 X5.0653 Y16.6353
G01 X5.0740 Y16.6472
G01 X5.0839 Y16.6581
G01 X5.0948 Y16.6680
G01 X5.1067 Y16.6767
G01 X5.1193 Y16.6843
G01 X5.1326 Y16.6906
G01 X5.1465 Y16.6955
G01 X5.1607 Y16.6991
G01 X5.1753 Y16.7013
G01 X5.1900 Y16.7020
G01 X5.2047 Y16.7013
G01 X5.2193 Y16.6991
G01 X5.2335 Y16.6955
G01 X5.2474 Y16.6906
G01 X5.2607 Y16.6843
G01 X5.2733 Y16.6767
G01 X5.2852 Y16.6680
G01 X5.2961 Y16.6581
G01 X5.3060 Y16.6472
G01 X5.3147 Y16.6353
G01 X5.3223 Y16.6227
G01 X5.3286 Y16.6094
G01 X5.3335 Y16.5955
G01 X5.3371 Y16.5813
G01 X5.3393 Y16.5667
G01 X5.3400 Y16.5520
G00 Z2.0000
G00 X13.7220 Y17.3140
G01 F60.00
G01 Z-0.5000
G01 F120.00
G01 X13.7213 Y17.2993
G01 X13.7191 Y17.2847
G01 X13.7155 Y17.2705
G01 X13.7106 Y17.2566
G01 X13.7043 Y17.2433
G01 X13.6967 Y17.2307
G01 X13.6880 Y17.2188
G01 X13.6781 Y17.2079
G01 X13.6672 Y17.1980
G01 X13.6553 Y17.1893
G01 X13.6427 Y17.1817
G01 X13.6294 Y17.1754
G01 X13.6155 Y17.1705
G01 X13.6013 Y17.1669
G01 X13.5867 Y17.1647
G01 X13.5720 Y17.1640
G01 X13.5573 Y17.1647
G01 X13.5427 Y17.1669
G01 X13.5285 Y17.1705
G01 X13.5146 Y17.1754
G01 X13.5013 Y17.1817
G01 X13.4887 Y17.1893
G01 X13.4768 Y17.1980
G01 X13.4659 Y17.2079
G01 X13.4560 Y17.2188
G01 X13.4473 Y17.2307
G01 X13.4397 Y17.2433
G01 X13.4334 Y17.2566
G01 X13.4285 Y17.2705
G01 X13.4249 Y17.2847
G01 X13.4227 Y17.2993
G01 X13.4220 Y17.3140
G01 X13.4227 Y17.3287
G01 X13.4249 Y17.3433
G01 X13.4285 Y17.3575
G01 X13.4334 Y17.3714
G01 X13.4397 Y17.3847
G01 X13.4473 Y17.3973
G01 X13.4560 Y17.4092
G01 X13.4659 Y17.4201
G01 X13.4768 Y17.4300
G01 X13.4887 Y17.4387
G01 X13.5013 Y17.4463
G01 X13.5146 Y17.4526
G01 X13.5285 Y17.4575
G01 X13.5427 Y17.4611
G01 X13.5573 Y17.4633
G01 X13.5720 Y17.4640
G01 X13.5867 Y17.4633
G01 X13.6013 Y17.4611
G01 X13.6155 Y17.4575
G01 X13.6294 Y17.4526
G01 X13.6427 Y17.4463
G01 X13.6553 Y17.4387
G01 X13.6672 Y17.4300
G01 X13.6781 Y17.4201
G01 X13.6880 Y17.4092
G01 X13.6967 Y17.3973
G01 X13.7043 Y17.3847
G01 X13.7106 Y17.3714
G01 X13.7155 Y17.3575
G01 X13.7191 Y17.3433
G01 X13.7213 Y17.3287
G01 X13.7220 Y17.3140
G00 X13.7220 Y17.3140
G01 F60.00
G01 Z-1.0000
G01 F120.00
G01 X13.7213 Y17.2993
G01 X13.7191 Y17.2847
G01 X13.7155 Y17.2705
G01 X13.7106 Y17.2566
G01 X13.7043 Y17.2433
G01 X13.6967 Y17.2307
G01 X13.6880 Y17.2188
G01 X13.6781 Y17.2079
G01 X13.6672 Y17.1980
G01 X13.6553 Y17.1893
G01 X13.6427 Y17.1817
G01 X13.6294 Y17.1754
G01 X13.6155 Y17.1705
G01 X13.6013 Y17.1669
G01 X13.5867 Y17.1647
G01 X13.5720 Y17.1640
G01 X13.5573 Y17.1647
G01 X13.5427 Y17.1669
G01 X13.5285 Y17.1705
G01 X13.5146 Y17.1754
G01 X13.5013 Y17.1817
G01 X13.4887 Y17.1893
G01 X13.4768 Y17.1980
G01 X13.4659 Y17.2079
G01 X13.4560 Y17.2188
G01 X13.4473 Y17.2307
G01 X13.4397 Y17.2433
G01 X13.4334 Y17.2566
G01 X13.4285 Y17.2705
G01 X13.4249 Y17.2847
G01 X13.4227 Y17.2993
G01 X13.4220 Y17.3140
G01 X13.4227 Y17.3287
G01 X13.4249 Y17.3433
G01 X13.4285 Y17.3575
G01 X13.4334 Y17.3714
G01 X13.4397 Y17.3847
G01 X13.4473 Y17.3973
G01 X13.4560 Y17.4092
G01 X13.4659 Y17.4201
G01 X13.4768 Y17.4300
G01 X13.4887 Y17.4387
G01 X13.5013 Y17.4463
G01 X13.5146 Y17.4526
G01 X13.5285 Y17.4575
G01 X13.5427 Y17.4611
G01 X13.5573 Y17.4633
G01 X13.5720 Y17.4640
G01 X13.5867 Y17.4633
G01 X13.6013 Y17.4611
G01 X13.6155 Y17.4575
G01 X13.6294 Y17.4526
G01 X13.6427 Y17.4463
G01 X13.6553 Y17.4387
G01 X13.6672 Y17.4300
G01 X13.6781 Y17.4201
G01 X13.6880 Y17.4092
G01 X13.6967 Y17.3973
G01 X13.7043 Y17.3847
G01 X13.7106 Y17.3714
G01 X13.7155 Y17.3575
G01 X13.7191 Y17.3433
G01 X13.7213 Y17.3287
G01 X13.7220 Y17.3140
G00 Z2.0000
G00 X13.7220 Y19.8540
G01 F60.00
G01 Z-0.5000
G01 F120.00
G01 X13.7213 Y19.8393
G01 X13.7191 Y19.8247
G01 X13.7155 Y19.8105
G01 X13.7106 Y19.7966
G01 X13.7043 Y19.7833
G01 X13.6967 Y19.7707
G01 X13.6880 Y19.7588
G01 X13.6781 Y19.7479
G01 X13.6672 Y19.7380
G01 X13.6553 Y19.7293
G01 X13.6427 Y19.7217
G01 X13.6294 Y19.7154
G01 X13.6155 Y19.7105
G01 X13.6013 Y19.7069
G01 X13.5867 Y19.7047
G01 X13.5720 Y19.7040
G01 X13.5573 Y19.7047
G01 X13.5427 Y19.7069
G01 X13.5285 Y19.7105
G01 X13.5146 Y19.7154
G01 X13.5013 Y19.7217
G01 X13.4887 Y19.7293
G01 X13.4768 Y19.7380
G01 X13.4659 Y19.7479
G01 X13.4560 Y19.7588
G01 X13.4473 Y19.7707
G01 X13.4397 Y19.7833
G01 X13.4334 Y19.7966
G01 X13.4285 Y19.8105
G01 X13.4249 Y19.8247
G01 X13.4227 Y19.8393
G01 X13.4220 Y19.8540
G01 X13.4227 Y19.8687
G01 X13.4249 Y19.8833
G01 X13.4285 Y19.8975
G01 X13.4334 Y19.9114
G01 X13.4397 Y19.9247
G01 X13.4473 Y19.9373
G01 X13.4560 Y19.9492
G01 X13.4659 Y19.9601
G01 X13.4768 Y19.9700
G01 X13.4887 Y19.9787
G01 X13.5013 Y19.9863
G01 X13.5146 Y19.9926
G01 X13.5285 Y19.9975
G01 X13.5427 Y20.0011
G01 X13.5573 Y20.0033
G01 X13.5720 Y20.0040
G01 X13.5867 Y20.0033
G01 X13.6013 Y20.0011
G01 X13.6155 Y19.9975
G01 X13.6294 Y19.9926
G01 X13.6427 Y19.9863
G01 X13.6553 Y19.9787
G01 X13.6672 Y19.9700
G01 X13.6781 Y19.9601
G01 X13.6880 Y19.9492
G01 X13.6967 Y19.9373
G01 X13.7043 Y19.9247
G01 X13.7106 Y19.9114
G01 X13.7155 Y19.8975
G01 X13.7191 Y19.8833
G01 X13.7213 Y19.8687
G01 X13.7220 Y19.8540
G00 X13.7220 Y19.8540
G01 F60.00
G01 Z-1.0000
G01 F120.00
G01 X13.7213 Y19.8393
G01 X13.7191 Y19.8247
G01 X13.7155 Y19.8105
G01 X13.7106 Y19.7966
G01 X13.7043 Y19.7833
G01 X13.6967 Y19.7707
G01 X13.6880 Y19.7588
G01 X13.6781 Y19.7479
G01 X13.6672 Y19.7380
G01 X13.6553 Y19.7293
G01 X13.6427 Y19.7217
G01 X13.6294 Y19.7154
G01 X13.6155 Y19.7105
G01 X13.6013 Y19.7069
G01 X13.5867 Y19.7047
G01 X13.5720 Y19.7040
G01 X13.5573 Y19.7047
G01 X13.5427 Y19.7069
G01 X13.5285 Y19.7105
G01 X13.5146 Y19.7154
G01 X13.5013 Y19.7217
G01 X13.4887 Y19.7293
G01 X13.4768 Y19.7380
G01 X13.4659 Y19.7479
G01 X13.4560 Y19.7588
G01 X13.4473 Y19.7707
G01 X13.4397 Y19.7833
G01 X13.4334 Y19.7966
G01 X13.4285 Y19.8105
G01 X13.4249 Y19.8247
G01 X13.4227 Y19.8393
G01 X13.4220 Y19.8540
G01 X13.4227 Y19.8687
G01 X13.4249 Y19.8833
G01 X13.4285 Y19.8975
G01 X13.4334 Y19.9114
G01 X13.4397 Y19.9247
G01 X13.4473 Y19.9373
G01 X13.4560 Y19.9492
G01 X13.4659 Y19.9601
G01 X13.4768 Y19.9700
G01 X13.4887 Y19.9787
G01 X13.5013 Y19.9863
G01 X13.5146 Y19.9926
G01 X13.5285 Y19.9975
G01 X13.5427 Y20.0011
G01 X13.5573 Y20.0033
G01 X13.5720 Y20.0040
G01 X13.5867 Y20.0033
G01 X13.6013 Y20.0011
G01 X13.6155 Y19.9975
G01 X13.6294 Y19.9926
G01 X13.6427 Y19.9863
G01 X13.6553 Y19.9787
G01 X13.6672 Y19.9700
G01 X13.6781 Y19.9601
G01 X13.6880 Y19.9492
G01 X13.6967 Y19.9373
G01 X13.7043 Y19.9247
G01 X13.7106 Y19.9114
G01 X13.7155 Y19.8975
G01 X13.7191 Y19.8833
G01 X13.7213 Y19.8687
G01 X13.7220 Y19.8540
G00 Z2.0000
G00 X13.7220 Y22.3940
G01 F60.00
G01 Z-0.5000
G01 F120.00
G01 X13.7213 Y22.3793
G01 X13.7191 Y22.3647
G01 X13.7155 Y22.3505
G01 X13.7106 Y22.3366
G01 X13.7043 Y22.3233
G01 X13.6967 Y22.3107
G01 X13.6880 Y22.2988
G01 X13.6781 Y22.2879
G01 X13.6672 Y22.2780
G01 X13.6553 Y22.2693
G01 X13.6427 Y22.2617
G01 X13.6294 Y22.2554
G01 X13.6155 Y22.2505
G01 X13.6013 Y22.2469
G01 X13.5867 Y22.2447
G01 X13.5720 Y22.2440
G01 X13.5573 Y22.2447
G01 X13.5427 Y22.2469
G01 X13.5285 Y22.2505
G01 X13.5146 Y22.2554
G01 X13.5013 Y22.2617
G01 X13.4887 Y22.2693
G01 X13.4768 Y22.2780
G01 X13.4659 Y22.2879
G01 X13.4560 Y22.2988
G01 X13.4473 Y22.3107
G01 X13.4397 Y22.3233
G01 X13.4334 Y22.3366
G01 X13.4285 Y22.3505
G01 X13.4249 Y22.3647
G01 X13.4227 Y22.3793
G01 X13.4220 Y22.3940
G01 X13.4227 Y22.4087
G01 X13.4249 Y22.4233
G01 X13.4285 Y22.4375
G01 X13.4334 Y22.4514
G01 X13.4397 Y22.4647
G01 X13.4473 Y22.4773
G01 X13.4560 Y22.4892
G01 X13.4659 Y22.5001
G01 X13.4768 Y22.5100
G01 X13.4887 Y22.5187
G01 X13.5013 Y22.5263
G01 X13.5146 Y22.5326
G01 X13.5285 Y22.5375
G01 X13.5427 Y22.5411
G01 X13.5573 Y22.5433
G01 X13.5720 Y22.5440
G01 X13.5867 Y22.5433
G01 X13.6013 Y22.5411
G01 X13.6155 Y22.5375
G01 X13.6294 Y22.5326
G01 X13.6427 Y22.5263
G01 X13.6553 Y22.5187
G01 X13.6672 Y22.5100
G01 X13.6781 Y22.5001
G01 X13.6880 Y22.4892
G01 X13.6967 Y22.4773
G01 X13.7043 Y22.4647
G01 X13.7106 Y22.4514
G01 X13.7155 Y22.4375
G01 X13.7191 Y22.4233
G01 X13.7213 Y22.4087
G01 X13.7220 Y22.3940
G00 X13.7220 Y22.3940
G01 F60.00
G01 Z-1.0000
G01 F120.00
G01 X13.7213 Y22.3793
G01 X13.7191 Y22.3647
G01 X13.7155 Y22.3505
G01 X13.7106 Y22.3366
G01 X13.7043 Y22.3233
G01 X13.6967 Y22.3107
G01 X13.6880 Y22.2988
G01 X13.6781 Y22.2879
G01 X13.6672 Y22.2780
G01 X13.6553 Y22.2693
G01 X13.6427 Y22.2617
G01 X13.6294 Y22.2554
G01 X13.6155 Y22.2505
G01 X13.6013 Y22.2469
G01 X13.5867 Y22.2447
G01 X13.5720 Y22.2440
G01 X13.5573 Y22.2447
G01 X13.5427 Y22.2469
G01 X13.5285 Y22.2505
G01 X13.5146 Y22.2554
G01 X13.5013 Y22.2617
G01 X13.4887 Y22.2693
G01 X13.4768 Y22.2780
G01 X13.4659 Y22.2879
G01 X13.4560 Y22.2988
G01 X13.4473 Y22.3107
G01 X13.4397 Y22.3233
G01 X13.4334 Y22.3366
G01 X13.4285 Y22.3505
G01 X13.4249 Y22.3647
G01 X13.4227 Y22.3793
G01 X13.4220 Y22.3940
G01 X13.4227 Y22.4087
G01 X13.4249 Y22.4233
G01 X13.4285 Y22.4375
G01 X13.4334 Y22.4514
G01 X13.4397 Y22.4647
G01 X13.4473 Y22.4773
G01 X13.4560 Y22.4892
G01 X13.4659 Y22.5001
G01 X13.4768 Y22.5100
G01 X13.4887 Y22.5187
G01 X13.5013 Y22.5263
G01 X13.5146 Y22.5326
G01 X13.5285 Y22.5375
G01 X13.5427 Y22.5411
G01 X13.5573 Y22.5433
G01 X13.5720 Y22.5440
G01 X13.5867 Y22.5433
G01 X13.6013 Y22.5411
G01 X13.6155 Y22.5375
G01 X13.6294 Y22.5326
G01 X13.6427 Y22.5263
G01 X13.6553 Y22.5187
G01 X13.6672 Y22.5100
G01 X13.6781 Y22.5001
G01 X13.6880 Y22.4892
G01 X13.6967 Y22.4773
G01 X13.7043 Y22.4647
G01 X13.7106 Y22.4514
G01 X13.7155 Y22.4375
G01 X13.7191 Y22.4233
G01 X13.7213 Y22.4087
G01 X13.7220 Y22.3940
G00 Z2.0000
G00 X5.5940 Y30.2680
G01 F60.00
G01 Z-0.5000
G01 F120.00
G01 X5.5933 Y30.2533
G01 X5.5911 Y30.2387
G01 X5.5875 Y30.2245
G01 X5.5826 Y30.2106
G01 X5.5763 Y30.1973
G01 X5.5687 Y30.1847
G01 X5.5600 Y30.1728
G01 X5.5501 Y30.1619
G01 X5.5392 Y30.1520
G01 X5.5273 Y30.1433
G01 X5.5147 Y30.1357
G01 X5.5014 Y30.1294
G01 X5.4875 Y30.1245
G01 X5.4733 Y30.1209
G01 X5.4587 Y30.1187
G01 X5.4440 Y30.1180
G01 X5.4293 Y30.1187
G01 X5.4147 Y30.1209
G01 X5.4005 Y30.1245
G01 X5.3866 Y30.1294
G01 X5.3733 Y30.1357
G01 X5.3607 Y30.1433
G01 X5.3488 Y30.1520
G01 X5.3379 Y30.1619
G01 X5.3280 Y30.1728
G01 X5.3193 Y30.1847
G01 X5.3117 Y30.1973
G01 X5.3054 Y30.2106
G01 X5.3005 Y30.2245
G01 X5.2969 Y30.2387
G01 X5.2947 Y30.2533
G01 X5.2940 Y30.2680
G01 X5.2947 Y30.2827
G01 X5.2969 Y30.2973
G01 X5.3005 Y30.3115
G01 X5.3054 Y30.3254
G01 X5.3117 Y30.3387
G01 X5.3193 Y30.3513
G01 X5.3280 Y30.3632
G01 X5.3379 Y30.3741
G01 X5.3488 Y30.3840
G01 X5.3607 Y30.3927
G01 X5.3733 Y30.4003
G01 X5.3866 Y30.4066
G01 X5.4005 Y30.4115
G01 X5.4147 Y30.4151
G01 X5.4293 Y30.4173
G01 X5.4440 Y30.4180
G01 X5.4587 Y30.4173
G01 X5.4733 Y30.4151
G01 X5.4875 Y30.4115
G01 X5.5014 Y30.4066
G01 X5.5147 Y30.4003
G01 X5.5273 Y30.3927
G01 X5.5392 Y30.3840
G01 X5.5501 Y30.3741
G01 X5.5600 Y30.3632
G01 X5.5687 Y30.3513
G01 X5.5763 Y30.3387
G01 X5.5826 Y30.3254
G01 X5.5875 Y30.3115
G01 X5.5911 Y30.2973
G01 X5.5933 Y30.2827
G01 X5.5940 Y30.2680
G00 X5.5940 Y30.2680
G01 F60.00
G01 Z-1.0000
G01 F120.00
G01 X5.5933 Y30.2533
G01 X5.5911 Y30.2387
G01 X5.5875 Y30.2245
G01 X5.5826 Y30.2106
G01 X5.5763 Y30.1973
G01 X5.5687 Y30.1847
G01 X5.5600 Y30.1728
G01 X5.5501 Y30.1619
G01 X5.5392 Y30.1520
G01 X5.5273 Y30.1433
G01 X5.5147 Y30.1357
G01 X5.5014 Y30.1294
G01 X5.4875 Y30.1245
G01 X5.4733 Y30.1209
G01 X5.4587 Y30.1187
G01 X5.4440 Y30.1180
G01 X5.4293 Y30.1187
G01 X5.4147 Y30.1209
G01 X5.4005 Y30.1245
G01 X5.3866 Y30.1294
G01 X5.3733 Y30.1357
G01 X5.3607 Y30.1433
G01 X5.3488 Y30.1520
G01 X5.3379 Y30.1619
G01 X5.3280 Y30.1728
G01 X5.3193 Y30.1847
G01 X5.3117 Y30.1973
G01 X5.3054 Y30.2106
G01 X5.3005 Y30.2245
G01 X5.2969 Y30.2387
G01 X5.2947 Y30.2533
G01 X5.2940 Y30.2680
G01 X5.2947 Y30.2827
G01 X5.2969 Y30.2973
G01 X5.3005 Y30.3115
G01 X5.3054 Y30.3254
G01 X5.3117 Y30.3387
G01 X5.3193 Y30.3513
G01 X5.3280 Y30.3632
G01 X5.3379 Y30.3741
G01 X5.3488 Y30.3840
G01 X5.3607 Y30.3927
G01 X5.3733 Y30.4003
G01 X5.3866 Y30.4066
G01 X5.4005 Y30.4115
G01 X5.4147 Y30.4151
G01 X5.4293 Y30.4173
G01 X5.4440 Y30.4180
G01 X5.4587 Y30.4173
G01 X5.4733 Y30.4151
G01 X5.4875 Y30.4115
G01 X5.5014 Y30.4066
G01 X5.5147 Y30.4003
G01 X5.5273 Y30.3927
G01 X5.5392 Y30.3840
G01 X5.5501 Y30.3741
G01 X5.5600 Y30.3632
G01 X5.5687 Y30.3513
G01 X5.5763 Y30.3387
G01 X5.5826 Y30.3254
G01 X5.5875 Y30.3115
G01 X5.5911 Y30.2973
G01 X5.5933 Y30.2827
G01 X5.5940 Y30.2680
G00 Z2.0000
G00 X7.1180 Y33.8240
G01 F60.00
G01 Z-0.5000
G01 F120.00
G01 X7.1173 Y33.8093
G01 X7.1151 Y33.7947
G01 X7.1115 Y33.7805
G01 X7.1066 Y33.7666
G01 X7.1003 Y33.7533
G01 X7.0927 Y33.7407
G01 X7.0840 Y33.7288
G01 X7.0741 Y33.7179
G01 X7.0632 Y33.7080
G01 X7.0513 Y33.6993
G01 X7.0387 Y33.6917
G01 X7.0254 Y33.6854
G01 X7.0115 Y33.6805
G01 X6.9973 Y33.6769
G01 X6.9827 Y33.6747
G01 X6.9680 Y33.6740
G01 X6.9533 Y33.6747
G01 X6.9387 Y33.6769
G01 X6.9245 Y33.6805
G01 X6.9106 Y33.6854
G01 X6.8973 Y33.6917
G01 X6.8847 Y33.6993
G01 X6.8728 Y33.7080
G01 X6.8619 Y33.7179
G01 X6.8520 Y33.7288
G01 X6.8433 Y33.7407
G01 X6.8357 Y33.7533
G01 X6.8294 Y33.7666
G01 X6.8245 Y33.7805
G01 X6.8209 Y33.7947
G01 X6.8187 Y33.8093
G01 X6.8180 Y33.8240
G01 X6.8187 Y33.8387
G01 X6.8209 Y33.8533
G01 X6.8245 Y33.8675
G01 X6.8294 Y33.8814
G01 X6.8357 Y33.8947
G01 X6.8433 Y33.9073
G01 X6.8520 Y33.9192
G01 X6.8619 Y33.9301
G01 X6.8728 Y33.9400
G01 X6.8847 Y33.9487
G01 X6.8973 Y33.9563
G01 X6.9106 Y33.9626
G01 X6.9245 Y33.9675
G01 X6.9387 Y33.9711
G01 X6.9533 Y33.9733
G01 X6.9680 Y33.9740
G01 X6.9827 Y33.9733
G01 X6.9973 Y33.9711
G01 X7.0115 Y33.9675
G01 X7.0254 Y33.9626
G01 X7.0387 Y33.9563
G01 X7.0513 Y33.9487
G01 X7.0632 Y33.9400
G01 X7.0741 Y33.9301
G01 X7.0840 Y33.9192
G01 X7.0927 Y33.9073
G01 X7.1003 Y33.8947
G01 X7.1066 Y33.8814
G01 X7.1115 Y33.8675
G01 X7.1151 Y33.8533
G01 X7.1173 Y33.8387
G01 X7.1180 Y33.8240
G00 X7.1180 Y33.8240
G01 F60.00
G01 Z-1.0000
G01 F120.00
G01 X7.1173 Y33.8093
G01 X7.1151 Y33.7947
G01 X7.1115 Y33.7805
G01 X7.1066 Y33.7666
G01 X7.1003 Y33.7533
G01 X7.0927 Y33.7407
G01 X7.0840 Y33.7288
G01 X7.0741 Y33.7179
G01 X7.0632 Y33.7080
G01 X7.0513 Y33.6993
G01 X7.0387 Y33.6917
G01 X7.0254 Y33.6854
G01 X7.0115 Y33.6805
G01 X6.9973 Y33.6769
G01 X6.9827 Y33.6747
G01 X6.9680 Y33.6740
G01 X6.9533 Y33.6747
G01 X6.9387 Y33.6769
G01 X6.9245 Y33.6805
G01 X6.9106 Y33.6854
G01 X6.8973 Y33.6917
G01 X6.8847 Y33.6993
G01 X6.8728 Y33.7080
G01 X6.8619 Y33.7179
G01 X6.8520 Y33.7288
G01 X6.8433 Y33.7407
G01 X6.8357 Y33.7533
G01 X6.8294 Y33.7666
G01 X6.8245 Y33.7805
G01 X6.8209 Y33.7947
G01 X6.8187 Y33.8093
G01 X6.8180 Y33.8240
G01 X6.8187 Y33.8387
G01 X6.8209 Y33.8533
G01 X6.8245 Y33.8675
G01 X6.8294 Y33.8814
G01 X6.8357 Y33.8947
G01 X6.8433 Y33.9073
G01 X6.8520 Y33.9192
G01 X6.8619 Y33.9301
G01 X6.8728 Y33.9400
G01 X6.8847 Y33.9487
G01 X6.8973 Y33.9563
G01 X6.9106 Y33.9626
G01 X6.9245 Y33.9675
G01 X6.9387 Y33.9711
G01 X6.9533 Y33.9733
G01 X6.9680 Y33.9740
G01 X6.9827 Y33.9733
G01 X6.9973 Y33.9711
G01 X7.0115 Y33.9675
G01 X7.0254 Y33.9626
G01 X7.0387 Y33.9563
G01 X7.0513 Y33.9487
G01 X7.0632 Y33.9400
G01 X7.0741 Y33.9301
G01 X7.0840 Y33.9192
G01 X7.0927 Y33.9073
G01 X7.1003 Y33.8947
G01 X7.1066 Y33.8814
G01 X7.1115 Y33.8675
G01 X7.1151 Y33.8533
G01 X7.1173 Y33.8387
G01 X7.1180 Y33.8240
G00 Z2.0000
G00 X7.1180 Y35.8240
G01 F60.00
G01 Z-0.5000
G01 F120.00
G01 X7.1173 Y35.8093
G01 X7.1151 Y35.7947
G01 X7.1115 Y35.7805
G01 X7.1066 Y35.7666
G01 X7.1003 Y35.7533
G01 X7.0927 Y35.7407
G01 X7.0840 Y35.7288
G01 X7.0741 Y35.7179
G01 X7.0632 Y35.7080
G01 X7.0513 Y35.6993
G01 X7.0387 Y35.6917
G01 X7.0254 Y35.6854
G01 X7.0115 Y35.6805
G01 X6.9973 Y35.6769
G01 X6.9827 Y35.6747
G01 X6.9680 Y35.6740
G01 X6.9533 Y35.6747
G01 X6.9387 Y35.6769
G01 X6.9245 Y35.6805
G01 X6.9106 Y35.6854
G01 X6.8973 Y35.6917
G01 X6.8847 Y35.6993
G01 X6.8728 Y35.7080
G01 X6.8619 Y35.7179
G01 X6.8520 Y35.7288
G01 X6.8433 Y35.7407
G01 X6.8357 Y35.7533
G01 X6.8294 Y35.7666
G01 X6.8245 Y35.7805
G01 X6.8209 Y35.7947
G01 X6.8187 Y35.8093
G01 X6.8180 Y35.8240
G01 X6.8187 Y35.8387
G01 X6.8209 Y35.8533
G01 X6.8245 Y35.8675
G01 X6.8294 Y35.8814
G01 X6.8357 Y35.8947
G01 X6.8433 Y35.9073
G01 X6.8520 Y35.9192
G01 X6.8619 Y35.9301
G01 X6.8728 Y35.9400
G01 X6.8847 Y35.9487
G01 X6.8973 Y35.9563
G01 X6.9106 Y35.9626
G01 X6.9245 Y35.9675
G01 X6.9387 Y35.9711
G01 X6.9533 Y35.9733
G01 X6.9680 Y35.9740
G01 X6.9827 Y35.9733
G01 X6.9973 Y35.9711
G01 X7.0115 Y35.9675
G01 X7.0254 Y35.9626
G01 X7.0387 Y35.9563
G01 X7.0513 Y35.9487
G01 X7.0632 Y35.9400
G01 X7.0741 Y35.9301
G01 X7.0840 Y35.9192
G01 X7.0927 Y35.9073
G01 X7.1003 Y35.8947
G01 X7.1066 Y35.8814
G01 X7.1115 Y35.8675
G01 X7.1151 Y35.8533
G01 X7.1173 Y35.8387
G01 X7.1180 Y35.8240
G00 X7.1180 Y35.8240
G01 F60.00
G01 Z-1.0000
G01 F120.00
G01 X7.1173 Y35.8093
G01 X7.1151 Y35.7947
G01 X7.1115 Y35.7805
G01 X7.1066 Y35.7666
G01 X7.1003 Y35.7533
G01 X7.0927 Y35.7407
G01 X7.0840 Y35.7288
G01 X7.0741 Y35.7179
G01 X7.0632 Y35.7080
G01 X7.0513 Y35.6993
G01 X7.0387 Y35.6917
G01 X7.0254 Y35.6854
G01 X7.0115 Y35.6805
G01 X6.9973 Y35.6769
G01 X6.9827 Y35.6747
G01 X6.9680 Y35.6740
G01 X6.9533 Y35.6747
G01 X6.9387 Y35.6769
G01 X6.9245 Y35.6805
G01 X6.9106 Y35.6854
G01 X6.8973 Y35.6917
G01 X6.8847 Y35.6993
G01 X6.8728 Y35.7080
G01 X6.8619 Y35.7179
G01 X6.8520 Y35.7288
G01 X6.8433 Y35.7407
G01 X6.8357 Y35.7533
G01 X6.8294 Y35.7666
G01 X6.8245 Y35.7805
G01 X6.8209 Y35.7947
G01 X6.8187 Y35.8093
G01 X6.8180 Y35.8240
G01 X6.8187 Y35.8387
G01 X6.8209 Y35.8533
G01 X6.8245 Y35.8675
G01 X6.8294 Y35.8814
G01 X6.8357 Y35.8947
G01 X6.8433 Y35.9073
G01 X6.8520 Y35.9192
G01 X6.8619 Y35.9301
G01 X6.8728 Y35.9400
G01 X6.8847 Y35.9487
G01 X6.8973 Y35.9563
G01 X6.9106 Y35.9626
G01 X6.9245 Y35.9675
G01 X6.9387 Y35.9711
G01 X6.9533 Y35.9733
G01 X6.9680 Y35.9740
G01 X6.9827 Y35.9733
G01 X6.9973 Y35.9711
G01 X7.0115 Y35.9675
G01 X7.0254 Y35.9626
G01 X7.0387 Y35.9563
G01 X7.0513 Y35.9487
G01 X7.0632 Y35.9400
G01 X7.0741 Y35.9301
G01 X7.0840 Y35.9192
G01 X7.0927 Y35.9073
G01 X7.1003 Y35.8947
G01 X7.1066 Y35.8814
G01 X7.1115 Y35.8675
G01 X7.1151 Y35.8533
G01 X7.1173 Y35.8387
G01 X7.1180 Y35.8240
G00 Z2.0000
G00 X7.1180 Y37.8240
G01 F60.00
G01 Z-0.5000
G01 F120.00
G01 X7.1173 Y37.8093
G01 X7.1151 Y37.7947
G01 X7.1115 Y37.7805
G01 X7.1066 Y37.7666
G01 X7.1003 Y37.7533
G01 X7.0927 Y37.7407
G01 X7.0840 Y37.7288
G01 X7.0741 Y37.7179
G01 X7.0632 Y37.7080
G01 X7.0513 Y37.6993
G01 X7.0387 Y37.6917
G01 X7.0254 Y37.6854
G01 X7.0115 Y37.6805
G01 X6.9973 Y37.6769
G01 X6.9827 Y37.6747
G01 X6.9680 Y37.6740
G01 X6.9533 Y37.6747
G01 X6.9387 Y37.6769
G01 X6.9245 Y37.6805
G01 X6.9106 Y37.6854
G01 X6.8973 Y37.6917
G01 X6.8847 Y37.6993
G01 X6.8728 Y37.7080
G01 X6.8619 Y37.7179
G01 X6.8520 Y37.7288
G01 X6.8433 Y37.7407
G01 X6.8357 Y37.7533
G01 X6.8294 Y37.7666
G01 X6.8245 Y37.7805
G01 X6.8209 Y37.7947
G01 X6.8187 Y37.8093
G01 X6.8180 Y37.8240
G01 X6.8187 Y37.8387
G01 X6.8209 Y37.8533
G01 X6.8245 Y37.8675
G01 X6.8294 Y37.8814
G01 X6.8357 Y37.8947
G01 X6.8433 Y37.9073
G01 X6.8520 Y37.9192
G01 X6.8619 Y37.9301
G01 X6.8728 Y37.9400
G01 X6.8847 Y37.9487
G01 X6.8973 Y37.9563
G01 X6.9106 Y37.9626
G01 X6.9245 Y37.9675
G01 X6.9387 Y37.9711
G01 X6.9533 Y37.9733
G01 X6.9680 Y37.9740
G01 X6.9827 Y37.9733
G01 X6.9973 Y37.9711
G01 X7.0115 Y37.9675
G01 X7.0254 Y37.9626
G01 X7.0387 Y37.9563
G01 X7.0513 Y37.9487
G01 X7.0632 Y37.9400
G01 X7.0741 Y37.9301
G01 X7.0840 Y37.9192
G01 X7.0927 Y37.9073
G01 X7.1003 Y37.8947
G01 X7.1066 Y37.8814
G01 X7.1115 Y37.8675
G01 X7.1151 Y37.8533
G01 X7.1173 Y37.8387
G01 X7.1180 Y37.8240
G00 X7.1180 Y37.8240
G01 F60.00
G01 Z-1.0000
G01 F120.00
G01 X7.1173 Y37.8093
G01 X7.1151 Y37.7947
G01 X7.1115 Y37.7805
G01 X7.1066 Y37.7666
G01 X7.1003 Y37.7533
G01 X7.0927 Y37.7407
G01 X7.0840 Y37.7288
G01 X7.0741 Y37.7179
G01 X7.0632 Y37.7080
G01 X7.0513 Y37.6993
G01 X7.0387 Y37.6917
G01 X7.0254 Y37.6854
G01 X7.0115 Y37.6805
G01 X6.9973 Y37.6769
G01 X6.9827 Y37.6747
G01 X6.9680 Y37.6740
G01 X6.9533 Y37.6747
G01 X6.9387 Y37.6769
G01 X6.9245 Y37.6805
G01 X6.9106 Y37.6854
G01 X6.8973 Y37.6917
G01 X6.8847 Y37.6993
G01 X6.8728 Y37.7080
G01 X6.8619 Y37.7179
G01 X6.8520 Y37.7288
G01 X6.8433 Y37.7407
G01 X6.8357 Y37.7533
G01 X6.8294 Y37.7666
G01 X6.8245 Y37.7805
G01 X6.8209 Y37.7947
G01 X6.8187 Y37.8093
G01 X6.8180 Y37.8240
G01 X6.8187 Y37.8387
G01 X6.8209 Y37.8533
G01 X6.8245 Y37.8675
G01 X6.8294 Y37.8814
G01 X6.8357 Y37.8947
G01 X6.8433 Y37.9073
G01 X6.8520 Y37.9192
G01 X6.8619 Y37.9301
G01 X6.8728 Y37.9400
G01 X6.8847 Y37.9487
G01 X6.8973 Y37.9563
G01 X6.9106 Y37.9626
G01 X6.9245 Y37.9675
G01 X6.9387 Y37.9711
G01 X6.9533 Y37.9733
G01 X6.9680 Y37.9740
G01 X6.9827 Y37.9733
G01 X6.9973 Y37.9711
G01 X7.0115 Y37.9675
G01 X7.0254 Y37.9626
G01 X7.0387 Y37.9563
G01 X7.0513 Y37.9487
G01 X7.0632 Y37.9400
G01 X7.0741 Y37.9301
G01 X7.0840 Y37.9192
G01 X7.0927 Y37.9073
G01 X7.1003 Y37.8947
G01 X7.1066 Y37.8814
G01 X7.1115 Y37.8675
G01 X7.1151 Y37.8533
G01 X7.1173 Y37.8387
G01 X7.1180 Y37.8240
G00 Z2.0000
G00 X7.1180 Y39.8240
G01 F60.00
G01 Z-0.5000
G01 F120.00
G01 X7.1173 Y39.8093
G01 X7.1151 Y39.7947
G01 X7.1115 Y39.7805
G01 X7.1066 Y39.7666
G01 X7.1003 Y39.7533
G01 X7.0927 Y39.7407
G01 X7.0840 Y39.7288
G01 X7.0741 Y39.7179
G01 X7.0632 Y39.7080
G01 X7.0513 Y39.6993
G01 X7.0387 Y39.6917
G01 X7.0254 Y39.6854
G01 X7.0115 Y39.6805
G01 X6.9973 Y39.6769
G01 X6.9827 Y39.6747
G01 X6.9680 Y39.6740
G01 X6.9533 Y39.6747
G01 X6.9387 Y39.6769
G01 X6.9245 Y39.6805
G01 X6.9106 Y39.6854
G01 X6.8973 Y39.6917
G01 X6.8847 Y39.6993
G01 X6.8728 Y39.7080
G01 X6.8619 Y39.7179
G01 X6.8520 Y39.7288
G01 X6.8433 Y39.7407
G01 X6.8357 Y39.7533
G01 X6.8294 Y39.7666
G01 X6.8245 Y39.7805
G01 X6.8209 Y39.7947
G01 X6.8187 Y39.8093
G01 X6.8180 Y39.8240
G01 X6.8187 Y39.8387
G01 X6.8209 Y39.8533
G01 X6.8245 Y39.8675
G01 X6.8294 Y39.8814
G01 X6.8357 Y39.8947
G01 X6.8433 Y39.9073
G01 X6.8520 Y39.9192
G01 X6.8619 Y39.9301
G01 X6.8728 Y39.9400
G01 X6.8847 Y39.9487
G01 X6.8973 Y39.9563
G01 X6.9106 Y39.9626
G01 X6.9245 Y39.9675
G01 X6.9387 Y39.9711
G01 X6.9533 Y39.9733
G01 X6.9680 Y39.9740
G01 X6.9827 Y39.9733
G01 X6.9973 Y39.9711
G01 X7.0115 Y39.9675
G01 X7.0254 Y39.9626
G01 X7.0387 Y39.9563
G01 X7.0513 Y39.9487
G01 X7.0632 Y39.9400
G01 X7.0741 Y39.9301
G01 X7.0840 Y39.9192
G01 X7.0927 Y39.9073
G01 X7.1003 Y39.8947
G01 X7.1066 Y39.8814
G01 X7.1115 Y39.8675
G01 X7.1151 Y39.8533
G01 X7.1173 Y39.8387
G01 X7.1180 Y39.8240
G00 X7.1180 Y39.8240
G01 F60.00
G01 Z-1.0000
G01 F120.00
G01 X7.1173 Y39.8093
G01 X7.1151 Y39.7947
G01 X7.1115 Y39.7805
G01 X7.1066 Y39.7666
G01 X7.1003 Y39.7533
G01 X7.0927 Y39.7407
G01 X7.0840 Y39.7288
G01 X7.0741 Y39.7179
G01 X7.0632 Y39.7080
G01 X7.0513 Y39.6993
G01 X7.0387 Y39.6917
G01 X7.0254 Y39.6854
G01 X7.0115 Y39.6805
G01 X6.9973 Y39.6769
G01 X6.9827 Y39.6747
G01 X6.9680 Y39.6740
G01 X6.9533 Y39.6747
G01 X6.9387 Y39.6769
G01 X6.9245 Y39.6805
G01 X6.9106 Y39.6854
G01 X6.8973 Y39.6917
G01 X6.8847 Y39.6993
G01 X6.8728 Y39.7080
G01 X6.8619 Y39.7179
G01 X6.8520 Y39.7288
G01 X6.8433 Y39.7407
G01 X6.8357 Y39.7533
G01 X6.8294 Y39.7666
G01 X6.8245 Y39.7805
G01 X6.8209 Y39.7947
G01 X6.8187 Y39.8093
G01 X6.8180 Y39.8240
G01 X6.8187 Y39.8387
G01 X6.8209 Y39.8533
G01 X6.8245 Y39.8675
G01 X6.8294 Y39.8814
G01 X6.8357 Y39.8947
G01 X6.8433 Y39.9073
G01 X6.8520 Y39.9192
G01 X6.8619 Y39.9301
G01 X6.8728 Y39.9400
G01 X6.8847 Y39.9487
G01 X6.8973 Y39.9563
G01 X6.9106 Y39.9626
G01 X6.9245 Y39.9675
G01 X6.9387 Y39.9711
G01 X6.9533 Y39.9733
G01 X6.9680 Y39.9740
G01 X6.9827 Y39.9733
G01 X6.9973 Y39.9711
G01 X7.0115 Y39.9675
G01 X7.0254 Y39.9626
G01 X7.0387 Y39.9563
G01 X7.0513 Y39.9487
G01 X7.0632 Y39.9400
G01 X7.0741 Y39.9301
G01 X7.0840 Y39.9192
G01 X7.0927 Y39.9073
G01 X7.1003 Y39.8947
G01 X7.1066 Y39.8814
G01 X7.1115 Y39.8675
G01 X7.1151 Y39.8533
G01 X7.1173 Y39.8387
G01 X7.1180 Y39.8240
G00 Z2.0000
G00 X7.1180 Y41.8240
G01 F60.00
G01 Z-0.5000
G01 F120.00
G01 X7.1173 Y41.8093
G01 X7.1151 Y41.7947
G01 X7.1115 Y41.7805
G01 X7.1066 Y41.7666
G01 X7.1003 Y41.7533
G01 X7.0927 Y41.7407
G01 X7.0840 Y41.7288
G01 X7.0741 Y41.7179
G01 X7.0632 Y41.7080
G01 X7.0513 Y41.6993
G01 X7.0387 Y41.6917
G01 X7.0254 Y41.6854
G01 X7.0115 Y41.6805
G01 X6.9973 Y41.6769
G01 X6.9827 Y41.6747
G01 X6.9680 Y41.6740
G01 X6.9533 Y41.6747
G01 X6.9387 Y41.6769
G01 X6.9245 Y41.6805
G01 X6.9106 Y41.6854
G01 X6.8973 Y41.6917
G01 X6.8847 Y41.6993
G01 X6.8728 Y41.7080
G01 X6.8619 Y41.7179
G01 X6.8520 Y41.7288
G01 X6.8433 Y41.7407
G01 X6.8357 Y41.7533
G01 X6.8294 Y41.7666
G01 X6.8245 Y41.7805
G01 X6.8209 Y41.7947
G01 X6.8187 Y41.8093
G01 X6.8180 Y41.8240
G01 X6.8187 Y41.8387
G01 X6.8209 Y41.8533
G01 X6.8245 Y41.8675
G01 X6.8294 Y41.8814
G01 X6.8357 Y41.8947
G01 X6.8433 Y41.9073
G01 X6.8520 Y41.9192
G01 X6.8619 Y41.9301
G01 X6.8728 Y41.9400
G01 X6.8847 Y41.9487
G01 X6.8973 Y41.9563
G01 X6.9106 Y41.9626
G01 X6.9245 Y41.9675
G01 X6.9387 Y41.9711
G01 X6.9533 Y41.9733
G01 X6.9680 Y41.9740
G01 X6.9827 Y41.9733
G01 X6.9973 Y41.9711
G01 X7.0115 Y41.9675
G01 X7.0254 Y41.9626
G01 X7.0387 Y41.9563
G01 X7.0513 Y41.9487
G01 X7.0632 Y41.9400
G01 X7.0741 Y41.9301
G01 X7.0840 Y41.9192
G01 X7.0927 Y41.9073
G01 X7.1003 Y41.8947
G01 X7.1066 Y41.8814
G01 X7.1115 Y41.8675
G01 X7.1151 Y41.8533
G01 X7.1173 Y41.8387
G01 X7.1180 Y41.8240
G00 X7.1180 Y41.8240
G01 F60.00
G01 Z-1.0000
G01 F120.00
G01 X7.1173 Y41.8093
G01 X7.1151 Y41.7947
G01 X7.1115 Y41.7805
G01 X7.1066 Y41.7666
G01 X7.1003 Y41.7533
G01 X7.0927 Y41.7407
G01 X7.0840 Y41.7288
G01 X7.0741 Y41.7179
G01 X7.0632 Y41.7080
G01 X7.0513 Y41.6993
G01 X7.0387 Y41.6917
G01 X7.0254 Y41.6854
G01 X7.0115 Y41.6805
G01 X6.9973 Y41.6769
G01 X6.9827 Y41.6747
G01 X6.9680 Y41.6740
G01 X6.9533 Y41.6747
G01 X6.9387 Y41.6769
G01 X6.9245 Y41.6805
G01 X6.9106 Y41.6854
G01 X6.8973 Y41.6917
G01 X6.8847 Y41.6993
G01 X6.8728 Y41.7080
G01 X6.8619 Y41.7179
G01 X6.8520 Y41.7288
G01 X6.8433 Y41.7407
G01 X6.8357 Y41.7533
G01 X6.8294 Y41.7666
G01 X6.8245 Y41.7805
G01 X6.8209 Y41.7947
G01 X6.8187 Y41.8093
G01 X6.8180 Y41.8240
G01 X6.8187 Y41.8387
G01 X6.8209 Y41.8533
G01 X6.8245 Y41.8675
G01 X6.8294 Y41.8814
G01 X6.8357 Y41.8947
G01 X6.8433 Y41.9073
G01 X6.8520 Y41.9192
G01 X6.8619 Y41.9301
G01 X6.8728 Y41.9400
G01 X6.8847 Y41.9487
G01 X6.8973 Y41.9563
G01 X6.9106 Y41.9626
G01 X6.9245 Y41.9675
G01 X6.9387 Y41.9711
G01 X6.9533 Y41.9733
G01 X6.9680 Y41.9740
G01 X6.9827 Y41.9733
G01 X6.9973 Y41.9711
G01 X7.0115 Y41.9675
G01 X7.0254 Y41.9626
G01 X7.0387 Y41.9563
G01 X7.0513 Y41.9487
G01 X7.0632 Y41.9400
G01 X7.0741 Y41.9301
G01 X7.0840 Y41.9192
G01 X7.0927 Y41.9073
G01 X7.1003 Y41.8947
G01 X7.1066 Y41.8814
G01 X7.1115 Y41.8675
G01 X7.1151 Y41.8533
G01 X7.1173 Y41.8387
G01 X7.1180 Y41.8240
G00 Z2.0000
G00 X7.1180 Y43.8240
G01 F60.00
G01 Z-0.5000
G01 F120.00
G01 X7.1173 Y43.8093
G01 X7.1151 Y43.7947
G01 X7.1115 Y43.7805
G01 X7.1066 Y43.7666
G01 X7.1003 Y43.7533
G01 X7.0927 Y43.7407
G01 X7.0840 Y43.7288
G01 X7.0741 Y43.7179
G01 X7.0632 Y43.7080
G01 X7.0513 Y43.6993
G01 X7.0387 Y43.6917
G01 X7.0254 Y43.6854
G01 X7.0115 Y43.6805
G01 X6.9973 Y43.6769
G01 X6.9827 Y43.6747
G01 X6.9680 Y43.6740
G01 X6.9533 Y43.6747
G01 X6.9387 Y43.6769
G01 X6.9245 Y43.6805
G01 X6.9106 Y43.6854
G01 X6.8973 Y43.6917
G01 X6.8847 Y43.6993
G01 X6.8728 Y43.7080
G01 X6.8619 Y43.7179
G01 X6.8520 Y43.7288
G01 X6.8433 Y43.7407
G01 X6.8357 Y43.7533
G01 X6.8294 Y43.7666
G01 X6.8245 Y43.7805
G01 X6.8209 Y43.7947
G01 X6.8187 Y43.8093
G01 X6.8180 Y43.8240
G01 X6.8187 Y43.8387
G01 X6.8209 Y43.8533
G01 X6.8245 Y43.8675
G01 X6.8294 Y43.8814
G01 X6.8357 Y43.8947
G01 X6.8433 Y43.9073
G01 X6.8520 Y43.9192
G01 X6.8619 Y43.9301
G01 X6.8728 Y43.9400
G01 X6.8847 Y43.9487
G01 X6.8973 Y43.9563
G01 X6.9106 Y43.9626
G01 X6.9245 Y43.9675
G01 X6.9387 Y43.9711
G01 X6.9533 Y43.9733
G01 X6.9680 Y43.9740
G01 X6.9827 Y43.9733
G01 X6.9973 Y43.9711
G01 X7.0115 Y43.9675
G01 X7.0254 Y43.9626
G01 X7.0387 Y43.9563
G01 X7.0513 Y43.9487
G01 X7.0632 Y43.9400
G01 X7.0741 Y43.9301
G01 X7.0840 Y43.9192
G01 X7.0927 Y43.9073
G01 X7.1003 Y43.8947
G01 X7.1066 Y43.8814
G01 X7.1115 Y43.8675
G01 X7.1151 Y43.8533
G01 X7.1173 Y43.8387
G01 X7.1180 Y43.8240
G00 X7.1180 Y43.8240
G01 F60.00
G01 Z-1.0000
G01 F120.00
G01 X7.1173 Y43.8093
G01 X7.1151 Y43.7947
G01 X7.1115 Y43.7805
G01 X7.1066 Y43.7666
G01 X7.1003 Y43.7533
G01 X7.0927 Y43.7407
G01 X7.0840 Y43.7288
G01 X7.0741 Y43.7179
G01 X7.0632 Y43.7080
G01 X7.0513 Y43.6993
G01 X7.0387 Y43.6917
G01 X7.0254 Y43.6854
G01 X7.0115 Y43.6805
G01 X6.9973 Y43.6769
G01 X6.9827 Y43.6747
G01 X6.9680 Y43.6740
G01 X6.9533 Y43.6747
G01 X6.9387 Y43.6769
G01 X6.9245 Y43.6805
G01 X6.9106 Y43.6854
G01 X6.8973 Y43.6917
G01 X6.8847 Y43.6993
G01 X6.8728 Y43.7080
G01 X6.8619 Y43.7179
G01 X6.8520 Y43.7288
G01 X6.8433 Y43.7407
G01 X6.8357 Y43.7533
G01 X6.8294 Y43.7666
G01 X6.8245 Y43.7805
G01 X6.8209 Y43.7947
G01 X6.8187 Y43.8093
G01 X6.8180 Y43.8240
G01 X6.8187 Y43.8387
G01 X6.8209 Y43.8533
G01 X6.8245 Y43.8675
G01 X6.8294 Y43.8814
G01 X6.8357 Y43.8947
G01 X6.8433 Y43.9073
G01 X6.8520 Y43.9192
G01 X6.8619 Y43.9301
G01 X6.8728 Y43.9400
G01 X6.8847 Y43.9487
G01 X6.8973 Y43.9563
G01 X6.9106 Y43.9626
G01 X6.9245 Y43.9675
G01 X6.9387 Y43.9711
G01 X6.9533 Y43.9733
G01 X6.9680 Y43.9740
G01 X6.9827 Y43.9733
G01 X6.9973 Y43.9711
G01 X7.0115 Y43.9675
G01 X7.0254 Y43.9626
G01 X7.0387 Y43.9563
G01 X7.0513 Y43.9487
G01 X7.0632 Y43.9400
G01 X7.0741 Y43.9301
G01 X7.0840 Y43.9192
G01 X7.0927 Y43.9073
G01 X7.1003 Y43.8947
G01 X7.1066 Y43.8814
G01 X7.1115 Y43.8675
G01 X7.1151 Y43.8533
G01 X7.1173 Y43.8387
G01 X7.1180 Y43.8240
G00 Z2.0000
G00 X7.1180 Y45.8240
G01 F60.00
G01 Z-0.5000
G01 F120.00
G01 X7.1173 Y45.8093
G01 X7.1151 Y45.7947
G01 X7.1115 Y45.7805
G01 X7.1066 Y45.7666
G01 X7.1003 Y45.7533
G01 X7.0927 Y45.7407
G01 X7.0840 Y45.7288
G01 X7.0741 Y45.7179
G01 X7.0632 Y45.7080
G01 X7.0513 Y45.6993
G01 X7.0387 Y45.6917
G01 X7.0254 Y45.6854
G01 X7.0115 Y45.6805
G01 X6.9973 Y45.6769
G01 X6.9827 Y45.6747
G01 X6.9680 Y45.6740
G01 X6.9533 Y45.6747
G01 X6.9387 Y45.6769
G01 X6.9245 Y45.6805
G01 X6.9106 Y45.6854
G01 X6.8973 Y45.6917
G01 X6.8847 Y45.6993
G01 X6.8728 Y45.7080
G01 X6.8619 Y45.7179
G01 X6.8520 Y45.7288
G01 X6.8433 Y45.7407
G01 X6.8357 Y45.7533
G01 X6.8294 Y45.7666
G01 X6.8245 Y45.7805
G01 X6.8209 Y45.7947
G01 X6.8187 Y45.8093
G01 X6.8180 Y45.8240
G01 X6.8187 Y45.8387
G01 X6.8209 Y45.8533
G01 X6.8245 Y45.8675
G01 X6.8294 Y45.8814
G01 X6.8357 Y45.8947
G01 X6.8433 Y45.9073
G01 X6.8520 Y45.9192
G01 X6.8619 Y45.9301
G01 X6.8728 Y45.9400
G01 X6.8847 Y45.9487
G01 X6.8973 Y45.9563
G01 X6.9106 Y45.9626
G01 X6.9245 Y45.9675
G01 X6.9387 Y45.9711
G01 X6.9533 Y45.9733
G01 X6.9680 Y45.9740
G01 X6.9827 Y45.9733
G01 X6.9973 Y45.9711
G01 X7.0115 Y45.9675
G01 X7.0254 Y45.9626
G01 X7.0387 Y45.9563
G01 X7.0513 Y45.9487
G01 X7.0632 Y45.9400
G01 X7.0741 Y45.9301
G01 X7.0840 Y45.9192
G01 X7.0927 Y45.9073
G01 X7.1003 Y45.8947
G01 X7.1066 Y45.8814
G01 X7.1115 Y45.8675
G01 X7.1151 Y45.8533
G01 X7.1173 Y45.8387
G01 X7.1180 Y45.8240
G00 X7.1180 Y45.8240
G01 F60.00
G01 Z-1.0000
G01 F120.00
G01 X7.1173 Y45.8093
G01 X7.1151 Y45.7947
G01 X7.1115 Y45.7805
G01 X7.1066 Y45.7666
G01 X7.1003 Y45.7533
G01 X7.0927 Y45.7407
G01 X7.0840 Y45.7288
G01 X7.0741 Y45.7179
G01 X7.0632 Y45.7080
G01 X7.0513 Y45.6993
G01 X7.0387 Y45.6917
G01 X7.0254 Y45.6854
G01 X7.0115 Y45.6805
G01 X6.9973 Y45.6769
G01 X6.9827 Y45.6747
G01 X6.9680 Y45.6740
G01 X6.9533 Y45.6747
G01 X6.9387 Y45.6769
G01 X6.9245 Y45.6805
G01 X6.9106 Y45.6854
G01 X6.8973 Y45.6917
G01 X6.8847 Y45.6993
G01 X6.8728 Y45.7080
G01 X6.8619 Y45.7179
G01 X6.8520 Y45.7288
G01 X6.8433 Y45.7407
G01 X6.8357 Y45.7533
G01 X6.8294 Y45.7666
G01 X6.8245 Y45.7805
G01 X6.8209 Y45.7947
G01 X6.8187 Y45.8093
G01 X6.8180 Y45.8240
G01 X6.8187 Y45.8387
G01 X6.8209 Y45.8533
G01 X6.8245 Y45.8675
G01 X6.8294 Y45.8814
G01 X6.8357 Y45.8947
G01 X6.8433 Y45.9073
G01 X6.8520 Y45.9192
G01 X6.8619 Y45.9301
G01 X6.8728 Y45.9400
G01 X6.8847 Y45.9487
G01 X6.8973 Y45.9563
G01 X6.9106 Y45.9626
G01 X6.9245 Y45.9675
G01 X6.9387 Y45.9711
G01 X6.9533 Y45.9733
G01 X6.9680 Y45.9740
G01 X6.9827 Y45.9733
G01 X6.9973 Y45.9711
G01 X7.0115 Y45.9675
G01 X7.0254 Y45.9626
G01 X7.0387 Y45.9563
G01 X7.0513 Y45.9487
G01 X7.0632 Y45.9400
G01 X7.0741 Y45.9301
G01 X7.0840 Y45.9192
G01 X7.0927 Y45.9073
G01 X7.1003 Y45.8947
G01 X7.1066 Y45.8814
G01 X7.1115 Y45.8675
G01 X7.1151 Y45.8533
G01 X7.1173 Y45.8387
G01 X7.1180 Y45.8240
G00 Z2.0000
G00 X7.1180 Y47.8240
G01 F60.00
G01 Z-0.5000
G01 F120.00
G01 X7.1173 Y47.8093
G01 X7.1151 Y47.7947
G01 X7.1115 Y47.7805
G01 X7.1066 Y47.7666
G01 X7.1003 Y47.7533
G01 X7.0927 Y47.7407
G01 X7.0840 Y47.7288
G01 X7.0741 Y47.7179
G01 X7.0632 Y47.7080
G01 X7.0513 Y47.6993
G01 X7.0387 Y47.6917
G01 X7.0254 Y47.6854
G01 X7.0115 Y47.6805
G01 X6.9973 Y47.6769
G01 X6.9827 Y47.6747
G01 X6.9680 Y47.6740
G01 X6.9533 Y47.6747
G01 X6.9387 Y47.6769
G01 X6.9245 Y47.6805
G01 X6.9106 Y47.6854
G01 X6.8973 Y47.6917
G01 X6.8847 Y47.6993
G01 X6.8728 Y47.7080
G01 X6.8619 Y47.7179
G01 X6.8520 Y47.7288
G01 X6.8433 Y47.7407
G01 X6.8357 Y47.7533
G01 X6.8294 Y47.7666
G01 X6.8245 Y47.7805
G01 X6.8209 Y47.7947
G01 X6.8187 Y47.8093
G01 X6.8180 Y47.8240
G01 X6.8187 Y47.8387
G01 X6.8209 Y47.8533
G01 X6.8245 Y47.8675
G01 X6.8294 Y47.8814
G01 X6.8357 Y47.8947
G01 X6.8433 Y47.9073
G01 X6.8520 Y47.9192
G01 X6.8619 Y47.9301
G01 X6.8728 Y47.9400
G01 X6.8847 Y47.9487
G01 X6.8973 Y47.9563
G01 X6.9106 Y47.9626
G01 X6.9245 Y47.9675
G01 X6.9387 Y47.9711
G01 X6.9533 Y47.9733
G01 X6.9680 Y47.9740
G01 X6.9827 Y47.9733
G01 X6.9973 Y47.9711
G01 X7.0115 Y47.9675
G01 X7.0254 Y47.9626
G01 X7.0387 Y47.9563
G01 X7.0513 Y47.9487
G01 X7.0632 Y47.9400
G01 X7.0741 Y47.9301
G01 X7.0840 Y47.9192
G01 X7.0927 Y47.9073
G01 X7.1003 Y47.8947
G01 X7.1066 Y47.8814
G01 X7.1115 Y47.8675
G01 X7.1151 Y47.8533
G01 X7.1173 Y47.8387
G01 X7.1180 Y47.8240
G00 X7.1180 Y47.8240
G01 F60.00
G01 Z-1.0000
G01 F120.00
G01 X7.1173 Y47.8093
G01 X7.1151 Y47.7947
G01 X7.1115 Y47.7805
G01 X7.1066 Y47.7666
G01 X7.1003 Y47.7533
G01 X7.0927 Y47.7407
G01 X7.0840 Y47.7288
G01 X7.0741 Y47.7179
G01 X7.0632 Y47.7080
G01 X7.0513 Y47.6993
G01 X7.0387 Y47.6917
G01 X7.0254 Y47.6854
G01 X7.0115 Y47.6805
G01 X6.9973 Y47.6769
G01 X6.9827 Y47.6747
G01 X6.9680 Y47.6740
G01 X6.9533 Y47.6747
G01 X6.9387 Y47.6769
G01 X6.9245 Y47.6805
G01 X6.9106 Y47.6854
G01 X6.8973 Y47.6917
G01 X6.8847 Y47.6993
G01 X6.8728 Y47.7080
G01 X6.8619 Y47.7179
G01 X6.8520 Y47.7288
G01 X6.8433 Y47.7407
G01 X6.8357 Y47.7533
G01 X6.8294 Y47.7666
G01 X6.8245 Y47.7805
G01 X6.8209 Y47.7947
G01 X6.8187 Y47.8093
G01 X6.8180 Y47.8240
G01 X6.8187 Y47.8387
G01 X6.8209 Y47.8533
G01 X6.8245 Y47.8675
G01 X6.8294 Y47.8814
G01 X6.8357 Y47.8947
G01 X6.8433 Y47.9073
G01 X6.8520 Y47.9192
G01 X6.8619 Y47.9301
G01 X6.8728 Y47.9400
G01 X6.8847 Y47.9487
G01 X6.8973 Y47.9563
G01 X6.9106 Y47.9626
G01 X6.9245 Y47.9675
G01 X6.9387 Y47.9711
G01 X6.9533 Y47.9733
G01 X6.9680 Y47.9740
G01 X6.9827 Y47.9733
G01 X6.9973 Y47.9711
G01 X7.0115 Y47.9675
G01 X7.0254 Y47.9626
G01 X7.0387 Y47.9563
G01 X7.0513 Y47.9487
G01 X7.0632 Y47.9400
G01 X7.0741 Y47.9301
G01 X7.0840 Y47.9192
G01 X7.0927 Y47.9073
G01 X7.1003 Y47.8947
G01 X7.1066 Y47.8814
G01 X7.1115 Y47.8675
G01 X7.1151 Y47.8533
G01 X7.1173 Y47.8387
G01 X7.1180 Y47.8240
G00 Z2.0000
G00 X7.3720 Y59.4780
G01 F60.00
G01 Z-0.5000
G01 F120.00
G01 X7.3713 Y59.4633
G01 X7.3691 Y59.4487
G01 X7.3655 Y59.4345
G01 X7.3606 Y59.4206
G01 X7.3543 Y59.4073
G01 X7.3467 Y59.3947
G01 X7.3380 Y59.3828
G01 X7.3281 Y59.3719
G01 X7.3172 Y59.3620
G01 X7.3053 Y59.3533
G01 X7.2927 Y59.3457
G01 X7.2794 Y59.3394
G01 X7.2655 Y59.3345
G01 X7.2513 Y59.3309
G01 X7.2367 Y59.3287
G01 X7.2220 Y59.3280
G01 X7.2073 Y59.3287
G01 X7.1927 Y59.3309
G01 X7.1785 Y59.3345
G01 X7.1646 Y59.3394
G01 X7.1513 Y59.3457
G01 X7.1387 Y59.3533
G01 X7.1268 Y59.3620
G01 X7.1159 Y59.3719
G01 X7.1060 Y59.3828
G01 X7.0973 Y59.3947
G01 X7.0897 Y59.4073
G01 X7.0834 Y59.4206
G01 X7.0785 Y59.4345
G01 X7.0749 Y59.4487
G01 X7.0727 Y59.4633
G01 X7.0720 Y59.4780
G01 X7.0727 Y59.4927
G01 X7.0749 Y59.5073
G01 X7.0785 Y59.5215
G01 X7.0834 Y59.5354
G01 X7.0897 Y59.5487
G01 X7.0973 Y59.5613
G01 X7.1060 Y59.5732
G01 X7.1159 Y59.5841
G01 X7.1268 Y59.5940
G01 X7.1387 Y59.6027
G01 X7.1513 Y59.6103
G01 X7.1646 Y59.6166
G01 X7.1785 Y59.6215
G01 X7.1927 Y59.6251
G01 X7.2073 Y59.6273
G01 X7.2220 Y59.6280
G01 X7.2367 Y59.6273
G01 X7.2513 Y59.6251
G01 X7.2655 Y59.6215
G01 X7.2794 Y59.6166
G01 X7.2927 Y59.6103
G01 X7.3053 Y59.6027
G01 X7.3172 Y59.5940
G01 X7.3281 Y59.5841
G01 X7.3380 Y59.5732
G01 X7.3467 Y59.5613
G01 X7.3543 Y59.5487
G01 X7.3606 Y59.5354
G01 X7.3655 Y59.5215
G01 X7.3691 Y59.5073
G01 X7.3713 Y59.4927
G01 X7.3720 Y59.4780
G00 X7.3720 Y59.4780
G01 F60.00
G01 Z-1.0000
G01 F120.00
G01 X7.3713 Y59.4633
G01 X7.3691 Y59.4487
G01 X7.3655 Y59.4345
G01 X7.3606 Y59.4206
G01 X7.3543 Y59.4073
G01 X7.3467 Y59.3947
G01 X7.3380 Y59.3828
G01 X7.3281 Y59.3719
G01 X7.3172 Y59.3620
G01 X7.3053 Y59.3533
G01 X7.2927 Y59.3457
G01 X7.2794 Y59.3394
G01 X7.2655 Y59.3345
G01 X7.2513 Y59.3309
G01 X7.2367 Y59.3287
G01 X7.2220 Y59.3280
G01 X7.2073 Y59.3287
G01 X7.1927 Y59.3309
G01 X7.1785 Y59.3345
G01 X7.1646 Y59.3394
G01 X7.1513 Y59.3457
G01 X7.1387 Y59.3533
G01 X7.1268 Y59.3620
G01 X7.1159 Y59.3719
G01 X7.1060 Y59.3828
G01 X7.0973 Y59.3947
G01 X7.0897 Y59.4073
G01 X7.0834 Y59.4206
G01 X7.0785 Y59.4345
G01 X7.0749 Y59.4487
G01 X7.0727 Y59.4633
G01 X7.0720 Y59.4780
G01 X7.0727 Y59.4927
G01 X7.0749 Y59.5073
G01 X7.0785 Y59.5215
G01 X7.0834 Y59.5354
G01 X7.0897 Y59.5487
G01 X7.0973 Y59.5613
G01 X7.1060 Y59.5732
G01 X7.1159 Y59.5841
G01 X7.1268 Y59.5940
G01 X7.1387 Y59.6027
G01 X7.1513 Y59.6103
G01 X7.1646 Y59.6166
G01 X7.1785 Y59.6215
G01 X7.1927 Y59.6251
G01 X7.2073 Y59.6273
G01 X7.2220 Y59.6280
G01 X7.2367 Y59.6273
G01 X7.2513 Y59.6251
G01 X7.2655 Y59.6215
G01 X7.2794 Y59.6166
G01 X7.2927 Y59.6103
G01 X7.3053 Y59.6027
G01 X7.3172 Y59.5940
G01 X7.3281 Y59.5841
G01 X7.3380 Y59.5732
G01 X7.3467 Y59.5613
G01 X7.3543 Y59.5487
G01 X7.3606 Y59.5354
G01 X7.3655 Y59.5215
G01 X7.3691 Y59.5073
G01 X7.3713 Y59.4927
G01 X7.3720 Y59.4780
G00 Z2.0000
G00 X4.8320 Y59.4780
G01 F60.00
G01 Z-0.5000
G01 F120.00
G01 X4.8313 Y59.4633
G01 X4.8291 Y59.4487
G01 X4.8255 Y59.4345
G01 X4.8206 Y59.4206
G01 X4.8143 Y59.4073
G01 X4.8067 Y59.3947
G01 X4.7980 Y59.3828
G01 X4.7881 Y59.3719
G01 X4.7772 Y59.3620
G01 X4.7653 Y59.3533
G01 X4.7527 Y59.3457
G01 X4.7394 Y59.3394
G01 X4.7255 Y59.3345
G01 X4.7113 Y59.3309
G01 X4.6967 Y59.3287
G01 X4.6820 Y59.3280
G01 X4.6673 Y59.3287
G01 X4.6527 Y59.3309
G01 X4.6385 Y59.3345
G01 X4.6246 Y59.3394
G01 X4.6113 Y59.3457
G01 X4.5987 Y59.3533
G01 X4.5868 Y59.3620
G01 X4.5759 Y59.3719
G01 X4.5660 Y59.3828
G01 X4.5573 Y59.3947
G01 X4.5497 Y59.4073
G01 X4.5434 Y59.4206
G01 X4.5385 Y59.4345
G01 X4.5349 Y59.4487
G01 X4.5327 Y59.4633
G01 X4.5320 Y59.4780
G01 X4.5327 Y59.4927
G01 X4.5349 Y59.5073
G01 X4.5385 Y59.5215
G01 X4.5434 Y59.5354
G01 X4.5497 Y59.5487
G01 X4.5573 Y59.5613
G01 X4.5660 Y59.5732
G01 X4.5759 Y59.5841
G01 X4.5868 Y59.5940
G01 X4.5987 Y59.6027
G01 X4.6113 Y59.6103
G01 X4.6246 Y59.6166
G01 X4.6385 Y59.6215
G01 X4.6527 Y59.6251
G01 X4.6673 Y59.6273
G01 X4.6820 Y59.6280
G01 X4.6967 Y59.6273
G01 X4.7113 Y59.6251
G01 X4.7255 Y59.6215
G01 X4.7394 Y59.6166
G01 X4.7527 Y59.6103
G01 X4.7653 Y59.6027
G01 X4.7772 Y59.5940
G01 X4.7881 Y59.5841
G01 X4.7980 Y59.5732
G01 X4.8067 Y59.5613
G01 X4.8143 Y59.5487
G01 X4.8206 Y59.5354
G01 X4.8255 Y59.5215
G01 X4.8291 Y59.5073
G01 X4.8313 Y59.4927
G01 X4.8320 Y59.4780
G00 X4.8320 Y59.4780
G01 F60.00
G01 Z-1.0000
G01 F120.00
G01 X4.8313 Y59.4633
G01 X4.8291 Y59.4487
G01 X4.8255 Y59.4345
G01 X4.8206 Y59.4206
G01 X4.8143 Y59.4073
G01 X4.8067 Y59.3947
G01 X4.7980 Y59.3828
G01 X4.7881 Y59.3719
G01 X4.7772 Y59.3620
G01 X4.7653 Y59.3533
G01 X4.7527 Y59.3457
G01 X4.7394 Y59.3394
G01 X4.7255 Y59.3345
G01 X4.7113 Y59.3309
G01 X4.6967 Y59.3287
G01 X4.6820 Y59.3280
G01 X4.6673 Y59.3287
G01 X4.6527 Y59.3309
G01 X4.6385 Y59.3345
G01 X4.6246 Y59.3394
G01 X4.6113 Y59.3457
G01 X4.5987 Y59.3533
G01 X4.5868 Y59.3620
G01 X4.5759 Y59.3719
G01 X4.5660 Y59.3828
G01 X4.5573 Y59.3947
G01 X4.5497 Y59.4073
G01 X4.5434 Y59.4206
G01 X4.5385 Y59.4345
G01 X4.5349 Y59.4487
G01 X4.5327 Y59.4633
G01 X4.5320 Y59.4780
G01 X4.5327 Y59.4927
G01 X4.5349 Y59.5073
G01 X4.5385 Y59.5215
G01 X4.5434 Y59.5354
G01 X4.5497 Y59.5487
G01 X4.5573 Y59.5613
G01 X4.5660 Y59.5732
G01 X4.5759 Y59.5841
G01 X4.5868 Y59.5940
G01 X4.5987 Y59.6027
G01 X4.6113 Y59.6103
G01 X4.6246 Y59.6166
G01 X4.6385 Y59.6215
G01 X4.6527 Y59.6251
G01 X4.6673 Y59.6273
G01 X4.6820 Y59.6280
G01 X4.6967 Y59.6273
G01 X4.7113 Y59.6251
G01 X4.7255 Y59.6215
G01 X4.7394 Y59.6166
G01 X4.7527 Y59.6103
G01 X4.7653 Y59.6027
G01 X4.7772 Y59.5940
G01 X4.7881 Y59.5841
G01 X4.7980 Y59.5732
G01 X4.8067 Y59.5613
G01 X4.8143 Y59.5487
G01 X4.8206 Y59.5354
G01 X4.8255 Y59.5215
G01 X4.8291 Y59.5073
G01 X4.8313 Y59.4927
G01 X4.8320 Y59.4780
G00 Z2.0000
G00 X9.1500 Y83.1000
G01 F60.00
G01 Z-0.5000
G01 F120.00
G01 X9.1493 Y83.0853
G01 X9.1471 Y83.0707
G01 X9.1435 Y83.0565
G01 X9.1386 Y83.0426
G01 X9.1323 Y83.0293
G01 X9.1247 Y83.0167
G01 X9.1160 Y83.0048
G01 X9.1061 Y82.9939
G01 X9.0952 Y82.9840
G01 X9.0833 Y82.9753
G01 X9.0707 Y82.9677
G01 X9.0574 Y82.9614
G01 X9.0435 Y82.9565
G01 X9.0293 Y82.9529
G01 X9.0147 Y82.9507
G01 X9.0000 Y82.9500
G01 X8.9853 Y82.9507
G01 X8.9707 Y82.9529
G01 X8.9565 Y82.9565
G01 X8.9426 Y82.9614
G01 X8.9293 Y82.9677
G01 X8.9167 Y82.9753
G01 X8.9048 Y82.9840
G01 X8.8939 Y82.9939
G01 X8.8840 Y83.0048
G01 X8.8753 Y83.0167
G01 X8.8677 Y83.0293
G01 X8.8614 Y83.0426
G01 X8.8565 Y83.0565
G01 X8.8529 Y83.0707
G01 X8.8507 Y83.0853
G01 X8.8500 Y83.1000
G01 X8.8507 Y83.1147
G01 X8.8529 Y83.1293
G01 X8.8565 Y83.1435
G01 X8.8614 Y83.1574
G01 X8.8677 Y83.1707
G01 X8.8753 Y83.1833
G01 X8.8840 Y83.1952
G01 X8.8939 Y83.2061
G01 X8.9048 Y83.2160
G01 X8.9167 Y83.2247
G01 X8.9293 Y83.2323
G01 X8.9426 Y83.2386
G01 X8.9565 Y83.2435
G01 X8.9707 Y83.2471
G01 X8.9853 Y83.2493
G01 X9.0000 Y83.2500
G01 X9.0147 Y83.2493
G01 X9.0293 Y83.2471
G01 X9.0435 Y83.2435
G01 X9.0574 Y83.2386
G01 X9.0707 Y83.2323
G01 X9.0833 Y83.2247
G01 X9.0952 Y83.2160
G01 X9.1061 Y83.2061
G01 X9.1160 Y83.1952
G01 X9.1247 Y83.1833
G01 X9.1323 Y83.1707
G01 X9.1386 Y83.1574
G01 X9.1435 Y83.1435
G01 X9.1471 Y83.1293
G01 X9.1493 Y83.1147
G01 X9.1500 Y83.1000
G00 X9.1500 Y83.1000
G01 F60.00
G01 Z-1.0000
G01 F120.00
G01 X9.1493 Y83.0853
G01 X9.1471 Y83.0707
G01 X9.1435 Y83.0565
G01 X9.1386 Y83.0426
G01 X9.1323 Y83.0293
G01 X9.1247 Y83.0167
G01 X9.1160 Y83.0048
G01 X9.1061 Y82.9939
G01 X9.0952 Y82.9840
G01 X9.0833 Y82.9753
G01 X9.0707 Y82.9677
G01 X9.0574 Y82.9614
G01 X9.0435 Y82.9565
G01 X9.0293 Y82.9529
G01 X9.0147 Y82.9507
G01 X9.0000 Y82.9500
G01 X8.9853 Y82.9507
G01 X8.9707 Y82.9529
G01 X8.9565 Y82.9565
G01 X8.9426 Y82.9614
G01 X8.9293 Y82.9677
G01 X8.9167 Y82.9753
G01 X8.9048 Y82.9840
G01 X8.8939 Y82.9939
G01 X8.8840 Y83.0048
G01 X8.8753 Y83.0167
G01 X8.8677 Y83.0293
G01 X8.8614 Y83.0426
G01 X8.8565 Y83.0565
G01 X8.8529 Y83.0707
G01 X8.8507 Y83.0853
G01 X8.8500 Y83.1000
G01 X8.8507 Y83.1147
G01 X8.8529 Y83.1293
G01 X8.8565 Y83.1435
G01 X8.8614 Y83.1574
G01 X8.8677 Y83.1707
G01 X8.8753 Y83.1833
G01 X8.8840 Y83.1952
G01 X8.8939 Y83.2061
G01 X8.9048 Y83.2160
G01 X8.9167 Y83.2247
G01 X8.9293 Y83.2323
G01 X8.9426 Y83.2386
G01 X8.9565 Y83.2435
G01 X8.9707 Y83.2471
G01 X8.9853 Y83.2493
G01 X9.0000 Y83.2500
G01 X9.0147 Y83.2493
G01 X9.0293 Y83.2471
G01 X9.0435 Y83.2435
G01 X9.0574 Y83.2386
G01 X9.0707 Y83.2323
G01 X9.0833 Y83.2247
G01 X9.0952 Y83.2160
G01 X9.1061 Y83.2061
G01 X9.1160 Y83.1952
G01 X9.1247 Y83.1833
G01 X9.1323 Y83.1707
G01 X9.1386 Y83.1574
G01 X9.1435 Y83.1435
G01 X9.1471 Y83.1293
G01 X9.1493 Y83.1147
G01 X9.1500 Y83.1000
G00 Z2.0000
G00 X14.2300 Y83.1000
G01 F60.00
G01 Z-0.5000
G01 F120.00
G01 X14.2293 Y83.0853
G01 X14.2271 Y83.0707
G01 X14.2235 Y83.0565
G01 X14.2186 Y83.0426
G01 X14.2123 Y83.0293
G01 X14.2047 Y83.0167
G01 X14.1960 Y83.0048
G01 X14.1861 Y82.9939
G01 X14.1752 Y82.9840
G01 X14.1633 Y82.9753
G01 X14.1507 Y82.9677
G01 X14.1374 Y82.9614
G01 X14.1235 Y82.9565
G01 X14.1093 Y82.9529
G01 X14.0947 Y82.9507
G01 X14.0800 Y82.9500
G01 X14.0653 Y82.9507
G01 X14.0507 Y82.9529
G01 X14.0365 Y82.9565
G01 X14.0226 Y82.9614
G01 X14.0093 Y82.9677
G01 X13.9967 Y82.9753
G01 X13.9848 Y82.9840
G01 X13.9739 Y82.9939
G01 X13.9640 Y83.0048
G01 X13.9553 Y83.0167
G01 X13.9477 Y83.0293
G01 X13.9414 Y83.0426
G01 X13.9365 Y83.0565
G01 X13.9329 Y83.0707
G01 X13.9307 Y83.0853
G01 X13.9300 Y83.1000
G01 X13.9307 Y83.1147
G01 X13.9329 Y83.1293
G01 X13.9365 Y83.1435
G01 X13.9414 Y83.1574
G01 X13.9477 Y83.1707
G01 X13.9553 Y83.1833
G01 X13.9640 Y83.1952
G01 X13.9739 Y83.2061
G01 X13.9848 Y83.2160
G01 X13.9967 Y83.2247
G01 X14.0093 Y83.2323
G01 X14.0226 Y83.2386
G01 X14.0365 Y83.2435
G01 X14.0507 Y83.2471
G01 X14.0653 Y83.2493
G01 X14.0800 Y83.2500
G01 X14.0947 Y83.2493
G01 X14.1093 Y83.2471
G01 X14.1235 Y83.2435
G01 X14.1374 Y83.2386
G01 X14.1507 Y83.2323
G01 X14.1633 Y83.2247
G01 X14.1752 Y83.2160
G01 X14.1861 Y83.2061
G01 X14.1960 Y83.1952
G01 X14.2047 Y83.1833
G01 X14.2123 Y83.1707
G01 X14.2186 Y83.1574
G01 X14.2235 Y83.1435
G01 X14.2271 Y83.1293
G01 X14.2293 Y83.1147
G01 X14.2300 Y83.1000
G00 X14.2300 Y83.1000
G01 F60.00
G01 Z-1.0000
G01 F120.00
G01 X14.2293 Y83.0853
G01 X14.2271 Y83.0707
G01 X14.2235 Y83.0565
G01 X14.2186 Y83.0426
G01 X14.2123 Y83.0293
G01 X14.2047 Y83.0167
G01 X14.1960 Y83.0048
G01 X14.1861 Y82.9939
G01 X14.1752 Y82.9840
G01 X14.1633 Y82.9753
G01 X14.1507 Y82.9677
G01 X14.1374 Y82.9614
G01 X14.1235 Y82.9565
G01 X14.1093 Y82.9529
G01 X14.0947 Y82.9507
G01 X14.0800 Y82.9500
G01 X14.0653 Y82.9507
G01 X14.0507 Y82.9529
G01 X14.0365 Y82.9565
G01 X14.0226 Y82.9614
G01 X14.0093 Y82.9677
G01 X13.9967 Y82.9753
G01 X13.9848 Y82.9840
G01 X13.9739 Y82.9939
G01 X13.9640 Y83.0048
G01 X13.9553 Y83.0167
G01 X13.9477 Y83.0293
G01 X13.9414 Y83.0426
G01 X13.9365 Y83.0565
G01 X13.9329 Y83.0707
G01 X13.9307 Y83.0853
G01 X13.9300 Y83.1000
G01 X13.9307 Y83.1147
G01 X13.9329 Y83.1293
G01 X13.9365 Y83.1435
G01 X13.9414 Y83.1574
G01 X13.9477 Y83.1707
G01 X13.9553 Y83.1833
G01 X13.9640 Y83.1952
G01 X13.9739 Y83.2061
G01 X13.9848 Y83.2160
G01 X13.9967 Y83.2247
G01 X14.0093 Y83.2323
G01 X14.0226 Y83.2386
G01 X14.0365 Y83.2435
G01 X14.0507 Y83.2471
G01 X14.0653 Y83.2493
G01 X14.0800 Y83.2500
G01 X14.0947 Y83.2493
G01 X14.1093 Y83.2471
G01 X14.1235 Y83.2435
G01 X14.1374 Y83.2386
G01 X14.1507 Y83.2323
G01 X14.1633 Y83.2247
G01 X14.1752 Y83.2160
G01 X14.1861 Y83.2061
G01 X14.1960 Y83.1952
G01 X14.2047 Y83.1833
G01 X14.2123 Y83.1707
G01 X14.2186 Y83.1574
G01 X14.2235 Y83.1435
G01 X14.2271 Y83.1293
G01 X14.2293 Y83.1147
G01 X14.2300 Y83.1000
G00 Z2.0000
M05
G00 Z2.0000
G00 Z15.00


