(G-CODE GENERATED BY FLATCAM v8.994 - www.flatcam.org - Version Date: 2020/11/7)

(Name: Gerber_BoardOutlineLayer.GKO_cutout_cnc)
(Type: G-code from Geometry)
(Units: MM)

(Created on Thursday, 12 May 2022 at 15:35)

(This preprocessor is the default preprocessor used by FlatCAM.)
(It is made to work with MACH3 compatible motion controllers.)

(TOOL DIAMETER: 0.5 mm)
(Feedrate_XY: 60.0 mm/min)
(Feedrate_Z: 60.0 mm/min)
(Feedrate rapids 1500.0 mm/min)

(Z_Cut: -1.4 mm)
(DepthPerCut: 0.7 mm <=>2 passes)
(Z_Move: 2.0 mm)
(Z Start: None mm)
(Z End: 15.0 mm)
(X,Y End: None mm)
(Steps per circle: 64)
(Preprocessor Geometry: default)

(X range:    0.5230 ...   17.4770  mm)
(Y range:    0.5230 ...   89.4770  mm)

(Spindle Speed: 10000.0 RPM)
G21
G90
G94

G01 F60.00

M5
G00 Z15.0000
G00 X0.0000 Y0.0000
T1
M6    
(MSG, Change to Tool Dia = 0.5000)
M0
G00 Z15.0000

M03 S10000.0
G01 F60.00
G00 X7.8500 Y0.5230
G01 F60.00
G01 Z-0.7000
G01 F60.00
G01 X0.8730 Y0.5230
G01 X0.8387 Y0.5247
G01 X0.8047 Y0.5298
G01 X0.7714 Y0.5381
G01 X0.7390 Y0.5497
G01 X0.7080 Y0.5644
G01 X0.6785 Y0.5820
G01 X0.6509 Y0.6025
G01 X0.6255 Y0.6255
G01 X0.6024 Y0.6510
G01 X0.5819 Y0.6786
G01 X0.5643 Y0.7080
G01 X0.5496 Y0.7391
G01 X0.5380 Y0.7714
G01 X0.5297 Y0.8047
G01 X0.5246 Y0.8387
G01 X0.5230 Y0.8730
G01 X0.5230 Y43.8500
G00 X0.5230 Y43.8500
G01 F60.00
G01 Z-1.4000
G01 F60.00
G01 X0.5230 Y0.8730
G01 X0.5246 Y0.8387
G01 X0.5297 Y0.8047
G01 X0.5380 Y0.7714
G01 X0.5496 Y0.7391
G01 X0.5643 Y0.7080
G01 X0.5819 Y0.6786
G01 X0.6024 Y0.6510
G01 X0.6255 Y0.6255
G01 X0.6509 Y0.6025
G01 X0.6785 Y0.5820
G01 X0.7080 Y0.5644
G01 X0.7390 Y0.5497
G01 X0.7714 Y0.5381
G01 X0.8047 Y0.5298
G01 X0.8387 Y0.5247
G01 X0.8730 Y0.5230
G01 X7.8500 Y0.5230
G00 Z2.0000
G00 X0.5230 Y46.3500
G01 F60.00
G01 Z-0.7000
G01 F60.00
G01 X0.5230 Y89.1270
G01 X0.5246 Y89.1613
G01 X0.5297 Y89.1953
G01 X0.5380 Y89.2286
G01 X0.5496 Y89.2609
G01 X0.5643 Y89.2920
G01 X0.5819 Y89.3214
G01 X0.6024 Y89.3490
G01 X0.6255 Y89.3745
G01 X0.6509 Y89.3975
G01 X0.6785 Y89.4180
G01 X0.7080 Y89.4356
G01 X0.7390 Y89.4503
G01 X0.7714 Y89.4619
G01 X0.8047 Y89.4702
G01 X0.8387 Y89.4753
G01 X0.8730 Y89.4770
G01 X7.8500 Y89.4770
G00 X7.8500 Y89.4770
G01 F60.00
G01 Z-1.4000
G01 F60.00
G01 X0.8730 Y89.4770
G01 X0.8387 Y89.4753
G01 X0.8047 Y89.4702
G01 X0.7714 Y89.4619
G01 X0.7390 Y89.4503
G01 X0.7080 Y89.4356
G01 X0.6785 Y89.4180
G01 X0.6509 Y89.3975
G01 X0.6255 Y89.3745
G01 X0.6024 Y89.3490
G01 X0.5819 Y89.3214
G01 X0.5643 Y89.2920
G01 X0.5496 Y89.2609
G01 X0.5380 Y89.2286
G01 X0.5297 Y89.1953
G01 X0.5246 Y89.1613
G01 X0.5230 Y89.1270
G01 X0.5230 Y46.3500
G00 Z2.0000
G00 X10.3500 Y89.4770
G01 F60.00
G01 Z-0.7000
G01 F60.00
G01 X17.1270 Y89.4770
G01 X17.1613 Y89.4753
G01 X17.1953 Y89.4702
G01 X17.2286 Y89.4619
G01 X17.2610 Y89.4503
G01 X17.2920 Y89.4356
G01 X17.3215 Y89.4180
G01 X17.3491 Y89.3975
G01 X17.3745 Y89.3745
G01 X17.3976 Y89.3490
G01 X17.4181 Y89.3214
G01 X17.4357 Y89.2920
G01 X17.4504 Y89.2609
G01 X17.4620 Y89.2286
G01 X17.4703 Y89.1953
G01 X17.4754 Y89.1613
G01 X17.4770 Y89.1270
G01 X17.4770 Y46.3500
G00 X17.4770 Y46.3500
G01 F60.00
G01 Z-1.4000
G01 F60.00
G01 X17.4770 Y89.1270
G01 X17.4754 Y89.1613
G01 X17.4703 Y89.1953
G01 X17.4620 Y89.2286
G01 X17.4504 Y89.2609
G01 X17.4357 Y89.2920
G01 X17.4181 Y89.3214
G01 X17.3976 Y89.3490
G01 X17.3745 Y89.3745
G01 X17.3491 Y89.3975
G01 X17.3215 Y89.4180
G01 X17.2920 Y89.4356
G01 X17.2610 Y89.4503
G01 X17.2286 Y89.4619
G01 X17.1953 Y89.4702
G01 X17.1613 Y89.4753
G01 X17.1270 Y89.4770
G01 X10.3500 Y89.4770
G00 Z2.0000
G00 X17.4770 Y43.8500
G01 F60.00
G01 Z-0.7000
G01 F60.00
G01 X17.4770 Y0.8730
G01 X17.4754 Y0.8387
G01 X17.4703 Y0.8047
G01 X17.4620 Y0.7714
G01 X17.4504 Y0.7391
G01 X17.4357 Y0.7080
G01 X17.4181 Y0.6786
G01 X17.3976 Y0.6510
G01 X17.3745 Y0.6255
G01 X17.3491 Y0.6025
G01 X17.3215 Y0.5820
G01 X17.2920 Y0.5644
G01 X17.2610 Y0.5497
G01 X17.2286 Y0.5381
G01 X17.1953 Y0.5298
G01 X17.1613 Y0.5247
G01 X17.1270 Y0.5230
G01 X10.3500 Y0.5230
G00 X10.3500 Y0.5230
G01 F60.00
G01 Z-1.4000
G01 F60.00
G01 X17.1270 Y0.5230
G01 X17.1613 Y0.5247
G01 X17.1953 Y0.5298
G01 X17.2286 Y0.5381
G01 X17.2610 Y0.5497
G01 X17.2920 Y0.5644
G01 X17.3215 Y0.5820
G01 X17.3491 Y0.6025
G01 X17.3745 Y0.6255
G01 X17.3976 Y0.6510
G01 X17.4181 Y0.6786
G01 X17.4357 Y0.7080
G01 X17.4504 Y0.7391
G01 X17.4620 Y0.7714
G01 X17.4703 Y0.8047
G01 X17.4754 Y0.8387
G01 X17.4770 Y0.8730
G01 X17.4770 Y43.8500
G00 Z2.0000
G00 X11.9380 Y56.6420
G01 F60.00
G01 Z-0.7000
G01 F60.00
G01 X11.9380 Y32.0040
G01 X12.7000 Y32.0040
G01 X12.7000 Y56.6420
G01 X11.9380 Y56.6420
G00 X11.9380 Y56.6420
G01 F60.00
G01 Z-1.4000
G01 F60.00
G01 X11.9380 Y32.0040
G01 X12.7000 Y32.0040
G01 X12.7000 Y56.6420
G01 X11.9380 Y56.6420
G00 Z2.0000
M05
G00 Z2.0000
G00 Z15.00


