(G-CODE GENERATED BY FLATCAM v8.994 - www.flatcam.org - Version Date: 2020/11/7)

(Name: Gerber_BottomLayer.GBL_iso_combined_cnc)
(Type: G-code from Geometry)
(Units: MM)

(Created on Thursday, 12 May 2022 at 15:22)

(This preprocessor is the default preprocessor used by FlatCAM.)
(It is made to work with MACH3 compatible motion controllers.)

(TOOL DIAMETER: 0.5 mm)
(Feedrate_XY: 60.0 mm/min)
(Feedrate_Z: 30.0 mm/min)
(Feedrate rapids 1500.0 mm/min)

(Z_Cut: -0.5 mm)
(Z_Move: 2.0 mm)
(Z Start: None mm)
(Z End: 15.0 mm)
(X,Y End: None mm)
(Steps per circle: 64)
(Preprocessor Geometry: default)

(X range:    1.0091 ...   16.9909  mm)
(Y range:    1.0092 ...   88.9908  mm)

(Spindle Speed: 10000.0 RPM)
G21
G90
G94

G01 F60.00

M5
G00 Z15.0000
G00 X0.0000 Y0.0000
T1
M6    
(MSG, Change to Tool Dia = 0.5000)
M0
G00 Z15.0000

M03 S10000.0
G01 F60.00
G00 X2.7905 Y5.9866
G01 F30.00
G01 Z-0.5000
G01 F60.00
G01 X2.8391 Y5.9265
G01 X2.9465 Y5.8191
G01 X3.0066 Y5.7705
G01 X3.0066 Y5.7741
G01 X2.9908 Y5.7871
G01 X2.9036 Y5.8662
G01 X2.8947 Y5.8747
G01 X2.8862 Y5.8836
G01 X2.8071 Y5.9708
G01 X2.7941 Y5.9866
G01 X2.7905 Y5.9866
G00 Z2.0000
G00 X2.7941 Y7.8134
G01 F30.00
G01 Z-0.5000
G01 F60.00
G01 X2.8071 Y7.8292
G01 X2.8862 Y7.9164
G01 X2.8947 Y7.9253
G01 X2.9036 Y7.9338
G01 X2.9908 Y8.0129
G01 X3.0066 Y8.0259
G01 X3.0066 Y8.0295
G01 X2.9465 Y7.9809
G01 X2.8391 Y7.8735
G01 X2.7905 Y7.8134
G01 X2.7941 Y7.8134
G00 Z2.0000
G00 X4.8334 Y8.0295
G01 F30.00
G01 Z-0.5000
G01 F60.00
G01 X4.8334 Y8.0259
G01 X4.8492 Y8.0129
G01 X4.9364 Y7.9338
G01 X4.9453 Y7.9253
G01 X4.9538 Y7.9164
G01 X5.0329 Y7.8292
G01 X5.0459 Y7.8134
G01 X5.0495 Y7.8134
G01 X5.0009 Y7.8735
G01 X4.8935 Y7.9809
G01 X4.8334 Y8.0295
G00 Z2.0000
G00 X4.8334 Y5.7705
G01 F30.00
G01 Z-0.5000
G01 F60.00
G01 X4.8935 Y5.8191
G01 X5.0009 Y5.9265
G01 X5.0495 Y5.9866
G01 X5.0459 Y5.9866
G01 X5.0329 Y5.9708
G01 X4.9538 Y5.8836
G01 X4.9453 Y5.8747
G01 X4.9364 Y5.8662
G01 X4.8492 Y5.7871
G01 X4.8334 Y5.7741
G01 X4.8334 Y5.7705
G00 Z2.0000
G00 X4.4264 Y15.3969
G01 F30.00
G01 Z-0.5000
G01 F60.00
G01 X4.4264 Y15.4020
G01 X4.2900 Y15.4020
G01 X4.2777 Y15.4023
G01 X4.2655 Y15.4032
G01 X4.2533 Y15.4047
G01 X4.2412 Y15.4068
G01 X4.2293 Y15.4095
G01 X4.2116 Y15.4146
G01 X4.1943 Y15.4210
G01 X4.1831 Y15.4260
G01 X4.1668 Y15.4345
G01 X4.1511 Y15.4441
G01 X4.1362 Y15.4549
G01 X4.1221 Y15.4668
G01 X4.1132 Y15.4752
G01 X4.1007 Y15.4887
G01 X4.0892 Y15.5031
G01 X4.0788 Y15.5183
G01 X4.0725 Y15.5288
G01 X4.0640 Y15.5451
G01 X4.0568 Y15.5620
G01 X4.0508 Y15.5794
G01 X4.0475 Y15.5913
G01 X4.0448 Y15.6032
G01 X4.0427 Y15.6153
G01 X4.0412 Y15.6275
G01 X4.0403 Y15.6397
G01 X4.0400 Y15.6520
G01 X4.0400 Y15.7884
G01 X4.0349 Y15.7884
G01 X4.0349 Y15.6674
G01 X4.0401 Y15.6083
G01 X4.0516 Y15.5655
G01 X4.0705 Y15.5250
G01 X4.0957 Y15.4888
G01 X4.1268 Y15.4577
G01 X4.1630 Y15.4325
G01 X4.2035 Y15.4136
G01 X4.2463 Y15.4021
G01 X4.3054 Y15.3969
G01 X4.4264 Y15.3969
G00 Z2.0000
G00 X4.0400 Y17.3156
G01 F30.00
G01 Z-0.5000
G01 F60.00
G01 X4.0401 Y17.4581
G01 X4.0407 Y17.4704
G01 X4.0419 Y17.4826
G01 X4.0437 Y17.4947
G01 X4.0461 Y17.5068
G01 X4.0508 Y17.5246
G01 X4.0568 Y17.5420
G01 X4.0640 Y17.5589
G01 X4.0725 Y17.5752
G01 X4.0788 Y17.5857
G01 X4.0892 Y17.6009
G01 X4.1007 Y17.6153
G01 X4.1132 Y17.6288
G01 X4.1267 Y17.6413
G01 X4.1362 Y17.6491
G01 X4.1511 Y17.6599
G01 X4.1668 Y17.6695
G01 X4.1831 Y17.6780
G01 X4.2000 Y17.6852
G01 X4.2174 Y17.6912
G01 X4.2293 Y17.6945
G01 X4.2412 Y17.6972
G01 X4.2533 Y17.6993
G01 X4.2655 Y17.7008
G01 X4.2777 Y17.7017
G01 X4.2900 Y17.7020
G01 X4.4264 Y17.7020
G01 X4.4264 Y17.7071
G01 X4.3054 Y17.7071
G01 X4.2463 Y17.7019
G01 X4.2035 Y17.6904
G01 X4.1630 Y17.6715
G01 X4.1269 Y17.6463
G01 X4.0957 Y17.6152
G01 X4.0703 Y17.5788
G01 X4.0516 Y17.5389
G01 X4.0401 Y17.4959
G01 X4.0349 Y17.4366
G01 X4.0349 Y17.3156
G01 X4.0400 Y17.3156
G00 Z2.0000
G00 X7.2299 Y15.5176
G01 F30.00
G01 Z-0.5000
G01 F60.00
G01 X7.2299 Y8.1700
G01 X7.2314 Y8.1332
G01 X7.2323 Y8.1210
G01 X7.2338 Y8.1088
G01 X7.2395 Y8.0724
G01 X7.2481 Y8.0366
G01 X7.2533 Y8.0190
G01 X7.2657 Y7.9843
G01 X7.2729 Y7.9674
G01 X7.2889 Y7.9342
G01 X7.3076 Y7.9025
G01 X7.3176 Y7.8871
G01 X7.3396 Y7.8575
G01 X7.3514 Y7.8434
G01 X7.3764 Y7.8164
G01 X7.6850 Y7.5077
G01 X7.6653 Y7.4661
G01 X7.6581 Y7.4492
G01 X7.6143 Y7.3268
G01 X7.6092 Y7.3091
G01 X7.5805 Y7.1949
G01 X7.5767 Y7.1768
G01 X7.5585 Y7.0543
G01 X7.5570 Y7.0421
G01 X7.5561 Y7.0299
G01 X7.5503 Y6.9123
G01 X7.5500 Y6.9000
G01 X7.5503 Y6.8877
G01 X7.5561 Y6.7701
G01 X7.5577 Y6.7518
G01 X7.5758 Y6.6292
G01 X7.5779 Y6.6171
G01 X7.5805 Y6.6051
G01 X7.6092 Y6.4909
G01 X7.6124 Y6.4791
G01 X7.6163 Y6.4674
G01 X7.6560 Y6.3566
G01 X7.6604 Y6.3451
G01 X7.6653 Y6.3339
G01 X7.7157 Y6.2274
G01 X7.7212 Y6.2165
G01 X7.7273 Y6.2058
G01 X7.7878 Y6.1048
G01 X7.7944 Y6.0944
G01 X7.8014 Y6.0844
G01 X7.8753 Y5.9849
G01 X7.8871 Y5.9708
G01 X7.9662 Y5.8836
G01 X7.9747 Y5.8747
G01 X7.9836 Y5.8662
G01 X8.0708 Y5.7871
G01 X8.0801 Y5.7791
G01 X8.0898 Y5.7716
G01 X8.1844 Y5.7014
G01 X8.1944 Y5.6944
G01 X8.2048 Y5.6878
G01 X8.3058 Y5.6273
G01 X8.3165 Y5.6212
G01 X8.3274 Y5.6157
G01 X8.4339 Y5.5653
G01 X8.4451 Y5.5604
G01 X8.4566 Y5.5560
G01 X8.5674 Y5.5163
G01 X8.5791 Y5.5124
G01 X8.5909 Y5.5092
G01 X8.7051 Y5.4805
G01 X8.7171 Y5.4779
G01 X8.7292 Y5.4758
G01 X8.8457 Y5.4585
G01 X8.8579 Y5.4570
G01 X8.8701 Y5.4561
G01 X8.9877 Y5.4503
G01 X9.0000 Y5.4500
G01 X9.0123 Y5.4503
G01 X9.1299 Y5.4561
G01 X9.1421 Y5.4570
G01 X9.1543 Y5.4585
G01 X9.2708 Y5.4758
G01 X9.2829 Y5.4779
G01 X9.2949 Y5.4805
G01 X9.4091 Y5.5092
G01 X9.4209 Y5.5124
G01 X9.4326 Y5.5163
G01 X9.5434 Y5.5560
G01 X9.5549 Y5.5604
G01 X9.5661 Y5.5653
G01 X9.6726 Y5.6157
G01 X9.6835 Y5.6212
G01 X9.6942 Y5.6273
G01 X9.7952 Y5.6878
G01 X9.8056 Y5.6944
G01 X9.8156 Y5.7014
G01 X9.9102 Y5.7716
G01 X9.9199 Y5.7791
G01 X9.9292 Y5.7871
G01 X10.0164 Y5.8662
G01 X10.0253 Y5.8747
G01 X10.0338 Y5.8836
G01 X10.1129 Y5.9708
G01 X10.1209 Y5.9801
G01 X10.1284 Y5.9898
G01 X10.1986 Y6.0844
G01 X10.2056 Y6.0944
G01 X10.2122 Y6.1048
G01 X10.2727 Y6.2058
G01 X10.2788 Y6.2165
G01 X10.2843 Y6.2274
G01 X10.3347 Y6.3339
G01 X10.3396 Y6.3451
G01 X10.3440 Y6.3566
G01 X10.3837 Y6.4674
G01 X10.3876 Y6.4791
G01 X10.3908 Y6.4909
G01 X10.4195 Y6.6051
G01 X10.4221 Y6.6171
G01 X10.4242 Y6.6292
G01 X10.4415 Y6.7457
G01 X10.4430 Y6.7579
G01 X10.4439 Y6.7701
G01 X10.4497 Y6.8877
G01 X10.4500 Y6.9000
G01 X10.4497 Y6.9123
G01 X10.4435 Y7.0360
G01 X10.4415 Y7.0543
G01 X10.4242 Y7.1708
G01 X10.4221 Y7.1829
G01 X10.4195 Y7.1949
G01 X10.3908 Y7.3091
G01 X10.3876 Y7.3209
G01 X10.3837 Y7.3326
G01 X10.3440 Y7.4434
G01 X10.3396 Y7.4549
G01 X10.3347 Y7.4661
G01 X10.2843 Y7.5726
G01 X10.2788 Y7.5835
G01 X10.2727 Y7.5942
G01 X10.2122 Y7.6952
G01 X10.2056 Y7.7056
G01 X10.1986 Y7.7156
G01 X10.1284 Y7.8102
G01 X10.1209 Y7.8199
G01 X10.1129 Y7.8292
G01 X10.0338 Y7.9164
G01 X10.0253 Y7.9253
G01 X10.0164 Y7.9338
G01 X9.9292 Y8.0129
G01 X9.9199 Y8.0209
G01 X9.9102 Y8.0284
G01 X9.8156 Y8.0986
G01 X9.8056 Y8.1056
G01 X9.7952 Y8.1122
G01 X9.6942 Y8.1727
G01 X9.6835 Y8.1788
G01 X9.6726 Y8.1843
G01 X9.5661 Y8.2347
G01 X9.5549 Y8.2396
G01 X9.5434 Y8.2440
G01 X9.4326 Y8.2837
G01 X9.4209 Y8.2876
G01 X9.4091 Y8.2908
G01 X9.2949 Y8.3195
G01 X9.2829 Y8.3221
G01 X9.2708 Y8.3242
G01 X9.1543 Y8.3415
G01 X9.1360 Y8.3435
G01 X9.0123 Y8.3497
G01 X9.0000 Y8.3500
G01 X8.9877 Y8.3497
G01 X8.8701 Y8.3439
G01 X8.8579 Y8.3430
G01 X8.8457 Y8.3415
G01 X8.7232 Y8.3233
G01 X8.7051 Y8.3195
G01 X8.5909 Y8.2908
G01 X8.5732 Y8.2857
G01 X8.4508 Y8.2419
G01 X8.4339 Y8.2347
G01 X8.3923 Y8.2150
G01 X8.2301 Y8.3772
G01 X8.2301 Y15.5176
G01 X8.2667 Y15.5350
G01 X8.2775 Y15.5407
G01 X8.3638 Y15.5925
G01 X8.3789 Y15.6029
G01 X8.4499 Y15.6555
G01 X8.4642 Y15.6670
G01 X8.5343 Y15.7304
G01 X8.5432 Y15.7388
G01 X8.5516 Y15.7477
G01 X8.6109 Y15.8132
G01 X8.6190 Y15.8224
G01 X8.6265 Y15.8321
G01 X8.6791 Y15.9031
G01 X8.6895 Y15.9182
G01 X8.7382 Y15.9992
G01 X8.7442 Y16.0099
G01 X8.7497 Y16.0209
G01 X8.7875 Y16.1007
G01 X8.7925 Y16.1119
G01 X8.7969 Y16.1234
G01 X8.8266 Y16.2065
G01 X8.8305 Y16.2182
G01 X8.8338 Y16.2300
G01 X8.8552 Y16.3157
G01 X8.8579 Y16.3276
G01 X8.8600 Y16.3397
G01 X8.8730 Y16.4271
G01 X8.8745 Y16.4393
G01 X8.8754 Y16.4515
G01 X8.8797 Y16.5397
G01 X8.8800 Y16.5520
G01 X8.8797 Y16.5643
G01 X8.8754 Y16.6525
G01 X8.8745 Y16.6647
G01 X8.8730 Y16.6769
G01 X8.8600 Y16.7643
G01 X8.8579 Y16.7764
G01 X8.8552 Y16.7883
G01 X8.8338 Y16.8740
G01 X8.8305 Y16.8858
G01 X8.8266 Y16.8975
G01 X8.7969 Y16.9806
G01 X8.7925 Y16.9921
G01 X8.7875 Y17.0033
G01 X8.7497 Y17.0831
G01 X8.7442 Y17.0941
G01 X8.7382 Y17.1048
G01 X8.6928 Y17.1805
G01 X8.6862 Y17.1909
G01 X8.6791 Y17.2009
G01 X8.6265 Y17.2719
G01 X8.6190 Y17.2816
G01 X8.6109 Y17.2908
G01 X8.5516 Y17.3563
G01 X8.5432 Y17.3652
G01 X8.5343 Y17.3736
G01 X8.4688 Y17.4329
G01 X8.4596 Y17.4410
G01 X8.4499 Y17.4485
G01 X8.3789 Y17.5011
G01 X8.3689 Y17.5082
G01 X8.3585 Y17.5148
G01 X8.2828 Y17.5602
G01 X8.2667 Y17.5690
G01 X8.1813 Y17.6095
G01 X8.1701 Y17.6145
G01 X8.1586 Y17.6189
G01 X8.0755 Y17.6486
G01 X8.0638 Y17.6525
G01 X8.0520 Y17.6558
G01 X7.9663 Y17.6772
G01 X7.9544 Y17.6799
G01 X7.9423 Y17.6820
G01 X7.8549 Y17.6950
G01 X7.8427 Y17.6965
G01 X7.8305 Y17.6974
G01 X7.7423 Y17.7017
G01 X7.7300 Y17.7020
G01 X7.7177 Y17.7017
G01 X7.6295 Y17.6974
G01 X7.6173 Y17.6965
G01 X7.6051 Y17.6950
G01 X7.5177 Y17.6820
G01 X7.5056 Y17.6799
G01 X7.4937 Y17.6772
G01 X7.4080 Y17.6558
G01 X7.3962 Y17.6525
G01 X7.3845 Y17.6486
G01 X7.3014 Y17.6189
G01 X7.2899 Y17.6145
G01 X7.2787 Y17.6095
G01 X7.1989 Y17.5717
G01 X7.1879 Y17.5662
G01 X7.1772 Y17.5602
G01 X7.1015 Y17.5148
G01 X7.0911 Y17.5082
G01 X7.0811 Y17.5011
G01 X7.0101 Y17.4485
G01 X7.0004 Y17.4410
G01 X6.9912 Y17.4329
G01 X6.9257 Y17.3736
G01 X6.9168 Y17.3652
G01 X6.9084 Y17.3563
G01 X6.8491 Y17.2908
G01 X6.8410 Y17.2816
G01 X6.8335 Y17.2719
G01 X6.7809 Y17.2009
G01 X6.7738 Y17.1909
G01 X6.7672 Y17.1805
G01 X6.7218 Y17.1048
G01 X6.7130 Y17.0887
G01 X6.6725 Y17.0033
G01 X6.6675 Y16.9921
G01 X6.6631 Y16.9806
G01 X6.6334 Y16.8975
G01 X6.6295 Y16.8858
G01 X6.6262 Y16.8740
G01 X6.6048 Y16.7883
G01 X6.6021 Y16.7764
G01 X6.6000 Y16.7643
G01 X6.5870 Y16.6769
G01 X6.5855 Y16.6647
G01 X6.5846 Y16.6525
G01 X6.5803 Y16.5643
G01 X6.5800 Y16.5520
G01 X6.5803 Y16.5397
G01 X6.5846 Y16.4515
G01 X6.5855 Y16.4393
G01 X6.5870 Y16.4271
G01 X6.6000 Y16.3397
G01 X6.6021 Y16.3276
G01 X6.6048 Y16.3157
G01 X6.6262 Y16.2300
G01 X6.6314 Y16.2123
G01 X6.6631 Y16.1234
G01 X6.6675 Y16.1119
G01 X6.6725 Y16.1007
G01 X6.7103 Y16.0209
G01 X6.7158 Y16.0099
G01 X6.7218 Y15.9992
G01 X6.7672 Y15.9235
G01 X6.7738 Y15.9131
G01 X6.7809 Y15.9031
G01 X6.8335 Y15.8321
G01 X6.8450 Y15.8178
G01 X6.9084 Y15.7477
G01 X6.9168 Y15.7388
G01 X6.9257 Y15.7304
G01 X6.9912 Y15.6711
G01 X7.0052 Y15.6592
G01 X7.0811 Y15.6029
G01 X7.0962 Y15.5925
G01 X7.1825 Y15.5407
G01 X7.1933 Y15.5350
G01 X7.2299 Y15.5176
G00 Z2.0000
G00 X12.8084 Y16.1589
G01 F30.00
G01 Z-0.5000
G01 F60.00
G01 X12.8084 Y16.1640
G01 X12.6720 Y16.1640
G01 X12.6597 Y16.1643
G01 X12.6475 Y16.1652
G01 X12.6353 Y16.1667
G01 X12.6232 Y16.1688
G01 X12.6113 Y16.1715
G01 X12.5936 Y16.1766
G01 X12.5763 Y16.1830
G01 X12.5596 Y16.1907
G01 X12.5488 Y16.1965
G01 X12.5331 Y16.2061
G01 X12.5182 Y16.2169
G01 X12.5041 Y16.2288
G01 X12.4952 Y16.2372
G01 X12.4827 Y16.2507
G01 X12.4712 Y16.2651
G01 X12.4608 Y16.2803
G01 X12.4545 Y16.2908
G01 X12.4487 Y16.3016
G01 X12.4410 Y16.3183
G01 X12.4346 Y16.3356
G01 X12.4295 Y16.3533
G01 X12.4268 Y16.3652
G01 X12.4247 Y16.3773
G01 X12.4232 Y16.3895
G01 X12.4223 Y16.4017
G01 X12.4220 Y16.4140
G01 X12.4220 Y16.5504
G01 X12.4169 Y16.5504
G01 X12.4169 Y16.4294
G01 X12.4221 Y16.3703
G01 X12.4336 Y16.3275
G01 X12.4525 Y16.2870
G01 X12.4777 Y16.2509
G01 X12.5088 Y16.2197
G01 X12.5450 Y16.1945
G01 X12.5855 Y16.1756
G01 X12.6283 Y16.1641
G01 X12.6874 Y16.1589
G01 X12.8084 Y16.1589
G00 Z2.0000
G00 X14.4566 Y16.1589
G01 F30.00
G01 Z-0.5000
G01 F60.00
G01 X14.5157 Y16.1641
G01 X14.5585 Y16.1756
G01 X14.5990 Y16.1945
G01 X14.6352 Y16.2197
G01 X14.6663 Y16.2508
G01 X14.6915 Y16.2870
G01 X14.7104 Y16.3275
G01 X14.7219 Y16.3703
G01 X14.7271 Y16.4294
G01 X14.7271 Y16.5504
G01 X14.7220 Y16.5504
G01 X14.7220 Y16.4140
G01 X14.7217 Y16.4017
G01 X14.7208 Y16.3895
G01 X14.7193 Y16.3773
G01 X14.7172 Y16.3652
G01 X14.7145 Y16.3533
G01 X14.7094 Y16.3356
G01 X14.7030 Y16.3183
G01 X14.6953 Y16.3016
G01 X14.6895 Y16.2908
G01 X14.6832 Y16.2803
G01 X14.6728 Y16.2651
G01 X14.6613 Y16.2507
G01 X14.6488 Y16.2372
G01 X14.6353 Y16.2247
G01 X14.6258 Y16.2169
G01 X14.6109 Y16.2061
G01 X14.5952 Y16.1965
G01 X14.5789 Y16.1880
G01 X14.5620 Y16.1808
G01 X14.5446 Y16.1748
G01 X14.5268 Y16.1701
G01 X14.5147 Y16.1677
G01 X14.5026 Y16.1659
G01 X14.4904 Y16.1647
G01 X14.4781 Y16.1641
G01 X14.3356 Y16.1640
G01 X14.3356 Y16.1589
G01 X14.4566 Y16.1589
G00 Z2.0000
G00 X7.8805 Y21.7829
G01 F30.00
G01 Z-0.5000
G01 F60.00
G01 X7.9398 Y21.7882
G01 X7.9831 Y21.7998
G01 X8.0231 Y21.8184
G01 X8.0588 Y21.8434
G01 X8.0903 Y21.8749
G01 X8.1157 Y21.9113
G01 X8.1343 Y21.9512
G01 X8.1458 Y21.9942
G01 X8.1511 Y22.0535
G01 X8.1511 Y22.1567
G01 X8.1460 Y22.1567
G01 X8.1459 Y22.0319
G01 X8.1448 Y22.0135
G01 X8.1433 Y22.0013
G01 X8.1412 Y21.9892
G01 X8.1385 Y21.9773
G01 X8.1352 Y21.9654
G01 X8.1314 Y21.9538
G01 X8.1245 Y21.9367
G01 X8.1165 Y21.9202
G01 X8.1104 Y21.9095
G01 X8.1039 Y21.8991
G01 X8.0968 Y21.8891
G01 X8.0892 Y21.8794
G01 X8.0771 Y21.8656
G01 X8.0639 Y21.8528
G01 X8.0498 Y21.8409
G01 X8.0349 Y21.8302
G01 X8.0192 Y21.8205
G01 X8.0029 Y21.8120
G01 X7.9860 Y21.8048
G01 X7.9744 Y21.8006
G01 X7.9567 Y21.7955
G01 X7.9448 Y21.7928
G01 X7.9266 Y21.7899
G01 X7.9144 Y21.7887
G01 X7.9021 Y21.7881
G01 X7.8383 Y21.7880
G01 X7.8383 Y21.7829
G01 X7.8805 Y21.7829
G00 Z2.0000
G00 X6.4686 Y21.7829
G01 F30.00
G01 Z-0.5000
G01 F60.00
G01 X6.4686 Y21.7880
G01 X6.4049 Y21.7881
G01 X6.3926 Y21.7887
G01 X6.3743 Y21.7907
G01 X6.3622 Y21.7928
G01 X6.3503 Y21.7955
G01 X6.3326 Y21.8006
G01 X6.3210 Y21.8048
G01 X6.3097 Y21.8095
G01 X6.2932 Y21.8175
G01 X6.2825 Y21.8236
G01 X6.2671 Y21.8336
G01 X6.2524 Y21.8448
G01 X6.2431 Y21.8528
G01 X6.2299 Y21.8656
G01 X6.2178 Y21.8794
G01 X6.2066 Y21.8941
G01 X6.1998 Y21.9043
G01 X6.1935 Y21.9148
G01 X6.1850 Y21.9311
G01 X6.1778 Y21.9480
G01 X6.1736 Y21.9596
G01 X6.1701 Y21.9713
G01 X6.1671 Y21.9832
G01 X6.1647 Y21.9953
G01 X6.1629 Y22.0074
G01 X6.1617 Y22.0196
G01 X6.1611 Y22.0319
G01 X6.1610 Y22.1567
G01 X6.1558 Y22.1567
G01 X6.1558 Y22.0535
G01 X6.1610 Y21.9942
G01 X6.1725 Y21.9512
G01 X6.1912 Y21.9113
G01 X6.2166 Y21.8749
G01 X6.2477 Y21.8437
G01 X6.2839 Y21.8185
G01 X6.3244 Y21.7997
G01 X6.3672 Y21.7882
G01 X6.4263 Y21.7829
G01 X6.4686 Y21.7829
G00 Z2.0000
G00 X6.1610 Y23.6473
G01 F30.00
G01 Z-0.5000
G01 F60.00
G01 X6.1611 Y23.7722
G01 X6.1622 Y23.7905
G01 X6.1637 Y23.8027
G01 X6.1658 Y23.8148
G01 X6.1701 Y23.8327
G01 X6.1736 Y23.8445
G01 X6.1778 Y23.8560
G01 X6.1850 Y23.8729
G01 X6.1935 Y23.8893
G01 X6.1998 Y23.8998
G01 X6.2102 Y23.9150
G01 X6.2178 Y23.9246
G01 X6.2299 Y23.9384
G01 X6.2386 Y23.9471
G01 X6.2477 Y23.9553
G01 X6.2621 Y23.9668
G01 X6.2773 Y23.9773
G01 X6.2932 Y23.9865
G01 X6.3097 Y23.9946
G01 X6.3210 Y23.9993
G01 X6.3326 Y24.0034
G01 X6.3443 Y24.0070
G01 X6.3622 Y24.0112
G01 X6.3743 Y24.0133
G01 X6.3926 Y24.0154
G01 X6.4049 Y24.0160
G01 X6.4686 Y24.0160
G01 X6.4686 Y24.0211
G01 X6.4263 Y24.0211
G01 X6.3672 Y24.0158
G01 X6.3244 Y24.0043
G01 X6.2839 Y23.9855
G01 X6.2477 Y23.9603
G01 X6.2163 Y23.9288
G01 X6.1912 Y23.8931
G01 X6.1726 Y23.8531
G01 X6.1610 Y23.8098
G01 X6.1558 Y23.7505
G01 X6.1558 Y23.6473
G01 X6.1610 Y23.6473
G00 Z2.0000
G00 X8.1511 Y23.6473
G01 F30.00
G01 Z-0.5000
G01 F60.00
G01 X8.1511 Y23.7505
G01 X8.1458 Y23.8098
G01 X8.1342 Y23.8531
G01 X8.1157 Y23.8931
G01 X8.0906 Y23.9288
G01 X8.0588 Y23.9606
G01 X8.0231 Y23.9857
G01 X7.9831 Y24.0042
G01 X7.9398 Y24.0158
G01 X7.8805 Y24.0211
G01 X7.8383 Y24.0211
G01 X7.8383 Y24.0160
G01 X7.9021 Y24.0160
G01 X7.9144 Y24.0154
G01 X7.9327 Y24.0133
G01 X7.9508 Y24.0100
G01 X7.9627 Y24.0070
G01 X7.9744 Y24.0034
G01 X7.9860 Y23.9993
G01 X7.9973 Y23.9946
G01 X8.0138 Y23.9865
G01 X8.0297 Y23.9773
G01 X8.0399 Y23.9704
G01 X8.0498 Y23.9631
G01 X8.0639 Y23.9513
G01 X8.0771 Y23.9384
G01 X8.0892 Y23.9246
G01 X8.0968 Y23.9150
G01 X8.1039 Y23.9049
G01 X8.1104 Y23.8946
G01 X8.1193 Y23.8784
G01 X8.1245 Y23.8674
G01 X8.1314 Y23.8503
G01 X8.1352 Y23.8386
G01 X8.1399 Y23.8208
G01 X8.1423 Y23.8088
G01 X8.1441 Y23.7966
G01 X8.1453 Y23.7844
G01 X8.1459 Y23.7722
G01 X8.1460 Y23.6473
G01 X8.1511 Y23.6473
G00 Z2.0000
G00 X7.9926 Y25.8469
G01 F30.00
G01 Z-0.5000
G01 F60.00
G01 X7.9926 Y25.8520
G01 X7.9289 Y25.8521
G01 X7.9166 Y25.8527
G01 X7.8983 Y25.8547
G01 X7.8862 Y25.8568
G01 X7.8683 Y25.8611
G01 X7.8566 Y25.8646
G01 X7.8450 Y25.8688
G01 X7.8337 Y25.8735
G01 X7.8172 Y25.8815
G01 X7.8013 Y25.8908
G01 X7.7861 Y25.9012
G01 X7.7717 Y25.9127
G01 X7.7626 Y25.9210
G01 X7.7539 Y25.9296
G01 X7.7418 Y25.9434
G01 X7.7342 Y25.9531
G01 X7.7238 Y25.9683
G01 X7.7145 Y25.9842
G01 X7.7090 Y25.9951
G01 X7.7018 Y26.0120
G01 X7.6976 Y26.0236
G01 X7.6941 Y26.0353
G01 X7.6911 Y26.0472
G01 X7.6887 Y26.0593
G01 X7.6869 Y26.0714
G01 X7.6857 Y26.0836
G01 X7.6851 Y26.0959
G01 X7.6850 Y26.2207
G01 X7.6798 Y26.2207
G01 X7.6798 Y26.1175
G01 X7.6850 Y26.0582
G01 X7.6965 Y26.0152
G01 X7.7152 Y25.9753
G01 X7.7406 Y25.9389
G01 X7.7717 Y25.9077
G01 X7.8079 Y25.8825
G01 X7.8484 Y25.8637
G01 X7.8912 Y25.8522
G01 X7.9503 Y25.8469
G01 X7.9926 Y25.8469
G00 Z2.0000
G00 X7.6850 Y27.7113
G01 F30.00
G01 Z-0.5000
G01 F60.00
G01 X7.6851 Y27.8362
G01 X7.6862 Y27.8545
G01 X7.6877 Y27.8667
G01 X7.6898 Y27.8788
G01 X7.6941 Y27.8967
G01 X7.6976 Y27.9085
G01 X7.7018 Y27.9200
G01 X7.7090 Y27.9369
G01 X7.7175 Y27.9533
G01 X7.7238 Y27.9638
G01 X7.7342 Y27.9790
G01 X7.7418 Y27.9886
G01 X7.7539 Y28.0024
G01 X7.7626 Y28.0111
G01 X7.7717 Y28.0193
G01 X7.7861 Y28.0308
G01 X7.8013 Y28.0413
G01 X7.8172 Y28.0505
G01 X7.8337 Y28.0586
G01 X7.8450 Y28.0633
G01 X7.8566 Y28.0674
G01 X7.8683 Y28.0710
G01 X7.8862 Y28.0752
G01 X7.8983 Y28.0773
G01 X7.9166 Y28.0794
G01 X7.9289 Y28.0800
G01 X7.9926 Y28.0800
G01 X7.9926 Y28.0851
G01 X7.9503 Y28.0851
G01 X7.8912 Y28.0798
G01 X7.8484 Y28.0683
G01 X7.8079 Y28.0495
G01 X7.7717 Y28.0243
G01 X7.7403 Y27.9928
G01 X7.7152 Y27.9571
G01 X7.6966 Y27.9171
G01 X7.6850 Y27.8738
G01 X7.6798 Y27.8145
G01 X7.6798 Y27.7113
G01 X7.6850 Y27.7113
G00 Z2.0000
G00 X5.5282 Y32.2380
G01 F30.00
G01 Z-0.5000
G01 F60.00
G01 X5.5273 Y32.2250
G01 X5.5258 Y32.2128
G01 X5.5224 Y32.1947
G01 X5.5194 Y32.1828
G01 X5.5159 Y32.1711
G01 X5.5095 Y32.1538
G01 X5.5045 Y32.1426
G01 X5.4960 Y32.1263
G01 X5.4897 Y32.1158
G01 X5.4793 Y32.1006
G01 X5.4718 Y32.0909
G01 X5.4596 Y32.0771
G01 X5.4509 Y32.0684
G01 X5.4418 Y32.0602
G01 X5.4274 Y32.0487
G01 X5.4174 Y32.0416
G01 X5.4070 Y32.0351
G01 X5.3909 Y32.0262
G01 X5.3798 Y32.0210
G01 X5.3685 Y32.0163
G01 X5.3569 Y32.0121
G01 X5.3452 Y32.0086
G01 X5.3333 Y32.0056
G01 X5.3212 Y32.0032
G01 X5.3030 Y32.0007
G01 X5.2846 Y31.9996
G01 X5.1667 Y31.9995
G01 X5.1667 Y31.7747
G01 X5.1664 Y31.7627
G01 X5.1655 Y31.7507
G01 X5.1632 Y31.7328
G01 X5.1545 Y31.6878
G01 X5.1518 Y31.6756
G01 X5.1466 Y31.6577
G01 X5.1424 Y31.6459
G01 X5.1377 Y31.6344
G01 X5.1295 Y31.6176
G01 X5.1200 Y31.6015
G01 X5.0914 Y31.5588
G01 X5.0804 Y31.5444
G01 X5.0726 Y31.5354
G01 X5.0643 Y31.5266
G01 X5.0512 Y31.5144
G01 X5.0419 Y31.5067
G01 X5.0274 Y31.4961
G01 X4.9891 Y31.4703
G01 X4.9728 Y31.4607
G01 X4.9559 Y31.4524
G01 X4.9443 Y31.4475
G01 X4.9324 Y31.4433
G01 X4.9143 Y31.4381
G01 X4.9020 Y31.4354
G01 X4.8570 Y31.4267
G01 X4.8391 Y31.4243
G01 X4.8271 Y31.4234
G01 X4.8151 Y31.4231
G01 X4.5594 Y31.4231
G01 X4.5003 Y31.4179
G01 X4.4575 Y31.4064
G01 X4.4170 Y31.3875
G01 X4.3809 Y31.3623
G01 X4.3497 Y31.3312
G01 X4.3245 Y31.2950
G01 X4.3056 Y31.2545
G01 X4.2941 Y31.2117
G01 X4.2889 Y31.1526
G01 X4.2889 Y29.3834
G01 X4.2941 Y29.3243
G01 X4.3056 Y29.2815
G01 X4.3245 Y29.2410
G01 X4.3497 Y29.2048
G01 X4.3808 Y29.1737
G01 X4.4170 Y29.1485
G01 X4.4575 Y29.1296
G01 X4.5003 Y29.1181
G01 X4.5594 Y29.1129
G01 X6.3286 Y29.1129
G01 X6.3877 Y29.1181
G01 X6.4305 Y29.1296
G01 X6.4710 Y29.1485
G01 X6.5072 Y29.1737
G01 X6.5383 Y29.2048
G01 X6.5641 Y29.2418
G01 X6.5814 Y29.2781
G01 X6.5909 Y29.2952
G01 X6.6017 Y29.3114
G01 X6.6315 Y29.3522
G01 X6.6435 Y29.3662
G01 X6.6565 Y29.3792
G01 X6.6705 Y29.3913
G01 X6.6853 Y29.4022
G01 X6.7224 Y29.4265
G01 X6.7381 Y29.4359
G01 X6.7544 Y29.4441
G01 X6.7656 Y29.4489
G01 X6.7770 Y29.4532
G01 X6.7945 Y29.4585
G01 X6.8064 Y29.4614
G01 X6.8561 Y29.4708
G01 X6.8684 Y29.4725
G01 X6.8808 Y29.4736
G01 X6.8995 Y29.4740
G01 X6.9182 Y29.4731
G01 X6.9367 Y29.4708
G01 X6.9804 Y29.4626
G01 X6.9983 Y29.4585
G01 X7.0157 Y29.4532
G01 X7.0328 Y29.4466
G01 X7.0493 Y29.4388
G01 X7.0600 Y29.4329
G01 X7.0704 Y29.4265
G01 X7.1024 Y29.4056
G01 X7.1179 Y29.3947
G01 X7.1325 Y29.3826
G01 X7.1462 Y29.3694
G01 X7.1588 Y29.3552
G01 X7.1666 Y29.3452
G01 X7.2303 Y29.2550
G01 X7.2622 Y29.2233
G01 X7.2989 Y29.1975
G01 X7.3388 Y29.1789
G01 X7.3810 Y29.1676
G01 X7.4401 Y29.1627
G01 X8.6183 Y29.1627
G01 X8.6774 Y29.1676
G01 X8.7196 Y29.1789
G01 X8.7595 Y29.1975
G01 X8.7962 Y29.2233
G01 X8.8277 Y29.2545
G01 X8.8526 Y29.2903
G01 X8.8714 Y29.3307
G01 X8.8829 Y29.3735
G01 X8.8882 Y29.4332
G01 X8.8882 Y31.1033
G01 X8.8829 Y31.1624
G01 X8.8714 Y31.2053
G01 X8.8526 Y31.2457
G01 X8.8277 Y31.2815
G01 X8.7962 Y31.3127
G01 X8.7591 Y31.3388
G01 X8.7263 Y31.3545
G01 X8.7112 Y31.3632
G01 X8.7015 Y31.3695
G01 X8.6607 Y31.3990
G01 X8.6508 Y31.4069
G01 X8.6368 Y31.4197
G01 X8.6280 Y31.4288
G01 X8.6156 Y31.4433
G01 X8.6081 Y31.4534
G01 X8.6010 Y31.4639
G01 X8.5744 Y31.5064
G01 X8.5659 Y31.5226
G01 X8.5587 Y31.5394
G01 X8.5546 Y31.5509
G01 X8.5510 Y31.5625
G01 X8.5467 Y31.5803
G01 X8.5379 Y31.6240
G01 X8.5353 Y31.6426
G01 X8.5344 Y31.6550
G01 X8.5341 Y31.6675
G01 X8.5341 Y31.9901
G01 X8.5348 Y32.0093
G01 X8.5361 Y32.0220
G01 X8.5381 Y32.0347
G01 X8.5475 Y32.0801
G01 X8.5520 Y32.0985
G01 X8.5580 Y32.1166
G01 X8.5653 Y32.1341
G01 X8.5739 Y32.1510
G01 X8.5837 Y32.1672
G01 X8.6056 Y32.2002
G01 X8.6127 Y32.2105
G01 X8.6204 Y32.2203
G01 X8.6328 Y32.2344
G01 X8.8590 Y32.4613
G01 X8.9016 Y32.5126
G01 X8.9052 Y32.5177
G01 X8.9377 Y32.5717
G01 X8.9714 Y32.6498
G01 X8.9726 Y32.6532
G01 X8.9892 Y32.7201
G01 X8.9902 Y32.7258
G01 X8.9964 Y32.7932
G01 X8.9969 Y33.7881
G01 X8.9972 Y33.8010
G01 X8.9982 Y33.8139
G01 X9.0010 Y33.8331
G01 X9.0104 Y33.8781
G01 X9.0133 Y33.8903
G01 X9.0188 Y33.9083
G01 X9.0232 Y33.9201
G01 X9.0282 Y33.9316
G01 X9.0337 Y33.9429
G01 X9.0431 Y33.9592
G01 X9.0718 Y34.0026
G01 X9.0790 Y34.0124
G01 X9.0867 Y34.0219
G01 X9.0991 Y34.0354
G01 X9.1125 Y34.0479
G01 X9.1267 Y34.0595
G01 X9.1697 Y34.0889
G01 X9.1802 Y34.0957
G01 X9.1911 Y34.1019
G01 X9.2022 Y34.1076
G01 X9.2137 Y34.1127
G01 X9.2253 Y34.1172
G01 X9.2372 Y34.1211
G01 X9.2493 Y34.1245
G01 X9.2615 Y34.1272
G01 X9.3120 Y34.1369
G01 X9.3300 Y34.1389
G01 X9.3482 Y34.1395
G01 X9.3663 Y34.1389
G01 X9.3843 Y34.1370
G01 X9.4354 Y34.1273
G01 X9.4477 Y34.1246
G01 X9.4598 Y34.1213
G01 X9.4718 Y34.1173
G01 X9.4835 Y34.1128
G01 X9.4950 Y34.1077
G01 X9.5063 Y34.1020
G01 X9.5172 Y34.0957
G01 X9.5278 Y34.0889
G01 X9.5705 Y34.0597
G01 X9.5844 Y34.0485
G01 X9.5974 Y34.0363
G01 X9.9183 Y33.7154
G01 X9.9307 Y33.7012
G01 X9.9421 Y33.6862
G01 X9.9709 Y33.6427
G01 X9.9773 Y33.6318
G01 X9.9832 Y33.6206
G01 X9.9885 Y33.6091
G01 X9.9932 Y33.5974
G01 X9.9973 Y33.5854
G01 X10.0008 Y33.5732
G01 X10.0037 Y33.5609
G01 X10.0131 Y33.5155
G01 X10.0150 Y33.5029
G01 X10.0163 Y33.4901
G01 X10.0171 Y33.4709
G01 X10.0171 Y33.2396
G01 X10.0224 Y33.1793
G01 X10.0335 Y33.1372
G01 X10.0523 Y33.0972
G01 X10.0779 Y33.0606
G01 X10.1085 Y33.0299
G01 X10.1452 Y33.0043
G01 X10.1856 Y32.9853
G01 X10.2325 Y32.9724
G01 X10.2495 Y32.9663
G01 X10.2660 Y32.9589
G01 X10.3158 Y32.9331
G01 X10.3312 Y32.9239
G01 X10.3410 Y32.9172
G01 X10.3506 Y32.9100
G01 X10.3642 Y32.8984
G01 X10.3728 Y32.8901
G01 X10.3810 Y32.8814
G01 X10.3888 Y32.8724
G01 X10.4231 Y32.8283
G01 X10.4302 Y32.8182
G01 X10.4368 Y32.8078
G01 X10.4456 Y32.7917
G01 X10.4509 Y32.7806
G01 X10.4556 Y32.7692
G01 X10.4597 Y32.7577
G01 X10.4632 Y32.7459
G01 X10.4759 Y32.6908
G01 X10.4792 Y32.6728
G01 X10.4812 Y32.6546
G01 X10.4819 Y32.6363
G01 X10.4819 Y31.6675
G01 X10.4812 Y31.6488
G01 X10.4791 Y31.6302
G01 X10.4693 Y31.5803
G01 X10.4650 Y31.5626
G01 X10.4595 Y31.5451
G01 X10.4526 Y31.5282
G01 X10.4446 Y31.5117
G01 X10.4353 Y31.4959
G01 X10.4115 Y31.4586
G01 X10.4042 Y31.4483
G01 X10.3923 Y31.4335
G01 X10.3792 Y31.4197
G01 X10.3652 Y31.4069
G01 X10.3502 Y31.3952
G01 X10.3145 Y31.3695
G01 X10.2998 Y31.3602
G01 X10.2897 Y31.3545
G01 X10.2569 Y31.3388
G01 X10.2198 Y31.3127
G01 X10.1883 Y31.2815
G01 X10.1634 Y31.2457
G01 X10.1446 Y31.2053
G01 X10.1330 Y31.1624
G01 X10.1278 Y31.1033
G01 X10.1277 Y30.2629
G01 X10.1266 Y30.2447
G01 X10.1252 Y30.2326
G01 X10.1155 Y30.1820
G01 X10.1128 Y30.1702
G01 X10.1079 Y30.1528
G01 X10.1016 Y30.1359
G01 X10.0942 Y30.1194
G01 X10.0886 Y30.1087
G01 X10.0824 Y30.0983
G01 X10.0544 Y30.0555
G01 X10.0431 Y30.0405
G01 X10.0307 Y30.0263
G01 X9.9713 Y29.9664
G01 X9.9290 Y29.9153
G01 X9.9254 Y29.9101
G01 X9.8929 Y29.8561
G01 X9.8591 Y29.7780
G01 X9.8580 Y29.7746
G01 X9.8414 Y29.7077
G01 X9.8404 Y29.7020
G01 X9.8342 Y29.6346
G01 X9.8336 Y28.4252
G01 X9.8326 Y28.4078
G01 X9.8304 Y28.3905
G01 X9.8183 Y28.3325
G01 X9.8134 Y28.3150
G01 X9.8073 Y28.2979
G01 X9.8000 Y28.2813
G01 X9.7914 Y28.2652
G01 X9.7818 Y28.2498
G01 X9.7539 Y28.2108
G01 X9.7466 Y28.2011
G01 X9.7387 Y28.1917
G01 X9.7305 Y28.1827
G01 X9.7218 Y28.1741
G01 X9.7127 Y28.1660
G01 X9.6983 Y28.1546
G01 X9.6883 Y28.1477
G01 X9.6779 Y28.1412
G01 X9.6313 Y28.1140
G01 X9.6204 Y28.1086
G01 X9.6037 Y28.1015
G01 X9.5864 Y28.0956
G01 X9.5747 Y28.0924
G01 X9.5629 Y28.0898
G01 X9.5509 Y28.0877
G01 X9.4975 Y28.0812
G01 X9.4858 Y28.0803
G01 X9.4683 Y28.0800
G01 X9.4509 Y28.0810
G01 X9.4045 Y28.0851
G01 X9.3623 Y28.0851
G01 X9.3623 Y28.0800
G01 X9.4261 Y28.0800
G01 X9.4445 Y28.0788
G01 X9.4627 Y28.0764
G01 X9.4748 Y28.0740
G01 X9.4926 Y28.0693
G01 X9.5042 Y28.0654
G01 X9.5213 Y28.0586
G01 X9.5378 Y28.0505
G01 X9.5485 Y28.0445
G01 X9.5639 Y28.0344
G01 X9.5786 Y28.0233
G01 X9.5924 Y28.0111
G01 X9.6052 Y27.9979
G01 X9.6171 Y27.9838
G01 X9.6278 Y27.9689
G01 X9.6375 Y27.9533
G01 X9.6433 Y27.9424
G01 X9.6509 Y27.9257
G01 X9.6554 Y27.9143
G01 X9.6592 Y27.9026
G01 X9.6625 Y27.8908
G01 X9.6652 Y27.8788
G01 X9.6681 Y27.8606
G01 X9.6697 Y27.8423
G01 X9.6700 Y27.8300
G01 X9.6700 Y27.6547
G01 X9.6968 Y27.6368
G01 X9.7118 Y27.6255
G01 X9.7260 Y27.6130
G01 X9.7391 Y27.5995
G01 X9.7473 Y27.5900
G01 X9.7587 Y27.5750
G01 X9.7841 Y27.5367
G01 X9.7939 Y27.5205
G01 X9.7998 Y27.5093
G01 X9.8075 Y27.4920
G01 X9.8139 Y27.4742
G01 X9.8174 Y27.4620
G01 X9.8203 Y27.4497
G01 X9.8297 Y27.4043
G01 X9.8324 Y27.3853
G01 X9.8336 Y27.3661
G01 X9.8336 Y26.5659
G01 X9.8324 Y26.5467
G01 X9.8297 Y26.5277
G01 X9.8190 Y26.4761
G01 X9.8139 Y26.4578
G01 X9.8098 Y26.4459
G01 X9.8025 Y26.4284
G01 X9.7969 Y26.4170
G01 X9.7908 Y26.4060
G01 X9.7622 Y26.3623
G01 X9.7550 Y26.3520
G01 X9.7473 Y26.3420
G01 X9.7392 Y26.3325
G01 X9.7305 Y26.3234
G01 X9.7214 Y26.3147
G01 X9.7119 Y26.3066
G01 X9.6968 Y26.2952
G01 X9.6700 Y26.2773
G01 X9.6699 Y26.0959
G01 X9.6688 Y26.0775
G01 X9.6673 Y26.0653
G01 X9.6652 Y26.0532
G01 X9.6609 Y26.0353
G01 X9.6574 Y26.0236
G01 X9.6509 Y26.0063
G01 X9.6460 Y25.9951
G01 X9.6375 Y25.9788
G01 X9.6312 Y25.9683
G01 X9.6208 Y25.9531
G01 X9.6093 Y25.9387
G01 X9.6010 Y25.9296
G01 X9.5879 Y25.9168
G01 X9.5738 Y25.9049
G01 X9.5589 Y25.8942
G01 X9.5432 Y25.8845
G01 X9.5269 Y25.8760
G01 X9.5100 Y25.8688
G01 X9.4984 Y25.8646
G01 X9.4807 Y25.8595
G01 X9.4688 Y25.8568
G01 X9.4506 Y25.8539
G01 X9.4384 Y25.8527
G01 X9.4261 Y25.8521
G01 X9.3623 Y25.8520
G01 X9.3623 Y25.8469
G01 X9.4045 Y25.8469
G01 X9.4567 Y25.8515
G01 X9.4742 Y25.8520
G01 X9.4858 Y25.8517
G01 X9.4974 Y25.8508
G01 X9.5449 Y25.8451
G01 X9.5569 Y25.8433
G01 X9.5688 Y25.8410
G01 X9.5864 Y25.8364
G01 X9.5979 Y25.8326
G01 X9.6093 Y25.8283
G01 X9.6204 Y25.8235
G01 X9.6313 Y25.8181
G01 X9.6779 Y25.7908
G01 X9.6933 Y25.7809
G01 X9.7032 Y25.7737
G01 X9.7127 Y25.7660
G01 X9.7218 Y25.7579
G01 X9.7347 Y25.7449
G01 X9.7427 Y25.7357
G01 X9.7503 Y25.7261
G01 X9.7783 Y25.6871
G01 X9.7883 Y25.6720
G01 X9.7972 Y25.6561
G01 X9.8025 Y25.6452
G01 X9.8095 Y25.6284
G01 X9.8134 Y25.6170
G01 X9.8183 Y25.5995
G01 X9.8294 Y25.5472
G01 X9.8313 Y25.5357
G01 X9.8326 Y25.5242
G01 X9.8336 Y25.5067
G01 X9.8337 Y24.3610
G01 X9.8330 Y24.3425
G01 X9.8318 Y24.3302
G01 X9.8300 Y24.3179
G01 X9.8275 Y24.3058
G01 X9.8149 Y24.2515
G01 X9.8115 Y24.2400
G01 X9.8074 Y24.2287
G01 X9.8028 Y24.2176
G01 X9.7977 Y24.2067
G01 X9.7921 Y24.1961
G01 X9.7860 Y24.1857
G01 X9.7794 Y24.1757
G01 X9.7723 Y24.1660
G01 X9.7377 Y24.1215
G01 X9.7297 Y24.1125
G01 X9.7168 Y24.0996
G01 X9.7077 Y24.0916
G01 X9.6982 Y24.0841
G01 X9.6884 Y24.0770
G01 X9.6782 Y24.0704
G01 X9.6624 Y24.0614
G01 X9.6125 Y24.0358
G01 X9.5959 Y24.0289
G01 X9.5788 Y24.0232
G01 X9.5090 Y24.0043
G01 X9.4689 Y23.9857
G01 X9.4332 Y23.9606
G01 X9.4014 Y23.9288
G01 X9.3764 Y23.8931
G01 X9.3578 Y23.8531
G01 X9.3462 Y23.8098
G01 X9.3409 Y23.7505
G01 X9.3409 Y22.0535
G01 X9.3462 Y21.9942
G01 X9.3577 Y21.9512
G01 X9.3764 Y21.9113
G01 X9.4017 Y21.8749
G01 X9.4332 Y21.8434
G01 X9.4689 Y21.8184
G01 X9.5105 Y21.7990
G01 X9.5314 Y21.7918
G01 X9.5490 Y21.7841
G01 X9.5938 Y21.7609
G01 X9.6096 Y21.7519
G01 X9.6198 Y21.7453
G01 X9.6296 Y21.7382
G01 X9.6437 Y21.7267
G01 X9.6526 Y21.7185
G01 X9.6611 Y21.7098
G01 X9.6730 Y21.6961
G01 X9.7037 Y21.6563
G01 X9.7142 Y21.6416
G01 X9.7205 Y21.6314
G01 X9.7264 Y21.6210
G01 X9.7318 Y21.6102
G01 X9.7366 Y21.5992
G01 X9.7429 Y21.5823
G01 X9.7464 Y21.5708
G01 X9.7493 Y21.5591
G01 X9.7602 Y21.5104
G01 X9.7624 Y21.4983
G01 X9.7644 Y21.4798
G01 X9.7651 Y21.4613
G01 X9.7651 Y17.7890
G01 X9.7645 Y17.7719
G01 X9.7628 Y17.7548
G01 X9.7558 Y17.7117
G01 X9.7533 Y17.6997
G01 X9.7501 Y17.6879
G01 X9.7444 Y17.6705
G01 X9.7374 Y17.6535
G01 X9.7145 Y17.6089
G01 X9.7086 Y17.5986
G01 X9.7022 Y17.5887
G01 X9.6953 Y17.5790
G01 X9.6841 Y17.5652
G01 X9.6762 Y17.5565
G01 X9.6497 Y17.5299
G01 X9.6352 Y17.5165
G01 X9.6197 Y17.5043
G01 X9.5389 Y17.4457
G01 X9.4422 Y17.3569
G01 X9.3558 Y17.2571
G01 X9.2902 Y17.1612
G01 X9.2831 Y17.1513
G01 X9.2755 Y17.1418
G01 X9.2674 Y17.1327
G01 X9.2590 Y17.1239
G01 X9.2222 Y17.0882
G01 X9.2081 Y17.0766
G01 X9.1983 Y17.0694
G01 X9.1882 Y17.0628
G01 X9.1724 Y17.0537
G01 X9.1615 Y17.0483
G01 X9.1504 Y17.0434
G01 X9.1143 Y17.0287
G01 X9.0973 Y17.0225
G01 X9.0798 Y17.0175
G01 X9.0680 Y17.0148
G01 X9.0560 Y17.0128
G01 X9.0440 Y17.0113
G01 X9.0259 Y17.0102
G01 X8.9802 Y17.0102
G01 X8.9620 Y17.0108
G01 X8.9500 Y17.0120
G01 X8.9380 Y17.0137
G01 X8.9261 Y17.0161
G01 X8.9143 Y17.0190
G01 X8.8970 Y17.0244
G01 X8.8496 Y17.0434
G01 X8.8330 Y17.0509
G01 X8.8223 Y17.0566
G01 X8.8118 Y17.0628
G01 X8.7967 Y17.0730
G01 X8.7871 Y17.0804
G01 X8.7734 Y17.0923
G01 X8.7410 Y17.1239
G01 X8.7326 Y17.1327
G01 X8.7245 Y17.1418
G01 X8.7169 Y17.1513
G01 X8.7098 Y17.1612
G01 X8.6442 Y17.2571
G01 X8.5578 Y17.3569
G01 X8.4610 Y17.4458
G01 X8.3542 Y17.5234
G01 X8.2394 Y17.5881
G01 X8.1178 Y17.6395
G01 X7.9912 Y17.6767
G01 X7.8614 Y17.6992
G01 X7.7300 Y17.7067
G01 X7.5986 Y17.6992
G01 X7.4688 Y17.6767
G01 X7.3422 Y17.6395
G01 X7.2206 Y17.5881
G01 X7.1058 Y17.5234
G01 X6.9991 Y17.4459
G01 X6.9082 Y17.3622
G01 X6.8992 Y17.3543
G01 X6.8899 Y17.3469
G01 X6.8803 Y17.3400
G01 X6.8703 Y17.3335
G01 X6.8243 Y17.3066
G01 X6.8078 Y17.2982
G01 X6.7907 Y17.2911
G01 X6.7732 Y17.2853
G01 X6.7552 Y17.2808
G01 X6.7370 Y17.2776
G01 X6.6897 Y17.2713
G01 X6.6773 Y17.2702
G01 X6.6587 Y17.2698
G01 X6.6463 Y17.2702
G01 X6.6340 Y17.2713
G01 X6.6156 Y17.2741
G01 X6.6034 Y17.2767
G01 X6.5915 Y17.2800
G01 X6.5461 Y17.2934
G01 X6.5346 Y17.2974
G01 X6.5234 Y17.3019
G01 X6.5124 Y17.3070
G01 X6.4965 Y17.3156
G01 X6.4862 Y17.3219
G01 X6.4762 Y17.3287
G01 X6.4619 Y17.3399
G01 X6.4210 Y17.3746
G01 X6.4119 Y17.3835
G01 X6.4034 Y17.3927
G01 X6.3914 Y17.4074
G01 X6.3806 Y17.4229
G01 X6.3710 Y17.4392
G01 X6.3493 Y17.4819
G01 X6.3438 Y17.4934
G01 X6.3389 Y17.5052
G01 X6.3346 Y17.5172
G01 X6.3285 Y17.5386
G01 X6.3097 Y17.5788
G01 X6.2843 Y17.6152
G01 X6.2532 Y17.6463
G01 X6.2170 Y17.6715
G01 X6.1765 Y17.6904
G01 X6.1337 Y17.7019
G01 X6.0746 Y17.7071
G01 X5.9536 Y17.7071
G01 X5.9536 Y17.7020
G01 X6.0900 Y17.7020
G01 X6.1023 Y17.7017
G01 X6.1145 Y17.7008
G01 X6.1267 Y17.6993
G01 X6.1388 Y17.6972
G01 X6.1507 Y17.6945
G01 X6.1684 Y17.6894
G01 X6.1800 Y17.6852
G01 X6.1969 Y17.6780
G01 X6.2132 Y17.6695
G01 X6.2289 Y17.6599
G01 X6.2438 Y17.6491
G01 X6.2579 Y17.6372
G01 X6.2711 Y17.6244
G01 X6.2833 Y17.6106
G01 X6.2944 Y17.5960
G01 X6.3012 Y17.5857
G01 X6.3105 Y17.5698
G01 X6.3186 Y17.5533
G01 X6.3232 Y17.5420
G01 X6.3292 Y17.5246
G01 X6.3339 Y17.5068
G01 X6.3363 Y17.4947
G01 X6.3381 Y17.4826
G01 X6.3393 Y17.4704
G01 X6.3399 Y17.4581
G01 X6.3400 Y17.3093
G01 X6.3698 Y17.3038
G01 X6.3818 Y17.3010
G01 X6.3937 Y17.2976
G01 X6.4055 Y17.2937
G01 X6.4170 Y17.2891
G01 X6.4338 Y17.2812
G01 X6.4500 Y17.2721
G01 X6.4867 Y17.2495
G01 X6.4969 Y17.2425
G01 X6.5116 Y17.2311
G01 X6.5209 Y17.2229
G01 X6.5297 Y17.2143
G01 X6.5381 Y17.2052
G01 X6.5499 Y17.1908
G01 X6.5797 Y17.1511
G01 X6.5865 Y17.1405
G01 X6.5928 Y17.1295
G01 X6.5986 Y17.1183
G01 X6.6038 Y17.1067
G01 X6.6083 Y17.0950
G01 X6.6123 Y17.0830
G01 X6.6230 Y17.0479
G01 X6.6276 Y17.0303
G01 X6.6300 Y17.0185
G01 X6.6318 Y17.0065
G01 X6.6331 Y16.9944
G01 X6.6338 Y16.9763
G01 X6.6332 Y16.9581
G01 X6.6307 Y16.9210
G01 X6.6296 Y16.9094
G01 X6.6280 Y16.8978
G01 X6.6259 Y16.8864
G01 X6.6232 Y16.8750
G01 X6.5988 Y16.7814
G01 X6.5799 Y16.6509
G01 X6.5762 Y16.5190
G01 X6.5875 Y16.3877
G01 X6.6134 Y16.2584
G01 X6.6201 Y16.2366
G01 X6.6244 Y16.2177
G01 X6.6315 Y16.1674
G01 X6.6329 Y16.1553
G01 X6.6336 Y16.1432
G01 X6.6336 Y16.1250
G01 X6.6329 Y16.1128
G01 X6.6307 Y16.0947
G01 X6.6285 Y16.0828
G01 X6.6145 Y16.0279
G01 X6.6108 Y16.0162
G01 X6.6042 Y15.9989
G01 X6.5990 Y15.9876
G01 X6.5934 Y15.9767
G01 X6.5839 Y15.9608
G01 X6.5769 Y15.9506
G01 X6.5508 Y15.9145
G01 X6.5387 Y15.8998
G01 X6.5301 Y15.8906
G01 X6.5162 Y15.8775
G01 X6.5065 Y15.8695
G01 X6.4911 Y15.8583
G01 X6.4484 Y15.8312
G01 X6.4375 Y15.8249
G01 X6.4204 Y15.8167
G01 X6.4028 Y15.8097
G01 X6.3847 Y15.8041
G01 X6.3724 Y15.8011
G01 X6.3400 Y15.7949
G01 X6.3399 Y15.6459
G01 X6.3393 Y15.6336
G01 X6.3381 Y15.6214
G01 X6.3352 Y15.6032
G01 X6.3325 Y15.5913
G01 X6.3274 Y15.5736
G01 X6.3210 Y15.5563
G01 X6.3133 Y15.5396
G01 X6.3044 Y15.5235
G01 X6.2944 Y15.5080
G01 X6.2833 Y15.4934
G01 X6.2711 Y15.4796
G01 X6.2579 Y15.4668
G01 X6.2486 Y15.4587
G01 X6.2340 Y15.4476
G01 X6.2237 Y15.4408
G01 X6.2078 Y15.4315
G01 X6.1969 Y15.4260
G01 X6.1800 Y15.4188
G01 X6.1626 Y15.4128
G01 X6.1448 Y15.4081
G01 X6.1327 Y15.4057
G01 X6.1206 Y15.4039
G01 X6.1084 Y15.4027
G01 X6.0961 Y15.4021
G01 X5.9536 Y15.4020
G01 X5.9536 Y15.3969
G01 X6.0746 Y15.3969
G01 X6.1337 Y15.4021
G01 X6.1765 Y15.4136
G01 X6.2170 Y15.4325
G01 X6.2532 Y15.4577
G01 X6.2843 Y15.4888
G01 X6.3095 Y15.5250
G01 X6.3282 Y15.5652
G01 X6.3341 Y15.5862
G01 X6.3381 Y15.5977
G01 X6.3426 Y15.6090
G01 X6.3505 Y15.6254
G01 X6.3732 Y15.6689
G01 X6.3793 Y15.6795
G01 X6.3860 Y15.6898
G01 X6.3970 Y15.7045
G01 X6.4090 Y15.7184
G01 X6.4176 Y15.7272
G01 X6.4265 Y15.7355
G01 X6.4689 Y15.7698
G01 X6.4839 Y15.7809
G01 X6.4943 Y15.7876
G01 X6.5050 Y15.7938
G01 X6.5160 Y15.7995
G01 X6.5329 Y15.8070
G01 X6.5446 Y15.8113
G01 X6.5564 Y15.8150
G01 X6.6035 Y15.8273
G01 X6.6156 Y15.8301
G01 X6.6278 Y15.8323
G01 X6.6464 Y15.8345
G01 X6.6588 Y15.8352
G01 X6.6774 Y15.8350
G01 X6.6960 Y15.8335
G01 X6.7083 Y15.8317
G01 X6.7559 Y15.8235
G01 X6.7736 Y15.8194
G01 X6.7853 Y15.8159
G01 X6.8023 Y15.8096
G01 X6.8189 Y15.8022
G01 X6.8349 Y15.7935
G01 X6.8808 Y15.7637
G01 X6.8907 Y15.7568
G01 X6.9003 Y15.7495
G01 X6.9095 Y15.7417
G01 X6.9184 Y15.7334
G01 X6.9494 Y15.7016
G01 X7.0515 Y15.6179
G01 X7.0749 Y15.6024
G01 X7.0854 Y15.5944
G01 X7.0954 Y15.5859
G01 X7.1292 Y15.5551
G01 X7.1377 Y15.5463
G01 X7.1495 Y15.5324
G01 X7.1568 Y15.5226
G01 X7.1669 Y15.5073
G01 X7.1893 Y15.4668
G01 X7.1977 Y15.4497
G01 X7.2026 Y15.4380
G01 X7.2069 Y15.4261
G01 X7.2105 Y15.4140
G01 X7.2149 Y15.3955
G01 X7.2225 Y15.3503
G01 X7.2245 Y15.3325
G01 X7.2251 Y15.3145
G01 X7.2256 Y8.1551
G01 X7.2318 Y8.0878
G01 X7.2328 Y8.0821
G01 X7.2494 Y8.0152
G01 X7.2506 Y8.0118
G01 X7.2843 Y7.9337
G01 X7.3168 Y7.8797
G01 X7.3202 Y7.8749
G01 X7.3623 Y7.8244
G01 X7.5202 Y7.6655
G01 X7.5326 Y7.6521
G01 X7.5440 Y7.6378
G01 X7.5746 Y7.5939
G01 X7.5837 Y7.5782
G01 X7.5892 Y7.5673
G01 X7.5964 Y7.5506
G01 X7.6023 Y7.5334
G01 X7.6156 Y7.4819
G01 X7.6190 Y7.4643
G01 X7.6205 Y7.4524
G01 X7.6215 Y7.4405
G01 X7.6218 Y7.4286
G01 X7.6214 Y7.4106
G01 X7.6173 Y7.3634
G01 X7.6156 Y7.3510
G01 X7.6119 Y7.3327
G01 X7.5771 Y7.2026
G01 X7.5533 Y7.0523
G01 X7.5455 Y6.9000
G01 X7.5533 Y6.7477
G01 X7.5771 Y6.5975
G01 X7.6165 Y6.4507
G01 X7.6712 Y6.3083
G01 X7.7401 Y6.1727
G01 X7.8232 Y6.0449
G01 X7.9191 Y5.9265
G01 X8.0265 Y5.8191
G01 X8.1447 Y5.7234
G01 X8.2727 Y5.6406
G01 X8.4086 Y5.5711
G01 X8.5507 Y5.5165
G01 X8.6975 Y5.4771
G01 X8.8477 Y5.4533
G01 X9.0000 Y5.4455
G01 X9.1523 Y5.4533
G01 X9.3025 Y5.4771
G01 X9.4493 Y5.5165
G01 X9.5914 Y5.5711
G01 X9.7273 Y5.6406
G01 X9.8553 Y5.7234
G01 X9.9735 Y5.8191
G01 X10.0809 Y5.9265
G01 X10.1768 Y6.0449
G01 X10.2599 Y6.1727
G01 X10.3288 Y6.3083
G01 X10.3835 Y6.4507
G01 X10.4229 Y6.5975
G01 X10.4467 Y6.7477
G01 X10.4545 Y6.9000
G01 X10.4467 Y7.0523
G01 X10.4229 Y7.2025
G01 X10.3835 Y7.3494
G01 X10.3288 Y7.4917
G01 X10.2599 Y7.6273
G01 X10.1768 Y7.7551
G01 X10.0809 Y7.8735
G01 X9.9735 Y7.9809
G01 X9.8551 Y8.0768
G01 X9.7273 Y8.1599
G01 X9.5917 Y8.2288
G01 X9.4493 Y8.2835
G01 X9.3025 Y8.3229
G01 X9.1523 Y8.3467
G01 X9.0000 Y8.3545
G01 X8.8477 Y8.3467
G01 X8.6972 Y8.3229
G01 X8.6710 Y8.3160
G01 X8.6523 Y8.3123
G01 X8.6397 Y8.3106
G01 X8.5963 Y8.3069
G01 X8.5837 Y8.3062
G01 X8.5712 Y8.3061
G01 X8.5523 Y8.3072
G01 X8.5398 Y8.3087
G01 X8.5274 Y8.3108
G01 X8.5151 Y8.3136
G01 X8.5030 Y8.3169
G01 X8.4560 Y8.3316
G01 X8.4384 Y8.3387
G01 X8.4215 Y8.3471
G01 X8.4105 Y8.3534
G01 X8.3947 Y8.3638
G01 X8.3553 Y8.3937
G01 X8.3412 Y8.4059
G01 X8.3281 Y8.4190
G01 X8.3199 Y8.4283
G01 X8.3122 Y8.4380
G01 X8.3015 Y8.4532
G01 X8.2789 Y8.4899
G01 X8.2701 Y8.5055
G01 X8.2624 Y8.5217
G01 X8.2559 Y8.5384
G01 X8.2506 Y8.5555
G01 X8.2466 Y8.5729
G01 X8.2375 Y8.6213
G01 X8.2355 Y8.6392
G01 X8.2349 Y8.6572
G01 X8.2349 Y15.3145
G01 X8.2352 Y15.3265
G01 X8.2367 Y15.3444
G01 X8.2451 Y15.3955
G01 X8.2479 Y15.4079
G01 X8.2512 Y15.4201
G01 X8.2552 Y15.4321
G01 X8.2623 Y15.4497
G01 X8.2707 Y15.4668
G01 X8.2931 Y15.5073
G01 X8.2997 Y15.5176
G01 X8.3068 Y15.5275
G01 X8.3143 Y15.5371
G01 X8.3224 Y15.5463
G01 X8.3308 Y15.5551
G01 X8.3397 Y15.5635
G01 X8.3746 Y15.5944
G01 X8.3905 Y15.6062
G01 X8.4085 Y15.6179
G01 X8.5106 Y15.7017
G01 X8.6026 Y15.7961
G01 X8.6832 Y15.9006
G01 X8.7025 Y15.9323
G01 X8.7095 Y15.9426
G01 X8.7169 Y15.9524
G01 X8.7289 Y15.9666
G01 X8.7568 Y15.9970
G01 X8.7696 Y16.0100
G01 X8.7834 Y16.0221
G01 X8.7980 Y16.0331
G01 X8.8081 Y16.0398
G01 X8.8186 Y16.0460
G01 X8.8348 Y16.0544
G01 X8.8785 Y16.0737
G01 X8.8955 Y16.0804
G01 X8.9070 Y16.0842
G01 X8.9188 Y16.0875
G01 X8.9307 Y16.0901
G01 X8.9427 Y16.0922
G01 X8.9609 Y16.0942
G01 X8.9731 Y16.0948
G01 X9.0269 Y16.0948
G01 X9.0391 Y16.0942
G01 X9.0512 Y16.0930
G01 X9.0693 Y16.0901
G01 X9.0812 Y16.0875
G01 X9.0930 Y16.0842
G01 X9.1103 Y16.0783
G01 X9.1215 Y16.0737
G01 X9.1652 Y16.0544
G01 X9.1761 Y16.0489
G01 X9.1867 Y16.0430
G01 X9.1970 Y16.0365
G01 X9.2070 Y16.0295
G01 X9.2213 Y16.0182
G01 X9.2348 Y16.0058
G01 X9.2711 Y15.9666
G01 X9.2793 Y15.9572
G01 X9.2869 Y15.9476
G01 X9.2941 Y15.9375
G01 X9.3168 Y15.9006
G01 X9.3974 Y15.7961
G01 X9.4894 Y15.7017
G01 X9.5913 Y15.6181
G01 X9.7022 Y15.5468
G01 X9.8202 Y15.4889
G01 X9.9449 Y15.4445
G01 X10.0731 Y15.4144
G01 X10.2040 Y15.3994
G01 X10.3360 Y15.3994
G01 X10.4668 Y15.4144
G01 X10.5951 Y15.4445
G01 X10.7198 Y15.4889
G01 X10.8378 Y15.5468
G01 X10.9487 Y15.6181
G01 X11.0506 Y15.7017
G01 X11.1426 Y15.7961
G01 X11.2231 Y15.9005
G01 X11.2910 Y16.0129
G01 X11.3458 Y16.1333
G01 X11.3867 Y16.2584
G01 X11.4125 Y16.3877
G01 X11.4238 Y16.5190
G01 X11.4201 Y16.6509
G01 X11.4012 Y16.7813
G01 X11.3678 Y16.9093
G01 X11.3204 Y17.0316
G01 X11.2586 Y17.1480
G01 X11.1841 Y17.2572
G01 X11.0978 Y17.3569
G01 X11.0010 Y17.4457
G01 X10.9203 Y17.5043
G01 X10.9048 Y17.5165
G01 X10.8903 Y17.5299
G01 X10.8638 Y17.5565
G01 X10.8558 Y17.5652
G01 X10.8483 Y17.5743
G01 X10.8378 Y17.5887
G01 X10.8314 Y17.5986
G01 X10.8255 Y17.6088
G01 X10.8052 Y17.6479
G01 X10.8001 Y17.6591
G01 X10.7956 Y17.6704
G01 X10.7916 Y17.6820
G01 X10.7882 Y17.6937
G01 X10.7842 Y17.7116
G01 X10.7772 Y17.7548
G01 X10.7755 Y17.7719
G01 X10.7749 Y17.7890
G01 X10.7749 Y18.9975
G01 X10.7752 Y19.0105
G01 X10.7770 Y19.0299
G01 X10.7802 Y19.0490
G01 X10.7897 Y19.0938
G01 X10.7948 Y19.1119
G01 X10.8012 Y19.1297
G01 X10.8089 Y19.1469
G01 X10.8179 Y19.1634
G01 X10.8245 Y19.1741
G01 X10.8536 Y19.2174
G01 X10.8653 Y19.2321
G01 X10.8781 Y19.2459
G01 X10.8919 Y19.2587
G01 X10.9066 Y19.2704
G01 X10.9499 Y19.2995
G01 X10.9606 Y19.3061
G01 X10.9771 Y19.3151
G01 X10.9943 Y19.3228
G01 X11.0121 Y19.3292
G01 X11.0241 Y19.3327
G01 X11.0750 Y19.3438
G01 X11.0941 Y19.3470
G01 X11.1070 Y19.3484
G01 X11.1200 Y19.3490
G01 X12.0653 Y19.3491
G01 X12.0781 Y19.3488
G01 X12.0972 Y19.3471
G01 X12.1099 Y19.3451
G01 X12.1553 Y19.3358
G01 X12.1676 Y19.3329
G01 X12.1797 Y19.3294
G01 X12.1976 Y19.3230
G01 X12.2092 Y19.3179
G01 X12.2206 Y19.3124
G01 X12.2370 Y19.3029
G01 X12.2805 Y19.2741
G01 X12.2907 Y19.2667
G01 X12.3004 Y19.2587
G01 X12.3097 Y19.2503
G01 X12.3228 Y19.2368
G01 X12.3310 Y19.2273
G01 X12.3424 Y19.2123
G01 X12.3677 Y19.1741
G01 X12.3742 Y19.1638
G01 X12.3802 Y19.1531
G01 X12.3856 Y19.1423
G01 X12.3927 Y19.1254
G01 X12.3986 Y19.1082
G01 X12.4033 Y19.0905
G01 X12.4142 Y19.0339
G01 X12.4157 Y19.0218
G01 X12.4166 Y19.0097
G01 X12.4169 Y18.9694
G01 X12.4221 Y18.9103
G01 X12.4336 Y18.8675
G01 X12.4523 Y18.8273
G01 X12.4813 Y18.7859
G01 X12.4883 Y18.7753
G01 X12.4948 Y18.7644
G01 X12.5035 Y18.7474
G01 X12.5246 Y18.6985
G01 X12.5308 Y18.6816
G01 X12.5342 Y18.6701
G01 X12.5370 Y18.6584
G01 X12.5403 Y18.6407
G01 X12.5417 Y18.6288
G01 X12.5426 Y18.6168
G01 X12.5428 Y18.6048
G01 X12.5428 Y18.5637
G01 X12.5421 Y18.5448
G01 X12.5409 Y18.5323
G01 X12.5378 Y18.5136
G01 X12.5350 Y18.5014
G01 X12.5315 Y18.4892
G01 X12.5275 Y18.4773
G01 X12.5228 Y18.4656
G01 X12.5066 Y18.4275
G01 X12.4982 Y18.4099
G01 X12.4919 Y18.3985
G01 X12.4850 Y18.3875
G01 X12.4522 Y18.3405
G01 X12.4336 Y18.3009
G01 X12.4221 Y18.2579
G01 X12.4169 Y18.1986
G01 X12.4169 Y18.0776
G01 X12.4220 Y18.0776
G01 X12.4220 Y18.2140
G01 X12.4227 Y18.2324
G01 X12.4247 Y18.2507
G01 X12.4268 Y18.2628
G01 X12.4295 Y18.2747
G01 X12.4328 Y18.2866
G01 X12.4388 Y18.3040
G01 X12.4460 Y18.3209
G01 X12.4545 Y18.3372
G01 X12.4641 Y18.3529
G01 X12.4749 Y18.3678
G01 X12.4868 Y18.3819
G01 X12.4996 Y18.3951
G01 X12.5134 Y18.4073
G01 X12.5231 Y18.4148
G01 X12.5383 Y18.4252
G01 X12.5542 Y18.4345
G01 X12.5707 Y18.4426
G01 X12.5878 Y18.4494
G01 X12.5994 Y18.4532
G01 X12.6113 Y18.4565
G01 X12.6293 Y18.4603
G01 X12.6475 Y18.4628
G01 X12.6659 Y18.4639
G01 X12.8284 Y18.4640
G01 X12.8328 Y18.4765
G01 X12.8376 Y18.4881
G01 X12.8430 Y18.4994
G01 X12.8490 Y18.5105
G01 X12.8590 Y18.5265
G01 X12.8848 Y18.5646
G01 X12.8922 Y18.5743
G01 X12.9000 Y18.5837
G01 X12.9125 Y18.5971
G01 X12.9214 Y18.6055
G01 X12.9307 Y18.6134
G01 X12.9454 Y18.6245
G01 X12.9834 Y18.6497
G01 X12.9990 Y18.6593
G01 X13.0098 Y18.6650
G01 X13.0208 Y18.6701
G01 X13.0378 Y18.6769
G01 X13.0552 Y18.6823
G01 X13.0670 Y18.6853
G01 X13.1176 Y18.6953
G01 X13.1296 Y18.6970
G01 X13.1418 Y18.6982
G01 X13.1600 Y18.6989
G01 X13.9901 Y18.6988
G01 X14.0022 Y18.6982
G01 X14.0204 Y18.6962
G01 X14.0710 Y18.6865
G01 X14.0829 Y18.6839
G01 X14.0946 Y18.6807
G01 X14.1119 Y18.6748
G01 X14.1287 Y18.6676
G01 X14.1450 Y18.6593
G01 X14.1606 Y18.6497
G01 X14.1936 Y18.6279
G01 X14.2036 Y18.6209
G01 X14.2180 Y18.6095
G01 X14.2271 Y18.6014
G01 X14.2358 Y18.5928
G01 X14.2480 Y18.5791
G01 X14.2592 Y18.5646
G01 X14.2850 Y18.5265
G01 X14.2918 Y18.5159
G01 X14.2980 Y18.5050
G01 X14.3063 Y18.4881
G01 X14.3112 Y18.4765
G01 X14.3156 Y18.4640
G01 X14.4781 Y18.4639
G01 X14.4904 Y18.4633
G01 X14.5026 Y18.4621
G01 X14.5208 Y18.4592
G01 X14.5387 Y18.4549
G01 X14.5504 Y18.4514
G01 X14.5677 Y18.4450
G01 X14.5844 Y18.4373
G01 X14.6005 Y18.4284
G01 X14.6160 Y18.4184
G01 X14.6306 Y18.4073
G01 X14.6444 Y18.3951
G01 X14.6531 Y18.3864
G01 X14.6653 Y18.3726
G01 X14.6764 Y18.3580
G01 X14.6864 Y18.3425
G01 X14.6953 Y18.3264
G01 X14.7030 Y18.3097
G01 X14.7094 Y18.2924
G01 X14.7145 Y18.2747
G01 X14.7172 Y18.2628
G01 X14.7193 Y18.2507
G01 X14.7208 Y18.2385
G01 X14.7217 Y18.2263
G01 X14.7220 Y18.2140
G01 X14.7220 Y18.0776
G01 X14.7271 Y18.0776
G01 X14.7271 Y18.1986
G01 X14.7219 Y18.2579
G01 X14.7104 Y18.3009
G01 X14.6918 Y18.3405
G01 X14.6590 Y18.3875
G01 X14.6489 Y18.4041
G01 X14.6401 Y18.4215
G01 X14.6188 Y18.4714
G01 X14.6144 Y18.4832
G01 X14.6107 Y18.4952
G01 X14.6075 Y18.5074
G01 X14.6050 Y18.5198
G01 X14.6031 Y18.5323
G01 X14.6019 Y18.5448
G01 X14.6011 Y18.5637
G01 X14.6012 Y18.6108
G01 X14.6023 Y18.6288
G01 X14.6037 Y18.6407
G01 X14.6057 Y18.6526
G01 X14.6083 Y18.6643
G01 X14.6132 Y18.6816
G01 X14.6172 Y18.6930
G01 X14.6217 Y18.7041
G01 X14.6379 Y18.7417
G01 X14.6462 Y18.7588
G01 X14.6523 Y18.7699
G01 X14.6591 Y18.7806
G01 X14.6917 Y18.8273
G01 X14.7104 Y18.8675
G01 X14.7219 Y18.9103
G01 X14.7271 Y18.9694
G01 X14.7271 Y20.7386
G01 X14.7219 Y20.7979
G01 X14.7104 Y20.8409
G01 X14.6918 Y20.8805
G01 X14.6590 Y20.9275
G01 X14.6489 Y20.9441
G01 X14.6401 Y20.9615
G01 X14.6212 Y21.0055
G01 X14.6166 Y21.0173
G01 X14.6125 Y21.0292
G01 X14.6090 Y21.0413
G01 X14.6062 Y21.0536
G01 X14.6040 Y21.0660
G01 X14.6024 Y21.0785
G01 X14.6015 Y21.0911
G01 X14.6011 Y21.1037
G01 X14.6012 Y21.1508
G01 X14.6023 Y21.1688
G01 X14.6037 Y21.1807
G01 X14.6070 Y21.1984
G01 X14.6098 Y21.2101
G01 X14.6132 Y21.2216
G01 X14.6172 Y21.2330
G01 X14.6217 Y21.2441
G01 X14.6379 Y21.2817
G01 X14.6462 Y21.2988
G01 X14.6523 Y21.3099
G01 X14.6591 Y21.3206
G01 X14.6917 Y21.3673
G01 X14.7104 Y21.4075
G01 X14.7219 Y21.4503
G01 X14.7271 Y21.5094
G01 X14.7271 Y23.2786
G01 X14.7219 Y23.3379
G01 X14.7104 Y23.3809
G01 X14.6917 Y23.4208
G01 X14.6663 Y23.4572
G01 X14.6351 Y23.4883
G01 X14.5990 Y23.5135
G01 X14.5585 Y23.5324
G01 X14.5157 Y23.5439
G01 X14.4566 Y23.5491
G01 X14.4163 Y23.5494
G01 X14.4042 Y23.5503
G01 X14.3921 Y23.5518
G01 X14.3415 Y23.5615
G01 X14.3232 Y23.5658
G01 X14.3113 Y23.5694
G01 X14.2995 Y23.5737
G01 X14.2823 Y23.5811
G01 X14.2657 Y23.5898
G01 X14.2550 Y23.5963
G01 X14.2118 Y23.6255
G01 X14.1975 Y23.6365
G01 X14.1885 Y23.6443
G01 X14.1798 Y23.6526
G01 X14.1675 Y23.6658
G01 X14.1599 Y23.6751
G01 X14.1528 Y23.6847
G01 X14.1242 Y23.7272
G01 X14.1150 Y23.7429
G01 X14.1095 Y23.7536
G01 X14.1023 Y23.7703
G01 X14.0982 Y23.7816
G01 X14.0946 Y23.7931
G01 X14.0915 Y23.8048
G01 X14.0821 Y23.8498
G01 X14.0798 Y23.8624
G01 X14.0782 Y23.8751
G01 X14.0770 Y23.8942
G01 X14.0764 Y25.2714
G01 X14.0702 Y25.3387
G01 X14.0692 Y25.3445
G01 X14.0526 Y25.4113
G01 X14.0514 Y25.4148
G01 X14.0177 Y25.4929
G01 X13.9852 Y25.5468
G01 X13.9816 Y25.5520
G01 X13.9391 Y25.6032
G01 X12.9629 Y26.5800
G01 X12.9501 Y26.5938
G01 X12.9422 Y26.6035
G01 X12.9347 Y26.6136
G01 X12.9094 Y26.6518
G01 X12.9029 Y26.6621
G01 X12.8941 Y26.6781
G01 X12.8866 Y26.6947
G01 X12.8803 Y26.7119
G01 X12.8752 Y26.7294
G01 X12.8726 Y26.7413
G01 X12.8629 Y26.7919
G01 X12.8609 Y26.8101
G01 X12.8602 Y26.8283
G01 X12.8603 Y27.1098
G01 X12.8609 Y27.1219
G01 X12.8629 Y27.1401
G01 X12.8726 Y27.1907
G01 X12.8752 Y27.2026
G01 X12.8784 Y27.2143
G01 X12.8822 Y27.2259
G01 X12.8866 Y27.2373
G01 X12.8941 Y27.2539
G01 X12.8998 Y27.2647
G01 X12.9061 Y27.2751
G01 X12.9347 Y27.3184
G01 X12.9461 Y27.3335
G01 X12.9543 Y27.3430
G01 X12.9629 Y27.3521
G01 X15.4631 Y29.8528
G01 X15.5056 Y29.9040
G01 X15.5092 Y29.9091
G01 X15.5417 Y29.9631
G01 X15.5754 Y30.0412
G01 X15.5766 Y30.0447
G01 X15.5932 Y30.1115
G01 X15.5942 Y30.1173
G01 X15.6004 Y30.1845
G01 X15.6004 Y47.0469
G01 X15.5942 Y47.1142
G01 X15.5932 Y47.1199
G01 X15.5766 Y47.1868
G01 X15.5754 Y47.1902
G01 X15.5417 Y47.2683
G01 X15.5091 Y47.3223
G01 X15.5056 Y47.3274
G01 X15.4631 Y47.3786
G01 X14.6901 Y48.1522
G01 X14.6773 Y48.1660
G01 X14.6694 Y48.1757
G01 X14.6619 Y48.1858
G01 X14.6366 Y48.2240
G01 X14.6267 Y48.2401
G01 X14.6182 Y48.2569
G01 X14.6132 Y48.2684
G01 X14.6088 Y48.2802
G01 X14.6050 Y48.2922
G01 X14.6018 Y48.3044
G01 X14.5923 Y48.3491
G01 X14.5899 Y48.3618
G01 X14.5877 Y48.3811
G01 X14.5870 Y48.3941
G01 X14.5869 Y48.4084
G01 X14.5816 Y48.4687
G01 X14.5705 Y48.5108
G01 X14.5517 Y48.5507
G01 X14.5261 Y48.5874
G01 X14.4954 Y48.6181
G01 X14.4588 Y48.6437
G01 X14.4183 Y48.6628
G01 X14.3130 Y48.6911
G01 X14.2957 Y48.6969
G01 X14.2789 Y48.7040
G01 X14.2627 Y48.7122
G01 X14.2522 Y48.7183
G01 X14.2420 Y48.7250
G01 X14.2022 Y48.7550
G01 X14.1929 Y48.7624
G01 X14.1839 Y48.7703
G01 X14.1754 Y48.7786
G01 X14.1672 Y48.7873
G01 X14.1558 Y48.8011
G01 X14.1488 Y48.8107
G01 X14.1191 Y48.8575
G01 X14.1131 Y48.8683
G01 X14.1075 Y48.8793
G01 X14.1026 Y48.8907
G01 X14.0982 Y48.9023
G01 X14.0944 Y48.9141
G01 X14.0911 Y48.9260
G01 X14.0814 Y48.9752
G01 X14.0794 Y48.9869
G01 X14.0780 Y48.9987
G01 X14.0772 Y49.0105
G01 X14.0769 Y49.0223
G01 X14.0770 Y57.5980
G01 X14.0781 Y57.6164
G01 X14.0806 Y57.6348
G01 X14.0873 Y57.6727
G01 X14.0899 Y57.6844
G01 X14.0931 Y57.6959
G01 X14.0989 Y57.7130
G01 X14.1059 Y57.7295
G01 X14.1265 Y57.7692
G01 X14.1354 Y57.7848
G01 X14.1420 Y57.7948
G01 X14.1491 Y57.8045
G01 X14.1605 Y57.8184
G01 X14.1729 Y57.8315
G01 X14.2055 Y57.8629
G01 X14.2152 Y57.8710
G01 X14.2252 Y57.8787
G01 X14.2953 Y57.9264
G01 X14.3250 Y57.9561
G01 X14.3502 Y57.9923
G01 X14.3690 Y58.0327
G01 X14.3805 Y58.0756
G01 X14.3858 Y58.1347
G01 X14.3858 Y59.8048
G01 X14.3805 Y59.8645
G01 X14.3690 Y59.9073
G01 X14.3502 Y59.9477
G01 X14.3253 Y59.9835
G01 X14.2938 Y60.0147
G01 X14.2571 Y60.0405
G01 X14.2172 Y60.0591
G01 X14.1750 Y60.0704
G01 X14.1159 Y60.0753
G01 X12.9377 Y60.0753
G01 X12.8786 Y60.0704
G01 X12.8364 Y60.0591
G01 X12.7965 Y60.0405
G01 X12.7598 Y60.0147
G01 X12.7283 Y59.9835
G01 X12.7034 Y59.9477
G01 X12.6846 Y59.9073
G01 X12.6731 Y59.8645
G01 X12.6678 Y59.8048
G01 X12.6678 Y58.1347
G01 X12.6730 Y58.0756
G01 X12.6846 Y58.0327
G01 X12.7034 Y57.9923
G01 X12.7283 Y57.9565
G01 X12.7598 Y57.9253
G01 X12.7965 Y57.8995
G01 X12.8636 Y57.8683
G01 X12.8742 Y57.8630
G01 X12.8846 Y57.8573
G01 X12.8947 Y57.8510
G01 X12.9045 Y57.8443
G01 X12.9354 Y57.8220
G01 X12.9504 Y57.8103
G01 X12.9599 Y57.8019
G01 X12.9733 Y57.7884
G01 X12.9816 Y57.7788
G01 X12.9894 Y57.7689
G01 X13.0002 Y57.7532
G01 X13.0237 Y57.7160
G01 X13.0298 Y57.7055
G01 X13.0353 Y57.6946
G01 X13.0425 Y57.6778
G01 X13.0466 Y57.6663
G01 X13.0502 Y57.6547
G01 X13.0532 Y57.6428
G01 X13.0633 Y57.5932
G01 X13.0652 Y57.5808
G01 X13.0668 Y57.5621
G01 X13.0671 Y57.5496
G01 X13.0670 Y57.2841
G01 X13.0664 Y57.2711
G01 X13.0650 Y57.2582
G01 X13.0617 Y57.2390
G01 X13.0536 Y57.2004
G01 X13.0490 Y57.1822
G01 X13.0431 Y57.1643
G01 X13.0358 Y57.1469
G01 X13.0273 Y57.1301
G01 X13.0175 Y57.1140
G01 X12.9922 Y57.0759
G01 X12.9850 Y57.0661
G01 X12.9773 Y57.0566
G01 X12.9691 Y57.0475
G01 X12.9605 Y57.0388
G01 X12.9515 Y57.0305
G01 X12.9421 Y57.0227
G01 X12.9273 Y57.0119
G01 X12.8943 Y56.9895
G01 X12.8783 Y56.9796
G01 X12.8617 Y56.9709
G01 X12.8445 Y56.9635
G01 X12.8268 Y56.9574
G01 X12.8086 Y56.9526
G01 X12.7579 Y56.9426
G01 X12.7398 Y56.9401
G01 X12.7216 Y56.9390
G01 X11.8095 Y56.9390
G01 X11.7492 Y56.9336
G01 X11.7071 Y56.9226
G01 X11.6672 Y56.9037
G01 X11.6305 Y56.8782
G01 X11.5998 Y56.8475
G01 X11.5743 Y56.8108
G01 X11.5554 Y56.7709
G01 X11.5443 Y56.7288
G01 X11.5390 Y56.6684
G01 X11.5390 Y54.0620
G01 X11.5380 Y54.0446
G01 X11.5357 Y54.0273
G01 X11.5236 Y53.9693
G01 X11.5205 Y53.9576
G01 X11.5169 Y53.9460
G01 X11.5103 Y53.9290
G01 X11.5053 Y53.9180
G01 X11.4968 Y53.9019
G01 X11.4871 Y53.8865
G01 X11.4592 Y53.8475
G01 X11.4519 Y53.8378
G01 X11.4400 Y53.8239
G01 X11.4315 Y53.8151
G01 X11.4226 Y53.8067
G01 X11.4086 Y53.7951
G01 X11.3987 Y53.7879
G01 X11.3833 Y53.7780
G01 X11.3420 Y53.7536
G01 X11.3313 Y53.7479
G01 X11.3203 Y53.7428
G01 X11.3033 Y53.7361
G01 X11.2859 Y53.7306
G01 X11.2682 Y53.7265
G01 X11.2502 Y53.7236
G01 X11.2021 Y53.7178
G01 X11.1892 Y53.7169
G01 X11.1762 Y53.7167
G01 X11.1568 Y53.7176
G01 X11.0674 Y53.7253
G01 X9.8897 Y53.7253
G01 X9.8306 Y53.7204
G01 X9.7884 Y53.7091
G01 X9.7485 Y53.6905
G01 X9.7118 Y53.6647
G01 X9.6803 Y53.6335
G01 X9.6554 Y53.5977
G01 X9.6366 Y53.5573
G01 X9.6251 Y53.5145
G01 X9.6198 Y53.4548
G01 X9.6198 Y52.6210
G01 X9.6195 Y52.6090
G01 X9.6180 Y52.5910
G01 X9.6163 Y52.5791
G01 X9.6076 Y52.5341
G01 X9.6033 Y52.5159
G01 X9.5977 Y52.4980
G01 X9.5908 Y52.4807
G01 X9.5826 Y52.4639
G01 X9.5764 Y52.4530
G01 X9.5697 Y52.4425
G01 X9.5445 Y52.4050
G01 X9.5334 Y52.3906
G01 X9.5214 Y52.3769
G01 X9.2484 Y52.1039
G01 X9.2351 Y52.0915
G01 X9.2257 Y52.0838
G01 X9.2160 Y52.0766
G01 X9.1733 Y52.0479
G01 X9.1626 Y52.0414
G01 X9.1460 Y52.0328
G01 X9.1346 Y52.0278
G01 X9.1230 Y52.0233
G01 X9.1051 Y52.0177
G01 X9.0869 Y52.0134
G01 X9.0419 Y52.0047
G01 X9.0239 Y52.0023
G01 X9.0057 Y52.0013
G01 X8.9876 Y52.0015
G01 X8.9695 Y52.0031
G01 X8.9516 Y52.0059
G01 X8.9070 Y52.0148
G01 X8.8894 Y52.0194
G01 X8.8721 Y52.0253
G01 X8.8608 Y52.0299
G01 X8.8498 Y52.0351
G01 X8.8338 Y52.0438
G01 X8.8235 Y52.0503
G01 X8.7853 Y52.0757
G01 X8.7752 Y52.0831
G01 X8.7654 Y52.0911
G01 X8.7516 Y52.1039
G01 X8.4829 Y52.3726
G01 X8.4742 Y52.3817
G01 X8.4621 Y52.3961
G01 X8.4547 Y52.4063
G01 X8.4293 Y52.4445
G01 X8.4198 Y52.4601
G01 X8.4141 Y52.4708
G01 X8.4065 Y52.4874
G01 X8.4002 Y52.5046
G01 X8.3967 Y52.5162
G01 X8.3925 Y52.5340
G01 X8.3838 Y52.5786
G01 X8.3814 Y52.5967
G01 X8.3803 Y52.6149
G01 X8.3802 Y53.4548
G01 X8.3749 Y53.5145
G01 X8.3634 Y53.5573
G01 X8.3446 Y53.5977
G01 X8.3197 Y53.6335
G01 X8.2882 Y53.6647
G01 X8.2515 Y53.6905
G01 X8.2118 Y53.7090
G01 X8.1852 Y53.7164
G01 X8.1737 Y53.7204
G01 X8.1625 Y53.7249
G01 X8.1461 Y53.7327
G01 X8.1017 Y53.7558
G01 X8.0861 Y53.7652
G01 X8.0712 Y53.7756
G01 X8.0571 Y53.7872
G01 X8.0482 Y53.7954
G01 X8.0397 Y53.8040
G01 X8.0316 Y53.8131
G01 X8.0240 Y53.8225
G01 X7.9900 Y53.8673
G01 X7.9803 Y53.8824
G01 X7.9744 Y53.8929
G01 X7.9690 Y53.9037
G01 X7.9642 Y53.9147
G01 X7.9599 Y53.9259
G01 X7.9544 Y53.9431
G01 X7.9418 Y53.9974
G01 X7.9394 Y54.0095
G01 X7.9376 Y54.0218
G01 X7.9364 Y54.0340
G01 X7.9357 Y54.0526
G01 X7.9357 Y54.2685
G01 X7.9364 Y54.2872
G01 X7.9376 Y54.2996
G01 X7.9395 Y54.3120
G01 X7.9483 Y54.3557
G01 X7.9510 Y54.3676
G01 X7.9543 Y54.3793
G01 X7.9581 Y54.3909
G01 X7.9626 Y54.4023
G01 X7.9675 Y54.4134
G01 X7.9730 Y54.4243
G01 X7.9790 Y54.4349
G01 X8.0026 Y54.4721
G01 X8.0096 Y54.4826
G01 X8.0172 Y54.4927
G01 X8.0253 Y54.5025
G01 X8.0339 Y54.5118
G01 X8.0429 Y54.5207
G01 X8.0524 Y54.5291
G01 X8.0623 Y54.5370
G01 X8.1079 Y54.5697
G01 X8.1178 Y54.5758
G01 X8.1279 Y54.5815
G01 X8.1607 Y54.5972
G01 X8.1978 Y54.6233
G01 X8.2293 Y54.6545
G01 X8.2542 Y54.6903
G01 X8.2730 Y54.7307
G01 X8.2845 Y54.7736
G01 X8.2898 Y54.8327
G01 X8.2898 Y55.6731
G01 X8.2904 Y55.6852
G01 X8.2924 Y55.7034
G01 X8.3034 Y55.7600
G01 X8.3063 Y55.7718
G01 X8.3098 Y55.7834
G01 X8.3139 Y55.7949
G01 X8.3185 Y55.8061
G01 X8.3237 Y55.8172
G01 X8.3324 Y55.8332
G01 X8.3607 Y55.8765
G01 X8.3679 Y55.8868
G01 X8.3756 Y55.8968
G01 X8.3838 Y55.9063
G01 X8.3924 Y55.9154
G01 X10.2385 Y57.7615
G01 X10.2523 Y57.7743
G01 X10.2671 Y57.7860
G01 X10.2774 Y57.7932
G01 X10.3207 Y57.8215
G01 X10.3313 Y57.8275
G01 X10.3422 Y57.8329
G01 X10.3590 Y57.8400
G01 X10.3763 Y57.8459
G01 X10.3939 Y57.8505
G01 X10.4445 Y57.8605
G01 X10.4626 Y57.8630
G01 X10.4747 Y57.8638
G01 X10.4869 Y57.8641
G01 X11.1576 Y57.8641
G01 X11.2167 Y57.8694
G01 X11.2596 Y57.8809
G01 X11.2995 Y57.8995
G01 X11.3362 Y57.9253
G01 X11.3677 Y57.9565
G01 X11.3926 Y57.9923
G01 X11.4114 Y58.0327
G01 X11.4229 Y58.0756
G01 X11.4282 Y58.1347
G01 X11.4282 Y59.8048
G01 X11.4229 Y59.8645
G01 X11.4114 Y59.9073
G01 X11.3926 Y59.9477
G01 X11.3677 Y59.9835
G01 X11.3362 Y60.0147
G01 X11.3001 Y60.0401
G01 X11.2735 Y60.0524
G01 X11.2626 Y60.0580
G01 X11.2520 Y60.0642
G01 X11.2368 Y60.0743
G01 X11.1961 Y60.1040
G01 X11.1824 Y60.1158
G01 X11.1695 Y60.1286
G01 X11.1576 Y60.1423
G01 X11.1467 Y60.1568
G01 X11.1401 Y60.1669
G01 X11.1136 Y60.2097
G01 X11.1080 Y60.2203
G01 X11.1029 Y60.2311
G01 X11.0963 Y60.2478
G01 X11.0909 Y60.2649
G01 X11.0879 Y60.2765
G01 X11.0791 Y60.3199
G01 X11.0760 Y60.3384
G01 X11.0744 Y60.3570
G01 X11.0741 Y60.3695
G01 X11.0736 Y64.0196
G01 X11.0674 Y64.0870
G01 X11.0664 Y64.0927
G01 X11.0498 Y64.1595
G01 X11.0487 Y64.1630
G01 X11.0149 Y64.2411
G01 X10.9865 Y64.2882
G01 X10.9348 Y64.3530
G01 X9.6006 Y65.6871
G01 X9.5494 Y65.7296
G01 X9.5443 Y65.7332
G01 X9.4903 Y65.7657
G01 X9.4122 Y65.7994
G01 X9.4088 Y65.8006
G01 X9.3419 Y65.8172
G01 X9.3362 Y65.8182
G01 X9.2688 Y65.8244
G01 X7.3230 Y65.8249
G01 X7.3050 Y65.8255
G01 X7.2931 Y65.8267
G01 X7.2812 Y65.8284
G01 X7.2300 Y65.8384
G01 X7.2178 Y65.8414
G01 X7.2057 Y65.8451
G01 X7.1939 Y65.8493
G01 X7.1823 Y65.8541
G01 X7.1653 Y65.8625
G01 X7.1544 Y65.8687
G01 X7.1438 Y65.8755
G01 X7.1059 Y65.9012
G01 X7.0918 Y65.9121
G01 X7.0828 Y65.9199
G01 X7.0742 Y65.9281
G01 X6.5311 Y66.4711
G01 X6.5183 Y66.4849
G01 X6.5104 Y66.4947
G01 X6.5030 Y66.5048
G01 X6.4742 Y66.5483
G01 X6.4678 Y66.5591
G01 X6.4619 Y66.5702
G01 X6.4566 Y66.5816
G01 X6.4519 Y66.5933
G01 X6.4478 Y66.6052
G01 X6.4428 Y66.6233
G01 X6.4311 Y66.6800
G01 X6.4289 Y66.6980
G01 X6.4281 Y66.7101
G01 X6.4280 Y66.7222
G01 X6.4284 Y66.7344
G01 X6.4294 Y66.7464
G01 X6.4320 Y66.7644
G01 X6.4413 Y66.8095
G01 X6.4458 Y66.8279
G01 X6.4518 Y66.8459
G01 X6.4591 Y66.8635
G01 X6.4647 Y66.8748
G01 X6.4741 Y66.8913
G01 X6.4994 Y66.9296
G01 X6.5066 Y66.9399
G01 X6.5183 Y66.9546
G01 X6.5311 Y66.9684
G01 X6.5449 Y66.9812
G01 X6.5597 Y66.9930
G01 X6.5699 Y67.0002
G01 X6.6081 Y67.0253
G01 X6.6239 Y67.0344
G01 X6.6348 Y67.0399
G01 X6.6516 Y67.0470
G01 X6.6631 Y67.0511
G01 X6.6747 Y67.0546
G01 X6.6866 Y67.0575
G01 X6.7311 Y67.0664
G01 X6.7492 Y67.0693
G01 X6.7613 Y67.0705
G01 X6.7735 Y67.0711
G01 X6.8811 Y67.0711
G01 X6.9611 Y67.0833
G01 X7.0383 Y67.1072
G01 X7.1117 Y67.1425
G01 X7.1786 Y67.1879
G01 X7.2367 Y67.2420
G01 X7.2516 Y67.2548
G01 X7.2674 Y67.2663
G01 X7.3049 Y67.2902
G01 X7.3153 Y67.2965
G01 X7.3261 Y67.3023
G01 X7.3426 Y67.3099
G01 X7.3540 Y67.3143
G01 X7.3655 Y67.3182
G01 X7.3832 Y67.3229
G01 X7.4322 Y67.3319
G01 X7.4446 Y67.3338
G01 X7.4634 Y67.3355
G01 X7.4760 Y67.3358
G01 X7.4886 Y67.3355
G01 X7.5011 Y67.3345
G01 X7.5136 Y67.3330
G01 X7.5629 Y67.3242
G01 X7.5806 Y67.3199
G01 X7.5980 Y67.3143
G01 X7.6094 Y67.3099
G01 X7.6205 Y67.3050
G01 X7.6367 Y67.2965
G01 X7.6791 Y67.2699
G01 X7.6900 Y67.2626
G01 X7.7004 Y67.2548
G01 X7.7105 Y67.2464
G01 X7.7734 Y67.1879
G01 X7.8403 Y67.1425
G01 X7.9137 Y67.1072
G01 X7.9909 Y67.0833
G01 X8.0709 Y67.0711
G01 X8.1511 Y67.0711
G01 X8.2311 Y67.0833
G01 X8.3083 Y67.1072
G01 X8.3817 Y67.1425
G01 X8.4486 Y67.1879
G01 X8.5067 Y67.2420
G01 X8.5216 Y67.2548
G01 X8.5374 Y67.2663
G01 X8.5749 Y67.2902
G01 X8.5907 Y67.2995
G01 X8.6015 Y67.3050
G01 X8.6126 Y67.3099
G01 X8.6297 Y67.3163
G01 X8.6473 Y67.3215
G01 X8.6651 Y67.3253
G01 X8.7022 Y67.3319
G01 X8.7209 Y67.3345
G01 X8.7334 Y67.3355
G01 X8.7460 Y67.3358
G01 X8.7648 Y67.3351
G01 X8.7774 Y67.3338
G01 X8.7898 Y67.3319
G01 X8.8329 Y67.3242
G01 X8.8506 Y67.3199
G01 X8.8623 Y67.3163
G01 X8.8794 Y67.3099
G01 X8.8959 Y67.3023
G01 X8.9119 Y67.2934
G01 X8.9242 Y67.2857
G01 X8.9242 Y67.3290
G01 X8.9073 Y67.3579
G01 X8.8897 Y67.3943
G01 X8.8825 Y67.4112
G01 X8.8688 Y67.4493
G01 X8.8637 Y67.4670
G01 X8.8542 Y67.5063
G01 X8.8521 Y67.5184
G01 X8.8465 Y67.5576
G01 X8.8331 Y67.5654
G01 X8.7899 Y67.5940
G01 X8.7753 Y67.6050
G01 X8.7615 Y67.6171
G01 X8.7486 Y67.6301
G01 X8.7367 Y67.6441
G01 X8.7259 Y67.6589
G01 X8.7036 Y67.6919
G01 X8.6968 Y67.7025
G01 X8.6876 Y67.7190
G01 X8.6797 Y67.7362
G01 X8.6732 Y67.7538
G01 X8.6679 Y67.7720
G01 X8.6652 Y67.7843
G01 X8.6565 Y67.8293
G01 X8.6541 Y67.8472
G01 X8.6533 Y67.8591
G01 X8.6530 Y67.8712
G01 X8.6530 Y68.8125
G01 X8.6536 Y68.8305
G01 X8.6556 Y68.8485
G01 X8.6652 Y68.8994
G01 X8.6678 Y68.9112
G01 X8.6727 Y68.9286
G01 X8.6789 Y68.9456
G01 X8.6863 Y68.9621
G01 X8.6949 Y68.9780
G01 X8.7046 Y68.9932
G01 X8.7269 Y69.0257
G01 X8.7381 Y69.0407
G01 X8.7503 Y69.0548
G01 X8.7635 Y69.0680
G01 X8.7729 Y69.0762
G01 X8.7826 Y69.0839
G01 X8.7928 Y69.0911
G01 X8.8310 Y69.1169
G01 X8.8465 Y69.1261
G01 X8.8531 Y69.1713
G01 X8.8569 Y69.1894
G01 X8.8670 Y69.2285
G01 X8.8809 Y69.2682
G01 X8.8809 Y69.5228
G01 X8.8675 Y69.5260
G01 X8.8500 Y69.5313
G01 X8.8330 Y69.5380
G01 X8.8165 Y69.5458
G01 X8.8006 Y69.5548
G01 X8.7610 Y69.5794
G01 X8.7462 Y69.5898
G01 X8.7368 Y69.5973
G01 X8.7278 Y69.6052
G01 X8.7150 Y69.6179
G01 X8.7031 Y69.6315
G01 X8.6958 Y69.6410
G01 X8.6623 Y69.6895
G01 X8.6533 Y69.7051
G01 X8.6454 Y69.7213
G01 X8.6408 Y69.7324
G01 X8.6367 Y69.7437
G01 X8.6332 Y69.7552
G01 X8.6303 Y69.7669
G01 X8.6197 Y69.8190
G01 X8.6178 Y69.8314
G01 X8.6166 Y69.8438
G01 X8.6159 Y69.8625
G01 X8.6160 Y70.1245
G01 X8.6172 Y70.1440
G01 X8.6200 Y70.1632
G01 X8.6294 Y70.2082
G01 X8.6324 Y70.2209
G01 X8.6361 Y70.2334
G01 X8.6404 Y70.2458
G01 X8.6716 Y70.3216
G01 X8.6734 Y70.3270
G01 X8.6900 Y70.3939
G01 X8.6909 Y70.3996
G01 X8.6972 Y70.4670
G01 X8.6978 Y71.0389
G01 X8.6989 Y71.0575
G01 X8.7015 Y71.0760
G01 X8.7116 Y71.1257
G01 X8.7163 Y71.1433
G01 X8.7223 Y71.1606
G01 X8.7270 Y71.1719
G01 X8.7350 Y71.1883
G01 X8.7410 Y71.1989
G01 X8.7646 Y71.2361
G01 X8.7754 Y71.2517
G01 X8.7873 Y71.2665
G01 X8.8003 Y71.2803
G01 X8.8144 Y71.2931
G01 X8.8243 Y71.3010
G01 X8.8651 Y71.3305
G01 X8.8748 Y71.3368
G01 X8.8899 Y71.3455
G01 X8.9227 Y71.3612
G01 X8.9598 Y71.3873
G01 X8.9913 Y71.4185
G01 X9.0162 Y71.4543
G01 X9.0350 Y71.4947
G01 X9.0465 Y71.5376
G01 X9.0518 Y71.5967
G01 X9.0518 Y73.2668
G01 X9.0465 Y73.3265
G01 X9.0350 Y73.3693
G01 X9.0162 Y73.4097
G01 X8.9913 Y73.4455
G01 X8.9590 Y73.4774
G01 X8.9469 Y73.4862
G01 X8.9372 Y73.4939
G01 X8.9280 Y73.5020
G01 X8.9148 Y73.5151
G01 X8.8859 Y73.5461
G01 X8.8737 Y73.5601
G01 X8.8626 Y73.5751
G01 X8.8558 Y73.5855
G01 X8.8496 Y73.5962
G01 X8.8412 Y73.6128
G01 X8.8341 Y73.6300
G01 X8.8183 Y73.6760
G01 X8.8129 Y73.6939
G01 X8.8089 Y73.7122
G01 X8.8070 Y73.7245
G01 X8.8052 Y73.7431
G01 X8.8049 Y73.7619
G01 X8.8060 Y73.7805
G01 X8.8115 Y73.8356
G01 X8.8136 Y73.8478
G01 X8.8163 Y73.8599
G01 X8.8196 Y73.8719
G01 X8.8235 Y73.8837
G01 X8.8280 Y73.8953
G01 X8.8331 Y73.9067
G01 X8.8417 Y73.9232
G01 X8.8689 Y73.9704
G01 X8.8794 Y73.9856
G01 X8.8870 Y73.9953
G01 X8.8951 Y74.0046
G01 X8.9036 Y74.0135
G01 X8.9126 Y74.0220
G01 X8.9219 Y74.0300
G01 X8.9662 Y74.0629
G01 X8.9818 Y74.0735
G01 X8.9926 Y74.0799
G01 X9.0038 Y74.0857
G01 X9.0210 Y74.0934
G01 X9.0327 Y74.0978
G01 X9.0447 Y74.1016
G01 X9.0568 Y74.1048
G01 X9.1015 Y74.1143
G01 X9.1015 Y74.1257
G01 X9.0885 Y74.1267
G01 X9.0763 Y74.1282
G01 X9.0582 Y74.1315
G01 X9.0463 Y74.1345
G01 X9.0346 Y74.1381
G01 X9.0173 Y74.1445
G01 X9.0061 Y74.1495
G01 X8.9898 Y74.1579
G01 X8.9741 Y74.1676
G01 X8.9641 Y74.1746
G01 X8.9497 Y74.1861
G01 X8.9406 Y74.1944
G01 X8.9319 Y74.2031
G01 X8.9197 Y74.2169
G01 X8.9122 Y74.2265
G01 X8.9018 Y74.2417
G01 X8.8955 Y74.2522
G01 X8.8897 Y74.2630
G01 X8.8820 Y74.2798
G01 X8.8776 Y74.2912
G01 X8.8738 Y74.3029
G01 X8.8705 Y74.3147
G01 X8.8667 Y74.3327
G01 X8.8649 Y74.3448
G01 X8.8637 Y74.3571
G01 X8.8630 Y74.3755
G01 X8.8630 Y74.5429
G01 X8.8345 Y74.5618
G01 X8.8244 Y74.5692
G01 X8.8147 Y74.5772
G01 X8.8054 Y74.5856
G01 X8.7965 Y74.5945
G01 X8.7881 Y74.6038
G01 X8.7801 Y74.6135
G01 X8.7691 Y74.6288
G01 X8.7473 Y74.6619
G01 X8.7406 Y74.6726
G01 X8.7344 Y74.6836
G01 X8.7288 Y74.6950
G01 X8.7215 Y74.7125
G01 X8.7174 Y74.7244
G01 X8.7139 Y74.7366
G01 X8.7110 Y74.7489
G01 X8.7017 Y74.7943
G01 X8.6990 Y74.8133
G01 X8.6978 Y74.8325
G01 X8.6978 Y75.6195
G01 X8.6990 Y75.6387
G01 X8.7006 Y75.6514
G01 X8.7029 Y75.6640
G01 X8.7138 Y75.7148
G01 X8.7171 Y75.7265
G01 X8.7231 Y75.7436
G01 X8.7303 Y75.7602
G01 X8.7387 Y75.7762
G01 X8.7483 Y75.7916
G01 X8.7735 Y75.8291
G01 X8.7845 Y75.8434
G01 X8.7964 Y75.8569
G01 X8.8092 Y75.8695
G01 X8.8230 Y75.8811
G01 X8.8326 Y75.8883
G01 X8.8630 Y75.9090
G01 X8.8630 Y76.0764
G01 X8.8637 Y76.0948
G01 X8.8649 Y76.1070
G01 X8.8667 Y76.1192
G01 X8.8691 Y76.1312
G01 X8.8721 Y76.1431
G01 X8.8756 Y76.1549
G01 X8.8798 Y76.1664
G01 X8.8844 Y76.1778
G01 X8.8897 Y76.1888
G01 X8.8955 Y76.1997
G01 X8.9018 Y76.2102
G01 X8.9122 Y76.2254
G01 X8.9237 Y76.2397
G01 X8.9319 Y76.2488
G01 X8.9406 Y76.2575
G01 X8.9544 Y76.2697
G01 X8.9641 Y76.2772
G01 X8.9793 Y76.2877
G01 X8.9898 Y76.2940
G01 X9.0061 Y76.3024
G01 X9.0230 Y76.3097
G01 X9.0346 Y76.3138
G01 X9.0523 Y76.3189
G01 X9.0703 Y76.3228
G01 X9.0885 Y76.3252
G01 X9.1015 Y76.3262
G01 X9.1015 Y76.3290
G01 X9.0734 Y76.3267
G01 X9.0605 Y76.3263
G01 X9.0475 Y76.3265
G01 X9.0282 Y76.3281
G01 X8.9805 Y76.3340
G01 X8.9685 Y76.3360
G01 X8.9567 Y76.3387
G01 X8.9391 Y76.3437
G01 X8.9277 Y76.3477
G01 X8.9164 Y76.3523
G01 X8.9000 Y76.3603
G01 X8.8534 Y76.3875
G01 X8.8380 Y76.3974
G01 X8.8281 Y76.4046
G01 X8.8187 Y76.4123
G01 X8.8052 Y76.4247
G01 X8.7967 Y76.4334
G01 X8.7887 Y76.4426
G01 X8.7775 Y76.4571
G01 X8.7496 Y76.4961
G01 X8.7399 Y76.5115
G01 X8.7341 Y76.5221
G01 X8.7264 Y76.5386
G01 X8.7219 Y76.5498
G01 X8.7180 Y76.5613
G01 X8.7131 Y76.5788
G01 X8.7010 Y76.6368
G01 X8.6988 Y76.6541
G01 X8.6980 Y76.6657
G01 X8.6977 Y76.6774
G01 X8.6977 Y76.9029
G01 X8.6984 Y76.9221
G01 X8.6997 Y76.9348
G01 X8.7017 Y76.9475
G01 X8.7124 Y76.9991
G01 X8.7156 Y77.0113
G01 X8.7194 Y77.0234
G01 X8.7238 Y77.0352
G01 X8.7288 Y77.0468
G01 X8.7344 Y77.0582
G01 X8.7439 Y77.0746
G01 X8.7691 Y77.1130
G01 X8.7801 Y77.1283
G01 X8.7881 Y77.1380
G01 X8.7965 Y77.1473
G01 X9.2225 Y77.5735
G01 X9.2316 Y77.5821
G01 X9.2411 Y77.5903
G01 X9.2511 Y77.5980
G01 X9.2614 Y77.6052
G01 X9.3047 Y77.6335
G01 X9.3207 Y77.6422
G01 X9.3373 Y77.6498
G01 X9.3487 Y77.6541
G01 X9.3603 Y77.6579
G01 X9.3720 Y77.6611
G01 X9.3839 Y77.6638
G01 X9.4345 Y77.6735
G01 X9.4466 Y77.6750
G01 X9.4648 Y77.6761
G01 X10.3052 Y77.6761
G01 X10.3643 Y77.6814
G01 X10.4071 Y77.6929
G01 X10.4471 Y77.7115
G01 X10.4838 Y77.7373
G01 X10.5153 Y77.7685
G01 X10.5402 Y77.8043
G01 X10.5590 Y77.8447
G01 X10.5705 Y77.8876
G01 X10.5758 Y77.9467
G01 X10.5758 Y78.7358
G01 X10.5764 Y78.7540
G01 X10.5776 Y78.7661
G01 X10.5805 Y78.7842
G01 X10.5907 Y78.8347
G01 X10.5958 Y78.8522
G01 X10.6021 Y78.8693
G01 X10.6096 Y78.8859
G01 X10.6184 Y78.9019
G01 X10.6467 Y78.9453
G01 X10.6539 Y78.9556
G01 X10.6656 Y78.9704
G01 X10.6785 Y78.9842
G01 X13.3140 Y81.6192
G01 X13.3269 Y81.6312
G01 X13.3360 Y81.6387
G01 X13.3738 Y81.6661
G01 X13.3889 Y81.6761
G01 X13.4047 Y81.6849
G01 X13.4155 Y81.6902
G01 X13.4266 Y81.6949
G01 X13.4379 Y81.6991
G01 X13.4494 Y81.7028
G01 X13.4957 Y81.7150
G01 X13.5139 Y81.7187
G01 X13.5261 Y81.7203
G01 X13.5384 Y81.7214
G01 X13.5569 Y81.7218
G01 X13.5692 Y81.7214
G01 X13.6104 Y81.7179
G01 X13.6290 Y81.7155
G01 X13.6413 Y81.7132
G01 X13.6534 Y81.7103
G01 X13.7774 Y81.6771
G01 X13.9277 Y81.6533
G01 X14.0800 Y81.6455
G01 X14.2323 Y81.6533
G01 X14.3825 Y81.6771
G01 X14.5293 Y81.7165
G01 X14.6717 Y81.7712
G01 X14.8073 Y81.8401
G01 X14.9351 Y81.9232
G01 X15.0535 Y82.0191
G01 X15.1609 Y82.1265
G01 X15.2568 Y82.2449
G01 X15.3399 Y82.3727
G01 X15.4088 Y82.5083
G01 X15.4635 Y82.6506
G01 X15.5029 Y82.7975
G01 X15.5267 Y82.9477
G01 X15.5345 Y83.1000
G01 X15.5267 Y83.2523
G01 X15.5029 Y83.4025
G01 X15.4635 Y83.5493
G01 X15.4088 Y83.6917
G01 X15.3399 Y83.8273
G01 X15.2568 Y83.9551
G01 X15.1609 Y84.0735
G01 X15.0535 Y84.1809
G01 X14.9353 Y84.2766
G01 X14.8073 Y84.3594
G01 X14.6714 Y84.4289
G01 X14.5293 Y84.4835
G01 X14.3825 Y84.5229
G01 X14.2323 Y84.5467
G01 X14.0800 Y84.5545
G01 X13.9277 Y84.5467
G01 X13.7775 Y84.5229
G01 X13.6306 Y84.4835
G01 X13.4886 Y84.4289
G01 X13.3527 Y84.3594
G01 X13.2247 Y84.2766
G01 X13.1065 Y84.1809
G01 X12.9991 Y84.0735
G01 X12.9032 Y83.9551
G01 X12.8201 Y83.8273
G01 X12.7512 Y83.6917
G01 X12.6965 Y83.5493
G01 X12.6571 Y83.4025
G01 X12.6333 Y83.2523
G01 X12.6255 Y83.1000
G01 X12.6333 Y82.9477
G01 X12.6571 Y82.7974
G01 X12.6903 Y82.6734
G01 X12.6945 Y82.6552
G01 X12.6973 Y82.6366
G01 X12.7009 Y82.5954
G01 X12.7018 Y82.5769
G01 X12.7017 Y82.5645
G01 X12.7009 Y82.5522
G01 X12.6996 Y82.5400
G01 X12.6976 Y82.5278
G01 X12.6950 Y82.5157
G01 X12.6827 Y82.4691
G01 X12.6789 Y82.4573
G01 X12.6745 Y82.4456
G01 X12.6669 Y82.4285
G01 X12.6611 Y82.4174
G01 X12.6547 Y82.4067
G01 X12.6280 Y82.3678
G01 X12.6166 Y82.3527
G01 X12.6084 Y82.3431
G01 X12.5997 Y82.3339
G01 X10.2563 Y79.9905
G01 X10.2472 Y79.9819
G01 X10.2376 Y79.9737
G01 X10.2226 Y79.9623
G01 X10.1844 Y79.9370
G01 X10.1737 Y79.9302
G01 X10.1570 Y79.9212
G01 X10.1397 Y79.9135
G01 X10.1218 Y79.9071
G01 X10.1035 Y79.9021
G01 X10.0519 Y79.8913
G01 X10.0329 Y79.8887
G01 X10.0202 Y79.8877
G01 X10.0074 Y79.8873
G01 X9.1284 Y79.8873
G01 X9.0686 Y79.8821
G01 X9.0264 Y79.8709
G01 X8.9865 Y79.8521
G01 X8.9494 Y79.8263
G01 X8.9183 Y79.7955
G01 X8.8934 Y79.7597
G01 X8.8746 Y79.7193
G01 X8.8631 Y79.6765
G01 X8.8578 Y79.6168
G01 X8.8578 Y78.7830
G01 X8.8575 Y78.7710
G01 X8.8560 Y78.7530
G01 X8.8543 Y78.7411
G01 X8.8456 Y78.6961
G01 X8.8429 Y78.6839
G01 X8.8396 Y78.6719
G01 X8.8336 Y78.6542
G01 X8.8288 Y78.6427
G01 X8.8235 Y78.6314
G01 X8.8176 Y78.6204
G01 X8.8111 Y78.6097
G01 X8.7824 Y78.5670
G01 X8.7714 Y78.5525
G01 X8.7594 Y78.5389
G01 X8.2182 Y77.9977
G01 X8.2044 Y77.9849
G01 X8.1947 Y77.9769
G01 X8.1846 Y77.9695
G01 X8.1412 Y77.9408
G01 X8.1308 Y77.9346
G01 X8.1200 Y77.9289
G01 X8.1034 Y77.9213
G01 X8.0920 Y77.9170
G01 X8.0804 Y77.9132
G01 X8.0628 Y77.9086
G01 X8.0122 Y77.8986
G01 X7.9942 Y77.8962
G01 X7.9822 Y77.8953
G01 X7.9701 Y77.8950
G01 X7.9580 Y77.8952
G01 X7.9459 Y77.8961
G01 X7.9339 Y77.8975
G01 X7.8769 Y77.9084
G01 X7.8650 Y77.9114
G01 X7.8532 Y77.9149
G01 X7.8417 Y77.9190
G01 X7.8303 Y77.9236
G01 X7.8192 Y77.9288
G01 X7.8084 Y77.9345
G01 X7.7927 Y77.9441
G01 X7.7545 Y77.9695
G01 X7.7444 Y77.9769
G01 X7.7347 Y77.9849
G01 X7.7209 Y77.9977
G01 X7.7081 Y78.0115
G01 X7.7001 Y78.0212
G01 X7.6927 Y78.0313
G01 X7.6640 Y78.0746
G01 X7.6548 Y78.0906
G01 X7.6493 Y78.1015
G01 X7.6422 Y78.1184
G01 X7.6381 Y78.1300
G01 X7.6346 Y78.1417
G01 X7.6304 Y78.1596
G01 X7.6217 Y78.2047
G01 X7.6193 Y78.2225
G01 X7.6183 Y78.2405
G01 X7.6182 Y79.6168
G01 X7.6129 Y79.6765
G01 X7.6014 Y79.7193
G01 X7.5826 Y79.7597
G01 X7.5577 Y79.7955
G01 X7.5266 Y79.8263
G01 X7.4897 Y79.8520
G01 X7.4563 Y79.8680
G01 X7.4462 Y79.8736
G01 X7.4364 Y79.8797
G01 X7.3909 Y79.9123
G01 X7.3815 Y79.9198
G01 X7.3724 Y79.9278
G01 X7.3595 Y79.9406
G01 X7.3515 Y79.9496
G01 X7.3438 Y79.9590
G01 X7.3367 Y79.9688
G01 X7.3066 Y80.0165
G01 X7.3008 Y80.0270
G01 X7.2954 Y80.0377
G01 X7.2906 Y80.0486
G01 X7.2844 Y80.0654
G01 X7.2809 Y80.0769
G01 X7.2780 Y80.0884
G01 X7.2691 Y80.1319
G01 X7.2669 Y80.1442
G01 X7.2648 Y80.1628
G01 X7.2641 Y80.1815
G01 X7.2644 Y80.2177
G01 X7.2654 Y80.2305
G01 X7.2681 Y80.2495
G01 X7.2775 Y80.2949
G01 X7.2803 Y80.3072
G01 X7.2858 Y80.3254
G01 X7.2903 Y80.3372
G01 X7.2953 Y80.3489
G01 X7.3009 Y80.3602
G01 X7.3103 Y80.3767
G01 X7.3391 Y80.4202
G01 X7.3466 Y80.4303
G01 X7.3545 Y80.4400
G01 X7.3673 Y80.4539
G01 X8.4788 Y81.5649
G01 X8.4878 Y81.5734
G01 X8.5020 Y81.5853
G01 X8.5323 Y81.6078
G01 X8.5473 Y81.6181
G01 X8.5630 Y81.6272
G01 X8.5738 Y81.6327
G01 X8.5905 Y81.6399
G01 X8.6019 Y81.6440
G01 X8.6383 Y81.6560
G01 X8.6502 Y81.6594
G01 X8.6684 Y81.6632
G01 X8.6868 Y81.6658
G01 X8.6991 Y81.6667
G01 X8.7115 Y81.6670
G01 X8.7487 Y81.6669
G01 X8.7601 Y81.6664
G01 X8.7771 Y81.6646
G01 X8.8481 Y81.6533
G01 X9.0000 Y81.6455
G01 X9.1523 Y81.6533
G01 X9.3025 Y81.6771
G01 X9.4493 Y81.7165
G01 X9.5917 Y81.7712
G01 X9.7273 Y81.8401
G01 X9.8551 Y81.9232
G01 X9.9735 Y82.0191
G01 X10.0809 Y82.1265
G01 X10.1768 Y82.2449
G01 X10.2599 Y82.3727
G01 X10.3288 Y82.5083
G01 X10.3835 Y82.6506
G01 X10.4229 Y82.7975
G01 X10.4467 Y82.9477
G01 X10.4545 Y83.1000
G01 X10.4467 Y83.2523
G01 X10.4229 Y83.4025
G01 X10.3835 Y83.5493
G01 X10.3288 Y83.6917
G01 X10.2599 Y83.8273
G01 X10.1768 Y83.9551
G01 X10.0809 Y84.0735
G01 X9.9735 Y84.1809
G01 X9.8553 Y84.2766
G01 X9.7273 Y84.3594
G01 X9.5914 Y84.4289
G01 X9.4493 Y84.4835
G01 X9.3025 Y84.5229
G01 X9.1523 Y84.5467
G01 X9.0000 Y84.5545
G01 X8.8477 Y84.5467
G01 X8.6975 Y84.5229
G01 X8.5507 Y84.4835
G01 X8.4086 Y84.4289
G01 X8.2727 Y84.3594
G01 X8.1447 Y84.2766
G01 X8.0265 Y84.1809
G01 X7.9191 Y84.0735
G01 X7.8232 Y83.9551
G01 X7.7401 Y83.8273
G01 X7.6712 Y83.6917
G01 X7.6165 Y83.5493
G01 X7.5771 Y83.4025
G01 X7.5533 Y83.2523
G01 X7.5455 Y83.1000
G01 X7.5533 Y82.9477
G01 X7.5771 Y82.7975
G01 X7.6165 Y82.6508
G01 X7.6788 Y82.4895
G01 X7.6847 Y82.4721
G01 X7.6880 Y82.4602
G01 X7.6907 Y82.4482
G01 X7.6994 Y82.3982
G01 X7.7014 Y82.3804
G01 X7.7021 Y82.3625
G01 X7.7016 Y82.3446
G01 X7.6997 Y82.3268
G01 X7.6966 Y82.3092
G01 X7.6856 Y82.2588
G01 X7.6800 Y82.2408
G01 X7.6731 Y82.2232
G01 X7.6678 Y82.2118
G01 X7.6619 Y82.2007
G01 X7.6520 Y82.1846
G01 X7.6236 Y82.1425
G01 X7.6120 Y82.1281
G01 X7.6038 Y82.1189
G01 X6.3937 Y80.9082
G01 X6.3419 Y80.8435
G01 X6.3135 Y80.7963
G01 X6.2798 Y80.7182
G01 X6.2786 Y80.7148
G01 X6.2620 Y80.6479
G01 X6.2611 Y80.6422
G01 X6.2548 Y80.5747
G01 X6.2543 Y80.1812
G01 X6.2540 Y80.1688
G01 X6.2531 Y80.1564
G01 X6.2505 Y80.1380
G01 X6.2417 Y80.0943
G01 X6.2391 Y80.0826
G01 X6.2359 Y80.0711
G01 X6.2300 Y80.0542
G01 X6.2230 Y80.0377
G01 X6.2148 Y80.0217
G01 X6.1851 Y79.9738
G01 X6.1746 Y79.9590
G01 X6.1670 Y79.9496
G01 X6.1589 Y79.9406
G01 X6.1504 Y79.9320
G01 X6.1370 Y79.9198
G01 X6.1275 Y79.9123
G01 X6.0821 Y79.8797
G01 X6.0722 Y79.8736
G01 X6.0621 Y79.8680
G01 X6.0288 Y79.8520
G01 X5.9918 Y79.8263
G01 X5.9607 Y79.7955
G01 X5.9358 Y79.7597
G01 X5.9170 Y79.7193
G01 X5.9055 Y79.6765
G01 X5.9002 Y79.6168
G01 X5.9002 Y77.9467
G01 X5.9055 Y77.8876
G01 X5.9170 Y77.8447
G01 X5.9358 Y77.8043
G01 X5.9607 Y77.7685
G01 X5.9922 Y77.7373
G01 X6.0293 Y77.7112
G01 X6.0621 Y77.6955
G01 X6.0722 Y77.6898
G01 X6.0821 Y77.6837
G01 X6.1226 Y77.6548
G01 X6.1327 Y77.6471
G01 X6.1471 Y77.6347
G01 X6.1561 Y77.6258
G01 X6.1688 Y77.6117
G01 X6.1804 Y77.5966
G01 X6.1874 Y77.5861
G01 X6.2140 Y77.5436
G01 X6.2198 Y77.5329
G01 X6.2250 Y77.5219
G01 X6.2319 Y77.5049
G01 X6.2357 Y77.4933
G01 X6.2404 Y77.4757
G01 X6.2493 Y77.4321
G01 X6.2524 Y77.4136
G01 X6.2540 Y77.3950
G01 X6.2543 Y77.3825
G01 X6.2543 Y76.6193
G01 X6.2536 Y76.6068
G01 X6.2515 Y76.5882
G01 X6.2493 Y76.5759
G01 X6.2391 Y76.5266
G01 X6.2341 Y76.5094
G01 X6.2278 Y76.4926
G01 X6.2204 Y76.4763
G01 X6.2148 Y76.4657
G01 X6.1884 Y76.4229
G01 X6.1817 Y76.4128
G01 X6.1708 Y76.3983
G01 X6.1630 Y76.3891
G01 X6.1547 Y76.3802
G01 X6.1415 Y76.3678
G01 X6.1323 Y76.3600
G01 X6.0866 Y76.3268
G01 X6.0764 Y76.3201
G01 X6.0604 Y76.3111
G01 X6.0283 Y76.2961
G01 X5.9922 Y76.2707
G01 X5.9607 Y76.2395
G01 X5.9358 Y76.2037
G01 X5.9170 Y76.1633
G01 X5.9055 Y76.1205
G01 X5.9002 Y76.0608
G01 X5.9002 Y74.3907
G01 X5.9055 Y74.3316
G01 X5.9170 Y74.2887
G01 X5.9358 Y74.2483
G01 X5.9607 Y74.2125
G01 X5.9930 Y74.1805
G01 X6.0100 Y74.1679
G01 X6.0195 Y74.1600
G01 X6.0285 Y74.1517
G01 X6.0661 Y74.1119
G01 X6.0744 Y74.1026
G01 X6.0858 Y74.0880
G01 X6.0962 Y74.0725
G01 X6.1024 Y74.0618
G01 X6.1081 Y74.0508
G01 X6.1157 Y74.0338
G01 X6.1337 Y73.9820
G01 X6.1391 Y73.9641
G01 X6.1419 Y73.9519
G01 X6.1442 Y73.9397
G01 X6.1458 Y73.9273
G01 X6.1468 Y73.9148
G01 X6.1471 Y73.9024
G01 X6.1465 Y73.8837
G01 X6.1413 Y73.8287
G01 X6.1395 Y73.8165
G01 X6.1372 Y73.8045
G01 X6.1343 Y73.7926
G01 X6.1307 Y73.7809
G01 X6.1244 Y73.7636
G01 X6.1168 Y73.7469
G01 X6.1110 Y73.7360
G01 X6.0872 Y73.6937
G01 X6.0808 Y73.6835
G01 X6.0703 Y73.6688
G01 X6.0587 Y73.6548
G01 X6.0462 Y73.6418
G01 X6.0373 Y73.6336
G01 X6.0233 Y73.6222
G01 X5.9790 Y73.5902
G01 X5.9639 Y73.5806
G01 X5.9481 Y73.5722
G01 X5.9318 Y73.5648
G01 X5.9149 Y73.5587
G01 X5.8977 Y73.5538
G01 X5.8389 Y73.5409
G01 X5.8208 Y73.5385
G01 X5.8026 Y73.5374
G01 X4.6461 Y73.5373
G01 X4.5870 Y73.5324
G01 X4.5448 Y73.5211
G01 X4.5049 Y73.5025
G01 X4.4682 Y73.4767
G01 X4.4367 Y73.4455
G01 X4.4118 Y73.4097
G01 X4.3930 Y73.3693
G01 X4.3815 Y73.3265
G01 X4.3762 Y73.2668
G01 X4.3762 Y71.5967
G01 X4.3815 Y71.5376
G01 X4.3930 Y71.4947
G01 X4.4118 Y71.4543
G01 X4.4367 Y71.4185
G01 X4.4682 Y71.3873
G01 X4.5053 Y71.3612
G01 X4.5381 Y71.3455
G01 X4.5482 Y71.3398
G01 X4.5581 Y71.3337
G01 X4.6037 Y71.3010
G01 X4.6136 Y71.2931
G01 X4.6231 Y71.2847
G01 X4.6321 Y71.2758
G01 X4.6407 Y71.2665
G01 X4.6488 Y71.2567
G01 X4.6564 Y71.2466
G01 X4.6634 Y71.2361
G01 X4.6870 Y71.1989
G01 X4.6930 Y71.1883
G01 X4.6985 Y71.1774
G01 X4.7035 Y71.1663
G01 X4.7079 Y71.1549
G01 X4.7117 Y71.1433
G01 X4.7150 Y71.1316
G01 X4.7253 Y71.0821
G01 X4.7275 Y71.0699
G01 X4.7291 Y71.0576
G01 X4.7300 Y71.0453
G01 X4.7303 Y71.0329
G01 X4.7308 Y70.7211
G01 X4.7371 Y70.6536
G01 X4.7380 Y70.6479
G01 X4.7546 Y70.5811
G01 X4.7558 Y70.5776
G01 X4.7895 Y70.4994
G01 X4.8221 Y70.4455
G01 X4.8257 Y70.4403
G01 X4.8678 Y70.3894
G01 X4.9639 Y70.2929
G01 X4.9760 Y70.2797
G01 X4.9836 Y70.2705
G01 X4.9907 Y70.2609
G01 X5.0160 Y70.2235
G01 X5.0227 Y70.2129
G01 X5.0317 Y70.1966
G01 X5.0371 Y70.1853
G01 X5.0440 Y70.1679
G01 X5.0479 Y70.1560
G01 X5.0512 Y70.1440
G01 X5.0539 Y70.1318
G01 X5.0626 Y70.0868
G01 X5.0650 Y70.0689
G01 X5.0658 Y70.0569
G01 X5.0661 Y70.0449
G01 X5.0659 Y69.3130
G01 X5.0651 Y69.3019
G01 X5.0621 Y69.2736
G01 X5.0596 Y69.2565
G01 X5.0361 Y69.1529
G01 X5.0290 Y69.0592
G01 X5.0290 Y67.6240
G01 X5.0361 Y67.5302
G01 X5.0595 Y67.4269
G01 X5.0613 Y67.4158
G01 X5.0645 Y67.3878
G01 X5.0659 Y67.3710
G01 X5.0666 Y66.7022
G01 X5.0728 Y66.6348
G01 X5.0738 Y66.6291
G01 X5.0904 Y66.5622
G01 X5.0916 Y66.5588
G01 X5.1253 Y66.4806
G01 X5.1578 Y66.4267
G01 X5.1614 Y66.4216
G01 X5.2039 Y66.3703
G01 X5.6608 Y65.9128
G01 X5.6732 Y65.8987
G01 X5.6809 Y65.8888
G01 X5.6880 Y65.8786
G01 X5.7133 Y65.8402
G01 X5.7228 Y65.8238
G01 X5.7284 Y65.8124
G01 X5.7334 Y65.8008
G01 X5.7398 Y65.7829
G01 X5.7433 Y65.7708
G01 X5.7462 Y65.7585
G01 X5.7555 Y65.7134
G01 X5.7581 Y65.6954
G01 X5.7591 Y65.6833
G01 X5.7595 Y65.6712
G01 X5.7594 Y65.6590
G01 X5.7580 Y65.6409
G01 X5.7564 Y65.6289
G01 X5.7542 Y65.6170
G01 X5.7431 Y65.5661
G01 X5.7377 Y65.5481
G01 X5.7308 Y65.5305
G01 X5.7227 Y65.5135
G01 X5.7133 Y65.4972
G01 X5.6880 Y65.4589
G01 X5.6771 Y65.4436
G01 X5.6691 Y65.4339
G01 X5.6607 Y65.4246
G01 X5.6518 Y65.4157
G01 X5.6425 Y65.4073
G01 X5.6328 Y65.3993
G01 X5.6227 Y65.3919
G01 X5.5845 Y65.3665
G01 X5.5684 Y65.3567
G01 X5.5516 Y65.3482
G01 X5.5401 Y65.3432
G01 X5.5283 Y65.3388
G01 X5.5103 Y65.3333
G01 X5.4981 Y65.3304
G01 X5.4531 Y65.3210
G01 X5.4339 Y65.3182
G01 X5.4210 Y65.3172
G01 X5.4080 Y65.3169
G01 X4.1592 Y65.3164
G01 X4.0918 Y65.3102
G01 X4.0861 Y65.3092
G01 X4.0192 Y65.2926
G01 X4.0158 Y65.2914
G01 X3.9377 Y65.2577
G01 X3.8837 Y65.2252
G01 X3.8786 Y65.2216
G01 X3.8274 Y65.1791
G01 X2.5369 Y63.8886
G01 X2.4944 Y63.8374
G01 X2.4908 Y63.8323
G01 X2.4583 Y63.7783
G01 X2.4246 Y63.7002
G01 X2.4234 Y63.6968
G01 X2.4068 Y63.6299
G01 X2.4058 Y63.6242
G01 X2.3996 Y63.5569
G01 X2.3996 Y43.4159
G01 X2.4058 Y43.3486
G01 X2.4068 Y43.3429
G01 X2.4234 Y43.2760
G01 X2.4246 Y43.2726
G01 X2.4583 Y43.1944
G01 X2.4908 Y43.1405
G01 X2.4944 Y43.1354
G01 X2.5369 Y43.0841
G01 X3.2239 Y42.3965
G01 X3.2363 Y42.3824
G01 X3.2440 Y42.3725
G01 X3.2512 Y42.3622
G01 X3.2764 Y42.3239
G01 X3.2828 Y42.3131
G01 X3.2914 Y42.2963
G01 X3.2964 Y42.2848
G01 X3.3008 Y42.2730
G01 X3.3046 Y42.2611
G01 X3.3078 Y42.2489
G01 X3.3173 Y42.2042
G01 X3.3196 Y42.1914
G01 X3.3213 Y42.1786
G01 X3.3226 Y42.1591
G01 X3.3227 Y41.3177
G01 X3.3276 Y41.2586
G01 X3.3389 Y41.2164
G01 X3.3575 Y41.1765
G01 X3.3833 Y41.1398
G01 X3.4145 Y41.1083
G01 X3.4503 Y41.0834
G01 X3.4907 Y41.0646
G01 X3.5335 Y41.0531
G01 X3.5932 Y41.0478
G01 X5.2628 Y41.0478
G01 X5.3225 Y41.0531
G01 X5.3653 Y41.0646
G01 X5.4057 Y41.0834
G01 X5.4415 Y41.1083
G01 X5.4728 Y41.1399
G01 X5.4975 Y41.1747
G01 X5.5051 Y41.1844
G01 X5.5132 Y41.1937
G01 X5.5439 Y41.2259
G01 X5.5572 Y41.2382
G01 X5.5665 Y41.2458
G01 X5.5761 Y41.2530
G01 X5.5861 Y41.2597
G01 X5.5964 Y41.2659
G01 X5.6415 Y41.2891
G01 X5.6586 Y41.2965
G01 X5.6762 Y41.3026
G01 X5.6881 Y41.3059
G01 X5.7002 Y41.3086
G01 X5.7444 Y41.3164
G01 X5.7628 Y41.3184
G01 X5.7813 Y41.3191
G01 X5.9835 Y41.3191
G01 X6.0025 Y41.3184
G01 X6.0214 Y41.3162
G01 X6.0339 Y41.3140
G01 X6.0897 Y41.3010
G01 X6.1014 Y41.2977
G01 X6.1129 Y41.2938
G01 X6.1242 Y41.2893
G01 X6.1353 Y41.2844
G01 X6.1461 Y41.2788
G01 X6.1567 Y41.2728
G01 X6.1669 Y41.2662
G01 X6.1768 Y41.2592
G01 X6.2219 Y41.2238
G01 X6.2310 Y41.2159
G01 X6.2396 Y41.2077
G01 X6.2519 Y41.1945
G01 X6.2636 Y41.1800
G01 X6.3653 Y41.0814
G01 X6.4034 Y41.0409
G01 X6.4111 Y41.0316
G01 X6.4217 Y41.0169
G01 X6.4313 Y41.0014
G01 X6.4370 Y40.9908
G01 X6.4422 Y40.9799
G01 X6.4606 Y40.9337
G01 X6.4649 Y40.9220
G01 X6.4702 Y40.9041
G01 X6.4741 Y40.8858
G01 X6.4766 Y40.8674
G01 X6.4778 Y40.8487
G01 X6.4778 Y40.8055
G01 X6.4772 Y40.7868
G01 X6.4751 Y40.7683
G01 X6.4716 Y40.7500
G01 X6.4668 Y40.7319
G01 X6.4606 Y40.7143
G01 X6.4447 Y40.6737
G01 X6.4397 Y40.6626
G01 X6.4342 Y40.6518
G01 X6.4250 Y40.6361
G01 X6.4183 Y40.6261
G01 X6.4110 Y40.6163
G01 X6.3993 Y40.6024
G01 X6.3705 Y40.5707
G01 X6.2621 Y40.4664
G01 X6.1889 Y40.3757
G01 X6.1270 Y40.2755
G01 X6.0779 Y40.1690
G01 X6.0425 Y40.0570
G01 X6.0214 Y39.9453
G01 X6.0188 Y39.9333
G01 X6.0157 Y39.9215
G01 X6.0120 Y39.9099
G01 X6.0077 Y39.8984
G01 X5.9855 Y39.8469
G01 X5.9770 Y39.8301
G01 X5.9672 Y39.8139
G01 X5.9600 Y39.8036
G01 X5.9483 Y39.7888
G01 X5.9398 Y39.7794
G01 X5.9309 Y39.7705
G01 X5.8938 Y39.7368
G01 X5.8793 Y39.7246
G01 X5.8639 Y39.7136
G01 X5.8532 Y39.7069
G01 X5.8366 Y39.6979
G01 X5.8251 Y39.6926
G01 X5.8075 Y39.6857
G01 X5.7539 Y39.6687
G01 X5.7419 Y39.6656
G01 X5.7298 Y39.6630
G01 X5.7175 Y39.6610
G01 X5.7051 Y39.6597
G01 X5.6927 Y39.6590
G01 X5.6803 Y39.6589
G01 X5.6679 Y39.6594
G01 X5.6555 Y39.6605
G01 X5.6062 Y39.6674
G01 X5.5879 Y39.6707
G01 X5.5758 Y39.6736
G01 X5.5639 Y39.6771
G01 X5.5522 Y39.6813
G01 X5.5407 Y39.6860
G01 X5.5295 Y39.6912
G01 X5.5131 Y39.7002
G01 X5.4707 Y39.7268
G01 X5.4595 Y39.7343
G01 X5.4049 Y39.7730
G01 X5.3653 Y39.7914
G01 X5.3225 Y39.8029
G01 X5.2628 Y39.8082
G01 X5.1667 Y39.8082
G01 X5.1667 Y39.8030
G01 X5.2846 Y39.8029
G01 X5.3030 Y39.8018
G01 X5.3152 Y39.8003
G01 X5.3273 Y39.7982
G01 X5.3392 Y39.7955
G01 X5.3511 Y39.7922
G01 X5.3627 Y39.7884
G01 X5.3742 Y39.7840
G01 X5.3854 Y39.7790
G01 X5.3963 Y39.7735
G01 X5.4070 Y39.7674
G01 X5.4174 Y39.7609
G01 X5.4323 Y39.7501
G01 X5.4418 Y39.7423
G01 X5.4553 Y39.7298
G01 X5.4637 Y39.7209
G01 X5.4756 Y39.7068
G01 X5.4829 Y39.6970
G01 X5.4897 Y39.6867
G01 X5.4960 Y39.6762
G01 X5.5018 Y39.6654
G01 X5.5095 Y39.6487
G01 X5.5139 Y39.6372
G01 X5.5194 Y39.6197
G01 X5.5224 Y39.6078
G01 X5.5258 Y39.5897
G01 X5.5273 Y39.5775
G01 X5.5282 Y39.5645
G01 X5.8133 Y39.5645
G01 X5.8308 Y39.5639
G01 X5.8483 Y39.5620
G01 X5.9032 Y39.5518
G01 X5.9206 Y39.5474
G01 X5.9377 Y39.5418
G01 X5.9543 Y39.5350
G01 X5.9703 Y39.5270
G01 X5.9858 Y39.5179
G01 X6.0183 Y39.4970
G01 X6.0337 Y39.4863
G01 X6.0483 Y39.4744
G01 X6.0575 Y39.4659
G01 X6.0663 Y39.4570
G01 X6.0786 Y39.4428
G01 X6.0862 Y39.4328
G01 X6.1153 Y39.3919
G01 X6.1891 Y39.2725
G01 X6.2626 Y39.1810
G01 X6.3616 Y39.0852
G01 X6.4034 Y39.0410
G01 X6.4147 Y39.0268
G01 X6.4217 Y39.0169
G01 X6.4282 Y39.0067
G01 X6.4370 Y38.9908
G01 X6.4422 Y38.9799
G01 X6.4469 Y38.9687
G01 X6.4649 Y38.9220
G01 X6.4702 Y38.9041
G01 X6.4741 Y38.8858
G01 X6.4759 Y38.8736
G01 X6.4775 Y38.8550
G01 X6.4778 Y38.8425
G01 X6.4778 Y38.7992
G01 X6.4766 Y38.7806
G01 X6.4751 Y38.7683
G01 X6.4716 Y38.7500
G01 X6.4686 Y38.7379
G01 X6.4649 Y38.7260
G01 X6.4606 Y38.7143
G01 X6.4447 Y38.6737
G01 X6.4370 Y38.6572
G01 X6.4282 Y38.6413
G01 X6.4217 Y38.6310
G01 X6.4147 Y38.6211
G01 X6.4033 Y38.6069
G01 X6.3744 Y38.5750
G01 X6.3623 Y38.5625
G01 X6.2621 Y38.4664
G01 X6.1903 Y38.3773
G01 X6.1835 Y38.3661
G01 X6.1769 Y38.3561
G01 X6.1660 Y38.3417
G01 X6.1583 Y38.3326
G01 X6.1196 Y38.2928
G01 X6.1106 Y38.2842
G01 X6.0964 Y38.2720
G01 X6.0813 Y38.2610
G01 X6.0708 Y38.2543
G01 X6.0600 Y38.2481
G01 X6.0489 Y38.2424
G01 X6.0375 Y38.2374
G01 X5.9851 Y38.2171
G01 X5.9732 Y38.2131
G01 X5.9549 Y38.2083
G01 X5.9425 Y38.2059
G01 X5.9301 Y38.2041
G01 X5.9175 Y38.2030
G01 X5.9049 Y38.2024
G01 X5.8860 Y38.2028
G01 X5.8428 Y38.2054
G01 X5.8248 Y38.2071
G01 X5.8128 Y38.2090
G01 X5.7951 Y38.2129
G01 X5.7776 Y38.2180
G01 X5.7663 Y38.2222
G01 X5.7551 Y38.2269
G01 X5.7442 Y38.2321
G01 X5.6898 Y38.2617
G01 X5.6796 Y38.2681
G01 X5.6651 Y38.2787
G01 X5.6558 Y38.2863
G01 X5.6469 Y38.2944
G01 X5.6383 Y38.3029
G01 X5.6302 Y38.3117
G01 X5.6226 Y38.3210
G01 X5.6128 Y38.3340
G01 X5.5282 Y38.3340
G01 X5.5273 Y38.3210
G01 X5.5258 Y38.3088
G01 X5.5224 Y38.2907
G01 X5.5194 Y38.2788
G01 X5.5139 Y38.2613
G01 X5.5095 Y38.2498
G01 X5.5018 Y38.2331
G01 X5.4960 Y38.2223
G01 X5.4897 Y38.2117
G01 X5.4793 Y38.1966
G01 X5.4718 Y38.1869
G01 X5.4596 Y38.1731
G01 X5.4464 Y38.1602
G01 X5.4371 Y38.1522
G01 X5.4274 Y38.1447
G01 X5.4174 Y38.1376
G01 X5.4070 Y38.1310
G01 X5.3963 Y38.1250
G01 X5.3854 Y38.1195
G01 X5.3685 Y38.1122
G01 X5.3569 Y38.1081
G01 X5.3452 Y38.1045
G01 X5.3333 Y38.1016
G01 X5.3212 Y38.0992
G01 X5.3030 Y38.0967
G01 X5.2846 Y38.0956
G01 X5.1667 Y38.0955
G01 X5.1667 Y38.0902
G01 X5.2628 Y38.0902
G01 X5.3225 Y38.0955
G01 X5.3653 Y38.1070
G01 X5.4053 Y38.1256
G01 X5.4623 Y38.1657
G01 X5.4719 Y38.1721
G01 X5.4818 Y38.1781
G01 X5.4920 Y38.1836
G01 X5.5024 Y38.1887
G01 X5.5369 Y38.2044
G01 X5.5537 Y38.2113
G01 X5.5651 Y38.2152
G01 X5.5767 Y38.2186
G01 X5.5944 Y38.2226
G01 X5.6064 Y38.2245
G01 X5.6244 Y38.2264
G01 X5.6743 Y38.2284
G01 X5.6933 Y38.2280
G01 X5.7059 Y38.2269
G01 X5.7184 Y38.2252
G01 X5.7370 Y38.2214
G01 X5.7553 Y38.2163
G01 X5.7971 Y38.2026
G01 X5.8083 Y38.1984
G01 X5.8194 Y38.1935
G01 X5.8302 Y38.1882
G01 X5.8408 Y38.1824
G01 X5.8561 Y38.1726
G01 X5.8658 Y38.1655
G01 X5.9088 Y38.1296
G01 X5.9221 Y38.1170
G01 X5.9304 Y38.1081
G01 X5.9420 Y38.0940
G01 X5.9491 Y38.0842
G01 X5.9558 Y38.0740
G01 X5.9831 Y38.0251
G01 X5.9908 Y38.0089
G01 X5.9953 Y37.9978
G01 X6.0011 Y37.9807
G01 X6.0043 Y37.9691
G01 X6.0068 Y37.9574
G01 X6.0089 Y37.9455
G01 X6.0142 Y37.9020
G01 X6.0157 Y37.8847
G01 X6.0161 Y37.8731
G01 X6.0159 Y37.8616
G01 X6.0135 Y37.8237
G01 X6.0207 Y37.7071
G01 X6.0425 Y37.5913
G01 X6.0780 Y37.4789
G01 X6.1269 Y37.3727
G01 X6.1889 Y37.2728
G01 X6.2632 Y37.1802
G01 X6.3898 Y37.0560
G01 X6.4022 Y37.0429
G01 X6.4100 Y37.0336
G01 X6.4207 Y37.0191
G01 X6.4273 Y37.0090
G01 X6.4334 Y36.9986
G01 X6.4390 Y36.9879
G01 X6.4464 Y36.9714
G01 X6.4638 Y36.9251
G01 X6.4692 Y36.9079
G01 X6.4720 Y36.8962
G01 X6.4753 Y36.8785
G01 X6.4772 Y36.8605
G01 X6.4778 Y36.8425
G01 X6.4778 Y36.7995
G01 X6.4772 Y36.7875
G01 X6.4760 Y36.7755
G01 X6.4743 Y36.7636
G01 X6.4707 Y36.7460
G01 X6.4675 Y36.7344
G01 X6.4638 Y36.7230
G01 X6.4464 Y36.6766
G01 X6.4390 Y36.6601
G01 X6.4334 Y36.6494
G01 X6.4273 Y36.6389
G01 X6.4172 Y36.6239
G01 X6.4061 Y36.6096
G01 X6.3981 Y36.6005
G01 X6.3727 Y36.5731
G01 X6.3623 Y36.5625
G01 X6.2627 Y36.4670
G01 X6.2453 Y36.4456
G01 X6.2323 Y36.4320
G01 X6.2184 Y36.4194
G01 X6.1737 Y36.3838
G01 X6.1590 Y36.3734
G01 X6.1436 Y36.3642
G01 X6.1330 Y36.3586
G01 X6.1221 Y36.3536
G01 X6.1110 Y36.3491
G01 X6.0939 Y36.3433
G01 X6.0765 Y36.3388
G01 X6.0328 Y36.3292
G01 X6.0214 Y36.3269
G01 X6.0098 Y36.3252
G01 X5.9981 Y36.3240
G01 X5.9806 Y36.3233
G01 X5.8266 Y36.3223
G01 X5.8145 Y36.3225
G01 X5.8025 Y36.3233
G01 X5.7845 Y36.3256
G01 X5.7349 Y36.3350
G01 X5.7169 Y36.3396
G01 X5.7051 Y36.3433
G01 X5.6878 Y36.3501
G01 X5.6765 Y36.3553
G01 X5.6656 Y36.3611
G01 X5.6549 Y36.3674
G01 X5.6121 Y36.3945
G01 X5.5973 Y36.4056
G01 X5.5834 Y36.4178
G01 X5.5704 Y36.4310
G01 X5.5584 Y36.4451
G01 X5.5287 Y36.4865
G01 X5.5216 Y36.4970
G01 X5.5121 Y36.5133
G01 X5.4989 Y36.5405
G01 X5.4727 Y36.5778
G01 X5.4415 Y36.6093
G01 X5.4057 Y36.6342
G01 X5.3653 Y36.6530
G01 X5.3225 Y36.6645
G01 X5.2628 Y36.6698
G01 X3.5932 Y36.6698
G01 X3.5335 Y36.6645
G01 X3.4908 Y36.6530
G01 X3.4503 Y36.6342
G01 X3.4145 Y36.6093
G01 X3.3833 Y36.5778
G01 X3.3575 Y36.5411
G01 X3.3389 Y36.5012
G01 X3.3276 Y36.4590
G01 X3.3227 Y36.3999
G01 X3.3227 Y35.2217
G01 X3.3276 Y35.1626
G01 X3.3389 Y35.1204
G01 X3.3575 Y35.0805
G01 X3.3833 Y35.0438
G01 X3.4145 Y35.0123
G01 X3.4503 Y34.9874
G01 X3.4907 Y34.9686
G01 X3.5335 Y34.9571
G01 X3.5932 Y34.9518
G01 X5.2628 Y34.9518
G01 X5.3225 Y34.9571
G01 X5.3653 Y34.9686
G01 X5.4057 Y34.9874
G01 X5.4415 Y35.0123
G01 X5.4727 Y35.0438
G01 X5.4981 Y35.0799
G01 X5.5162 Y35.1187
G01 X5.5221 Y35.1294
G01 X5.5285 Y35.1398
G01 X5.5354 Y35.1498
G01 X5.5615 Y35.1859
G01 X5.5694 Y35.1958
G01 X5.5778 Y35.2053
G01 X5.5867 Y35.2143
G01 X5.6009 Y35.2270
G01 X5.6108 Y35.2348
G01 X5.6212 Y35.2422
G01 X5.6638 Y35.2693
G01 X5.6804 Y35.2784
G01 X5.6919 Y35.2837
G01 X5.7036 Y35.2885
G01 X5.7155 Y35.2927
G01 X5.7276 Y35.2963
G01 X5.7398 Y35.2993
G01 X5.7900 Y35.3088
G01 X5.8027 Y35.3105
G01 X5.8156 Y35.3116
G01 X5.8285 Y35.3120
G01 X5.9925 Y35.3130
G01 X6.0057 Y35.3124
G01 X6.0188 Y35.3111
G01 X6.0553 Y35.3056
G01 X6.0679 Y35.3033
G01 X6.0804 Y35.3004
G01 X6.0927 Y35.2969
G01 X6.1048 Y35.2927
G01 X6.1226 Y35.2853
G01 X6.1556 Y35.2699
G01 X6.1666 Y35.2642
G01 X6.1825 Y35.2545
G01 X6.1976 Y35.2437
G01 X6.2119 Y35.2318
G01 X6.2209 Y35.2233
G01 X6.3906 Y35.0552
G01 X6.3989 Y35.0466
G01 X6.4067 Y35.0376
G01 X6.4142 Y35.0282
G01 X6.4244 Y35.0136
G01 X6.4307 Y35.0034
G01 X6.4364 Y34.9930
G01 X6.4441 Y34.9768
G01 X6.4618 Y34.9307
G01 X6.4658 Y34.9193
G01 X6.4692 Y34.9078
G01 X6.4720 Y34.8962
G01 X6.4743 Y34.8844
G01 X6.4760 Y34.8725
G01 X6.4773 Y34.8593
G01 X6.4908 Y34.8673
G01 X6.5077 Y34.8757
G01 X6.5193 Y34.8806
G01 X6.5371 Y34.8868
G01 X6.5792 Y34.8988
G01 X6.5911 Y34.9018
G01 X6.6093 Y34.9053
G01 X6.6216 Y34.9068
G01 X6.6339 Y34.9078
G01 X6.6524 Y34.9081
G01 X6.6647 Y34.9075
G01 X6.7194 Y34.9021
G01 X6.7308 Y34.9002
G01 X6.7421 Y34.8978
G01 X6.7646 Y34.8915
G01 X6.8796 Y34.8736
G01 X6.9974 Y34.8703
G01 X7.1145 Y34.8808
G01 X7.2038 Y34.9007
G01 X7.2164 Y34.9031
G01 X7.2290 Y34.9049
G01 X7.2417 Y34.9061
G01 X7.2609 Y34.9066
G01 X7.3061 Y34.9061
G01 X7.3247 Y34.9052
G01 X7.3432 Y34.9029
G01 X7.3554 Y34.9006
G01 X7.3675 Y34.8977
G01 X7.3853 Y34.8923
G01 X7.4026 Y34.8855
G01 X7.4541 Y34.8605
G01 X7.4702 Y34.8518
G01 X7.4856 Y34.8419
G01 X7.5003 Y34.8310
G01 X7.5096 Y34.8231
G01 X7.5185 Y34.8148
G01 X7.5311 Y34.8015
G01 X7.5669 Y34.7570
G01 X7.5779 Y34.7421
G01 X7.5878 Y34.7263
G01 X7.5938 Y34.7154
G01 X7.5992 Y34.7042
G01 X7.6040 Y34.6928
G01 X7.6082 Y34.6811
G01 X7.6135 Y34.6633
G01 X7.6252 Y34.6131
G01 X7.6287 Y34.5946
G01 X7.6308 Y34.5759
G01 X7.6314 Y34.5633
G01 X7.6315 Y34.5036
G01 X7.6398 Y34.4958
G01 X7.6479 Y34.4872
G01 X7.6659 Y34.4857
G01 X7.6779 Y34.4839
G01 X7.7287 Y34.4739
G01 X7.7408 Y34.4708
G01 X7.7528 Y34.4672
G01 X7.7645 Y34.4630
G01 X7.7817 Y34.4556
G01 X7.7929 Y34.4499
G01 X7.8090 Y34.4404
G01 X7.8473 Y34.4146
G01 X7.8618 Y34.4039
G01 X7.8711 Y34.3963
G01 X7.8800 Y34.3882
G01 X7.8884 Y34.3797
G01 X7.8965 Y34.3708
G01 X7.9041 Y34.3615
G01 X7.9113 Y34.3519
G01 X7.9398 Y34.3094
G01 X7.9461 Y34.2990
G01 X7.9545 Y34.2830
G01 X7.9594 Y34.2720
G01 X7.9638 Y34.2607
G01 X7.9677 Y34.2493
G01 X7.9710 Y34.2377
G01 X7.9831 Y34.1805
G01 X7.9858 Y34.1615
G01 X7.9868 Y34.1487
G01 X7.9871 Y34.1359
G01 X7.9870 Y33.5057
G01 X7.9858 Y33.4865
G01 X7.9831 Y33.4675
G01 X7.9725 Y33.4162
G01 X7.9694 Y33.4045
G01 X7.9658 Y33.3930
G01 X7.9617 Y33.3816
G01 X7.9570 Y33.3705
G01 X7.9518 Y33.3596
G01 X7.9461 Y33.3490
G01 X7.9365 Y33.3336
G01 X7.9113 Y33.2961
G01 X7.9004 Y33.2818
G01 X7.8925 Y33.2727
G01 X7.8842 Y33.2640
G01 X7.8711 Y33.2517
G01 X7.8570 Y33.2404
G01 X7.8142 Y33.2111
G01 X7.8037 Y33.2043
G01 X7.7873 Y33.1952
G01 X7.7703 Y33.1874
G01 X7.7527 Y33.1808
G01 X7.7408 Y33.1772
G01 X7.7287 Y33.1741
G01 X7.6779 Y33.1641
G01 X7.6659 Y33.1623
G01 X7.6479 Y33.1608
G01 X7.6398 Y33.1522
G01 X7.6315 Y33.1444
G01 X7.6315 Y32.7587
G01 X7.6312 Y32.7463
G01 X7.6303 Y32.7339
G01 X7.6265 Y32.7033
G01 X7.6235 Y32.6849
G01 X7.6208 Y32.6728
G01 X7.6155 Y32.6549
G01 X7.6112 Y32.6432
G01 X7.6000 Y32.6146
G01 X7.5955 Y32.6044
G01 X7.5760 Y32.5670
G01 X7.5495 Y32.5025
G01 X7.5303 Y32.4180
G01 X7.5248 Y32.3597
G01 X7.5242 Y31.6611
G01 X7.5231 Y31.6425
G01 X7.5205 Y31.6240
G01 X7.5117 Y31.5803
G01 X7.5074 Y31.5625
G01 X7.5039 Y31.5509
G01 X7.4975 Y31.5337
G01 X7.4898 Y31.5171
G01 X7.4840 Y31.5064
G01 X7.4574 Y31.4639
G01 X7.4504 Y31.4534
G01 X7.4388 Y31.4383
G01 X7.4305 Y31.4288
G01 X7.4171 Y31.4153
G01 X7.4027 Y31.4029
G01 X7.3926 Y31.3952
G01 X7.3569 Y31.3695
G01 X7.3422 Y31.3602
G01 X7.3321 Y31.3545
G01 X7.2993 Y31.3388
G01 X7.2622 Y31.3127
G01 X7.2303 Y31.2810
G01 X7.1703 Y31.1959
G01 X7.1588 Y31.1808
G01 X7.1505 Y31.1712
G01 X7.1417 Y31.1621
G01 X7.1277 Y31.1492
G01 X7.1178 Y31.1413
G01 X7.1023 Y31.1303
G01 X7.0703 Y31.1095
G01 X7.0599 Y31.1031
G01 X7.0493 Y31.0972
G01 X7.0328 Y31.0894
G01 X7.0215 Y31.0849
G01 X7.0042 Y31.0791
G01 X6.9865 Y31.0746
G01 X6.9429 Y31.0663
G01 X6.9306 Y31.0643
G01 X6.9120 Y31.0624
G01 X6.8995 Y31.0620
G01 X6.8808 Y31.0624
G01 X6.8622 Y31.0643
G01 X6.8499 Y31.0663
G01 X6.8063 Y31.0746
G01 X6.7886 Y31.0791
G01 X6.7713 Y31.0849
G01 X6.7544 Y31.0919
G01 X6.7381 Y31.1001
G01 X6.7225 Y31.1095
G01 X6.6854 Y31.1337
G01 X6.6754 Y31.1409
G01 X6.6611 Y31.1527
G01 X6.6477 Y31.1654
G01 X6.6394 Y31.1744
G01 X6.6315 Y31.1838
G01 X6.6240 Y31.1936
G01 X6.5979 Y31.2300
G01 X6.5909 Y31.2409
G01 X6.5844 Y31.2522
G01 X6.5641 Y31.2942
G01 X6.5383 Y31.3312
G01 X6.5072 Y31.3623
G01 X6.4710 Y31.3875
G01 X6.4305 Y31.4064
G01 X6.3877 Y31.4179
G01 X6.3286 Y31.4231
G01 X5.6543 Y31.4231
G01 X5.6352 Y31.4239
G01 X5.6225 Y31.4252
G01 X5.6036 Y31.4283
G01 X5.5561 Y31.4383
G01 X5.5388 Y31.4429
G01 X5.5275 Y31.4467
G01 X5.5164 Y31.4511
G01 X5.5001 Y31.4585
G01 X5.4844 Y31.4672
G01 X5.4694 Y31.4769
G01 X5.4300 Y31.5058
G01 X5.4201 Y31.5134
G01 X5.4106 Y31.5216
G01 X5.4016 Y31.5302
G01 X5.3888 Y31.5439
G01 X5.3771 Y31.5585
G01 X5.3665 Y31.5740
G01 X5.3602 Y31.5847
G01 X5.3336 Y31.6326
G01 X5.3260 Y31.6493
G01 X5.3197 Y31.6665
G01 X5.3146 Y31.6841
G01 X5.3109 Y31.7021
G01 X5.3084 Y31.7202
G01 X5.3039 Y31.7686
G01 X5.3032 Y31.7874
G01 X5.3040 Y31.8062
G01 X5.3062 Y31.8248
G01 X5.3084 Y31.8371
G01 X5.3129 Y31.8554
G01 X5.3167 Y31.8673
G01 X5.3304 Y31.9074
G01 X5.3372 Y31.9251
G01 X5.3453 Y31.9421
G01 X5.3546 Y31.9585
G01 X5.3615 Y31.9690
G01 X5.3690 Y31.9792
G01 X5.3769 Y31.9890
G01 X5.3853 Y31.9983
G01 X5.4728 Y32.0864
G01 X5.4985 Y32.1229
G01 X5.5171 Y32.1629
G01 X5.5285 Y32.2050
G01 X5.5312 Y32.2380
G01 X5.5282 Y32.2380
G00 Z2.0000
G00 X6.2838 Y33.1605
G01 F30.00
G01 Z-0.5000
G01 F60.00
G01 X6.3045 Y33.1405
G01 X6.3045 Y33.1444
G01 X6.2962 Y33.1522
G01 X6.2884 Y33.1605
G01 X6.2838 Y33.1605
G00 Z2.0000
G00 X5.3167 Y33.7074
G01 F30.00
G01 Z-0.5000
G01 F60.00
G01 X5.2628 Y33.7122
G01 X5.1667 Y33.7122
G01 X5.1667 Y33.7070
G01 X5.2846 Y33.7070
G01 X5.3030 Y33.7058
G01 X5.3169 Y33.7040
G01 X5.3167 Y33.7074
G00 Z2.0000
G00 X6.3045 Y34.5071
G01 F30.00
G01 Z-0.5000
G01 F60.00
G01 X6.2841 Y34.4875
G01 X6.2884 Y34.4875
G01 X6.2962 Y34.4958
G01 X6.3045 Y34.5036
G01 X6.3045 Y34.5071
G00 Z2.0000
G00 X6.1581 Y36.3191
G01 F30.00
G01 Z-0.5000
G01 F60.00
G01 X5.5285 Y36.3159
G01 X5.5284 Y36.4207
G01 X5.5273 Y36.4390
G01 X5.5248 Y36.4573
G01 X5.5224 Y36.4693
G01 X5.5194 Y36.4812
G01 X5.5159 Y36.4930
G01 X5.5117 Y36.5045
G01 X5.5071 Y36.5159
G01 X5.5018 Y36.5269
G01 X5.4960 Y36.5378
G01 X5.4897 Y36.5483
G01 X5.4829 Y36.5585
G01 X5.4718 Y36.5731
G01 X5.4637 Y36.5824
G01 X5.4553 Y36.5913
G01 X5.4464 Y36.5998
G01 X5.4323 Y36.6116
G01 X5.4225 Y36.6189
G01 X5.4122 Y36.6258
G01 X5.4017 Y36.6321
G01 X5.3909 Y36.6378
G01 X5.3798 Y36.6431
G01 X5.3627 Y36.6499
G01 X5.3452 Y36.6555
G01 X5.3333 Y36.6585
G01 X5.3212 Y36.6609
G01 X5.3091 Y36.6627
G01 X5.2908 Y36.6642
G01 X5.2785 Y36.6645
G01 X3.5775 Y36.6645
G01 X3.5652 Y36.6642
G01 X3.5469 Y36.6627
G01 X3.5348 Y36.6609
G01 X3.5227 Y36.6585
G01 X3.5108 Y36.6555
G01 X3.4991 Y36.6519
G01 X3.4875 Y36.6478
G01 X3.4762 Y36.6431
G01 X3.4597 Y36.6350
G01 X3.4490 Y36.6290
G01 X3.4335 Y36.6189
G01 X3.4189 Y36.6078
G01 X3.4096 Y36.5998
G01 X3.3964 Y36.5869
G01 X3.3842 Y36.5731
G01 X3.3731 Y36.5585
G01 X3.3663 Y36.5483
G01 X3.3570 Y36.5324
G01 X3.3489 Y36.5159
G01 X3.3421 Y36.4988
G01 X3.3383 Y36.4871
G01 X3.3336 Y36.4693
G01 X3.3302 Y36.4512
G01 X3.3282 Y36.4329
G01 X3.3275 Y36.4145
G01 X3.3276 Y35.2009
G01 X3.3282 Y35.1886
G01 X3.3294 Y35.1764
G01 X3.3312 Y35.1643
G01 X3.3336 Y35.1523
G01 X3.3366 Y35.1404
G01 X3.3401 Y35.1286
G01 X3.3443 Y35.1171
G01 X3.3489 Y35.1057
G01 X3.3542 Y35.0946
G01 X3.3631 Y35.0785
G01 X3.3731 Y35.0631
G01 X3.3842 Y35.0484
G01 X3.3964 Y35.0347
G01 X3.4051 Y35.0260
G01 X3.4189 Y35.0138
G01 X3.4335 Y35.0026
G01 X3.4490 Y34.9926
G01 X3.4651 Y34.9837
G01 X3.4762 Y34.9785
G01 X3.4933 Y34.9717
G01 X3.5108 Y34.9661
G01 X3.5227 Y34.9631
G01 X3.5408 Y34.9597
G01 X3.5591 Y34.9577
G01 X3.5775 Y34.9570
G01 X5.2785 Y34.9570
G01 X5.2969 Y34.9577
G01 X5.3091 Y34.9589
G01 X5.3212 Y34.9607
G01 X5.3333 Y34.9631
G01 X5.3511 Y34.9678
G01 X5.3685 Y34.9738
G01 X5.3798 Y34.9785
G01 X5.3963 Y34.9866
G01 X5.4070 Y34.9926
G01 X5.4225 Y35.0026
G01 X5.4323 Y35.0100
G01 X5.4418 Y35.0177
G01 X5.4553 Y35.0303
G01 X5.4637 Y35.0392
G01 X5.4718 Y35.0484
G01 X5.4793 Y35.0581
G01 X5.4897 Y35.0733
G01 X5.4960 Y35.0838
G01 X5.5018 Y35.0946
G01 X5.5071 Y35.1057
G01 X5.5139 Y35.1228
G01 X5.5177 Y35.1345
G01 X5.5210 Y35.1463
G01 X5.5237 Y35.1583
G01 X5.5258 Y35.1704
G01 X5.5278 Y35.1886
G01 X5.5284 Y35.2009
G01 X5.5285 Y35.3157
G01 X6.1642 Y35.3188
G01 X6.1748 Y35.3014
G01 X6.1816 Y35.2911
G01 X6.2298 Y35.2261
G01 X6.2417 Y35.2120
G01 X6.2878 Y35.1611
G01 X6.3006 Y35.1480
G01 X6.3560 Y35.0977
G01 X6.3653 Y35.0896
G01 X6.3750 Y35.0821
G01 X6.4302 Y35.0412
G01 X6.4402 Y35.0341
G01 X6.4506 Y35.0275
G01 X6.5095 Y34.9922
G01 X6.5202 Y34.9862
G01 X6.5311 Y34.9807
G01 X6.5932 Y34.9513
G01 X6.6045 Y34.9463
G01 X6.6159 Y34.9419
G01 X6.6806 Y34.9188
G01 X6.6922 Y34.9149
G01 X6.7041 Y34.9116
G01 X6.7707 Y34.8949
G01 X6.7827 Y34.8923
G01 X6.7948 Y34.8902
G01 X6.8627 Y34.8801
G01 X6.8749 Y34.8786
G01 X6.8871 Y34.8777
G01 X6.9557 Y34.8743
G01 X6.9680 Y34.8740
G01 X6.9803 Y34.8743
G01 X7.0550 Y34.8780
G01 X7.0733 Y34.8801
G01 X7.1412 Y34.8902
G01 X7.1533 Y34.8923
G01 X7.1653 Y34.8949
G01 X7.2319 Y34.9116
G01 X7.2438 Y34.9149
G01 X7.2554 Y34.9188
G01 X7.3201 Y34.9419
G01 X7.3315 Y34.9463
G01 X7.3428 Y34.9513
G01 X7.4049 Y34.9807
G01 X7.4158 Y34.9862
G01 X7.4265 Y34.9922
G01 X7.4854 Y35.0275
G01 X7.4958 Y35.0341
G01 X7.5058 Y35.0412
G01 X7.5610 Y35.0821
G01 X7.5707 Y35.0896
G01 X7.5800 Y35.0977
G01 X7.6309 Y35.1438
G01 X7.6398 Y35.1522
G01 X7.6482 Y35.1611
G01 X7.6943 Y35.2120
G01 X7.7024 Y35.2213
G01 X7.7099 Y35.2310
G01 X7.7508 Y35.2862
G01 X7.7612 Y35.3014
G01 X7.7998 Y35.3655
G01 X7.8058 Y35.3762
G01 X7.8113 Y35.3871
G01 X7.8407 Y35.4492
G01 X7.8457 Y35.4605
G01 X7.8501 Y35.4719
G01 X7.8732 Y35.5366
G01 X7.8771 Y35.5482
G01 X7.8804 Y35.5601
G01 X7.8971 Y35.6267
G01 X7.8997 Y35.6387
G01 X7.9018 Y35.6508
G01 X7.9119 Y35.7187
G01 X7.9134 Y35.7309
G01 X7.9143 Y35.7431
G01 X7.9177 Y35.8117
G01 X7.9180 Y35.8240
G01 X7.9177 Y35.8363
G01 X7.9143 Y35.9049
G01 X7.9134 Y35.9171
G01 X7.9119 Y35.9293
G01 X7.9018 Y35.9972
G01 X7.8997 Y36.0093
G01 X7.8971 Y36.0213
G01 X7.8804 Y36.0879
G01 X7.8771 Y36.0998
G01 X7.8732 Y36.1114
G01 X7.8501 Y36.1761
G01 X7.8457 Y36.1875
G01 X7.8407 Y36.1988
G01 X7.8113 Y36.2609
G01 X7.8058 Y36.2718
G01 X7.7998 Y36.2825
G01 X7.7645 Y36.3414
G01 X7.7579 Y36.3518
G01 X7.7508 Y36.3618
G01 X7.7099 Y36.4170
G01 X7.7024 Y36.4267
G01 X7.6943 Y36.4360
G01 X7.6482 Y36.4869
G01 X7.6398 Y36.4958
G01 X7.6309 Y36.5042
G01 X7.5800 Y36.5503
G01 X7.5707 Y36.5584
G01 X7.5610 Y36.5659
G01 X7.5058 Y36.6068
G01 X7.4906 Y36.6172
G01 X7.4265 Y36.6558
G01 X7.4158 Y36.6618
G01 X7.4049 Y36.6673
G01 X7.3428 Y36.6967
G01 X7.3315 Y36.7017
G01 X7.3201 Y36.7061
G01 X7.2554 Y36.7292
G01 X7.2438 Y36.7331
G01 X7.2319 Y36.7364
G01 X7.1653 Y36.7531
G01 X7.1533 Y36.7557
G01 X7.1412 Y36.7578
G01 X7.0733 Y36.7679
G01 X7.0611 Y36.7694
G01 X7.0489 Y36.7703
G01 X6.9803 Y36.7737
G01 X6.9680 Y36.7740
G01 X6.9557 Y36.7737
G01 X6.8871 Y36.7703
G01 X6.8749 Y36.7694
G01 X6.8627 Y36.7679
G01 X6.7948 Y36.7578
G01 X6.7767 Y36.7545
G01 X6.7041 Y36.7364
G01 X6.6922 Y36.7331
G01 X6.6806 Y36.7292
G01 X6.6159 Y36.7061
G01 X6.6045 Y36.7017
G01 X6.5932 Y36.6967
G01 X6.5311 Y36.6673
G01 X6.5202 Y36.6618
G01 X6.5095 Y36.6558
G01 X6.4506 Y36.6205
